; generated by Slic3r 1.2.9 on 2021-10-22 at 20:06:15

; external perimeters extrusion width = 0.40mm
; perimeters extrusion width = 0.67mm
; infill extrusion width = 0.67mm
; solid infill extrusion width = 0.67mm
; top infill extrusion width = 0.67mm

M190 S70 ; set bed temperature
M104 S185 ; set temperature
G28 ; home all axes
G1 Z5 F5000 ; lift nozzle

M109 S185 ; wait for temperature to be reached
G21 ; set units to millimeters
G90 ; use absolute coordinates
M82 ; use absolute distances for extrusion
G92 E0
G1 E-6.00000 F3000.00000
G92 E0
G1 Z0.500 F4800.000
G1 X27.038 Y0.000 F4800.000
G1 Z0.300 F4800.000
G1 E5.00000 F3000.00000
G1 X27.037 Y19.013 E6.27019 F1080.000
G1 X27.020 Y19.512 E6.30351
G1 X26.960 Y20.104 E6.34329
G1 X26.896 Y20.495 E6.36977
G1 X26.679 Y21.368 E6.42984
G1 X26.397 Y22.140 E6.48472
G1 X26.268 Y22.427 E6.50578
G1 X25.926 Y23.075 E6.55469
G1 X25.447 Y23.797 E6.61262
G1 X24.980 Y24.369 E6.66193
G1 X24.614 Y24.751 E6.69727
G1 X24.016 Y25.279 E6.75058
G1 X23.737 Y25.492 E6.77401
G1 X23.124 Y25.897 E6.82314
G1 X22.351 Y26.304 E6.88147
G1 X21.614 Y26.599 E6.93449
G1 X20.859 Y26.818 E6.98702
G1 X20.103 Y26.960 E7.03839
G1 X19.422 Y27.025 E7.08410
G1 X19.013 Y27.037 E7.11141
G1 X-18.891 Y27.038 E9.64363
G1 X-19.512 Y27.020 E9.68511
G1 X-20.104 Y26.960 E9.72489
G1 X-20.538 Y26.887 E9.75428
G1 X-20.940 Y26.798 E9.78176
G1 X-21.632 Y26.592 E9.83004
G1 X-22.427 Y26.268 E9.88738
G1 X-23.075 Y25.926 E9.93630
G1 X-23.552 Y25.623 E9.97408
G1 X-24.166 Y25.156 E10.02564
G1 X-24.418 Y24.935 E10.04799
G1 X-24.771 Y24.593 E10.08086
G1 X-25.279 Y24.016 E10.13222
G1 X-25.492 Y23.737 E10.15564
G1 X-25.897 Y23.124 E10.20477
G1 X-26.304 Y22.351 E10.26309
G1 X-26.599 Y21.614 E10.31613
G1 X-26.818 Y20.859 E10.36866
G1 X-26.960 Y20.103 E10.42002
G1 X-27.025 Y19.422 E10.46573
G1 X-27.037 Y19.013 E10.49305
G1 X-27.029 Y-19.325 E13.05425
G1 X-26.960 Y-20.104 E13.10650
G1 X-26.813 Y-20.878 E13.15913
G1 X-26.670 Y-21.399 E13.19522
G1 X-26.409 Y-22.111 E13.24589
G1 X-26.062 Y-22.836 E13.29957
G1 X-25.640 Y-23.527 E13.35369
G1 X-25.156 Y-24.166 E13.40723
G1 X-24.935 Y-24.418 E13.42961
G1 X-24.362 Y-24.986 E13.48349
G1 X-23.737 Y-25.492 E13.53723
G1 X-23.067 Y-25.931 E13.59073
G1 X-22.410 Y-26.276 E13.64033
G1 X-21.728 Y-26.558 E13.68963
G1 X-20.979 Y-26.788 E13.74197
G1 X-20.198 Y-26.946 E13.79517
G1 X-19.422 Y-27.025 E13.84731
G1 X18.914 Y-27.038 E16.40839
G1 X19.512 Y-27.020 E16.44833 F1080.000
G1 X20.166 Y-26.951 E16.49224
G1 X20.878 Y-26.813 E16.54071
G1 X21.368 Y-26.679 E16.57467
G1 X22.111 Y-26.410 E16.62747
G1 X22.427 Y-26.268 E16.65059
G1 X23.075 Y-25.926 E16.69951
G1 X23.552 Y-25.623 E16.73729
G1 X24.166 Y-25.156 E16.78883
G1 X24.418 Y-24.935 E16.81122
G1 X24.986 Y-24.362 E16.86508
G1 X25.452 Y-23.790 E16.91442
G1 X25.897 Y-23.124 E16.96795
G1 X26.202 Y-22.565 E17.01049
G1 X26.599 Y-21.614 E17.07930
G1 X26.803 Y-20.920 E17.12763
G1 X26.946 Y-20.198 E17.17676
G1 X27.025 Y-19.422 E17.22891
G1 X27.037 Y-19.013 E17.25623
G1 X27.038 Y-0.060 E18.52241
G1 X26.502 Y-0.060 F4800.000
G1 X26.502 Y19.011 E19.79648 F1080.000
G1 X26.485 Y19.480 E19.82783
G1 X26.430 Y20.028 E19.86459
G1 X26.370 Y20.394 E19.88938
G1 X26.168 Y21.209 E19.94545
G1 X25.904 Y21.931 E19.99681
G1 X25.783 Y22.201 E20.01660
G1 X25.466 Y22.802 E20.06197
G1 X25.016 Y23.480 E20.11633
G1 X24.583 Y24.009 E20.16205
G1 X24.241 Y24.366 E20.19505
G1 X23.683 Y24.860 E20.24481
G1 X23.419 Y25.060 E20.26694
G1 X22.851 Y25.437 E20.31250
G1 X22.125 Y25.818 E20.36728
G1 X21.437 Y26.093 E20.41678
G1 X20.732 Y26.297 E20.46581
G1 X20.026 Y26.430 E20.51377
G1 X19.397 Y26.490 E20.55603
G1 X19.012 Y26.502 E20.58176
G1 X-18.891 Y26.502 E23.11386
G1 X-19.480 Y26.485 E23.15324
G1 X-20.028 Y26.430 E23.19001
G1 X-20.437 Y26.361 E23.21770
G1 X-20.813 Y26.278 E23.24343
G1 X-21.455 Y26.087 E23.28821
G1 X-22.201 Y25.783 E23.34202
G1 X-22.802 Y25.466 E23.38739
G1 X-23.249 Y25.181 E23.42279
G1 X-23.821 Y24.747 E23.47078
G1 X-24.059 Y24.538 E23.49192
G1 X-24.544 Y24.052 E23.53778
G1 X-24.860 Y23.683 E23.57026
G1 X-25.060 Y23.419 E23.59238
G1 X-25.437 Y22.851 E23.63795
G1 X-25.818 Y22.125 E23.69271
G1 X-26.093 Y21.437 E23.74222
G1 X-26.297 Y20.732 E23.79126
G1 X-26.430 Y20.026 E23.83921
G1 X-26.490 Y19.397 E23.88146
G1 X-26.502 Y19.011 E23.90721
G1 X-26.494 Y-19.300 E26.46659
G1 X-26.430 Y-20.028 E26.51543
G1 X-26.293 Y-20.751 E26.56460
G1 X-26.158 Y-21.239 E26.59844
G1 X-25.916 Y-21.903 E26.64560
G1 X-25.592 Y-22.579 E26.69571
G1 X-25.198 Y-23.224 E26.74622
G1 X-24.747 Y-23.821 E26.79618
G1 X-24.538 Y-24.059 E26.81735
G1 X-24.003 Y-24.588 E26.86763
G1 X-23.419 Y-25.060 E26.91779
G1 X-22.794 Y-25.470 E26.96773
G1 X-22.184 Y-25.791 E27.01377
G1 X-21.549 Y-26.053 E27.05966
G1 X-20.850 Y-26.268 E27.10852
G1 X-20.122 Y-26.416 E27.15818
G1 X-19.397 Y-26.490 E27.20686
G1 X18.913 Y-26.502 E29.76612
G1 X19.480 Y-26.485 E29.80408 F1080.000
G1 X20.089 Y-26.421 E29.84498
G1 X20.751 Y-26.293 E29.89000
G1 X21.239 Y-26.158 E29.92384
G1 X21.902 Y-25.916 E29.97100
G1 X22.579 Y-25.592 E30.02112
G1 X23.224 Y-25.198 E30.07163
G1 X23.480 Y-25.016 E30.09258
G1 X24.059 Y-24.538 E30.14276
G1 X24.544 Y-24.052 E30.18860
G1 X24.878 Y-23.660 E30.22304
G1 X25.298 Y-23.074 E30.27117
G1 X25.470 Y-22.794 E30.29315
G1 X25.818 Y-22.125 E30.34354
G1 X26.064 Y-21.519 E30.38721
G1 X26.268 Y-20.850 E30.43396
G1 X26.430 Y-20.026 E30.49003
G1 X26.490 Y-19.397 E30.53228
G1 X26.502 Y-19.011 E30.55802
G1 X26.502 Y-0.120 E31.82008
G1 F3840
G1 X26.502 Y7.560 E26.12008
G1 E25.82008 F3000.00000
G92 E0
G1 Z0.800 F4800.000
G1 X21.306 Y-0.120 F4800.000
G1 Z0.300 F4800.000
G1 E5.00000 F3000.00000
G1 X21.296 Y19.204 E6.29094 F1080.000
G1 X21.248 Y19.503 E6.31117
G1 X21.154 Y19.818 E6.33312
G1 X21.043 Y20.066 E6.35130
G1 X20.891 Y20.317 E6.37094
G1 X20.736 Y20.516 E6.38777
G1 X20.502 Y20.748 E6.40978
G1 X20.285 Y20.913 E6.42800
G1 X19.996 Y21.077 E6.45017
G1 X19.689 Y21.199 E6.47226
G1 X19.468 Y21.257 E6.48748
G1 X19.007 Y21.305 E6.51850
G1 X-19.039 Y21.304 E9.06012
G1 X-19.365 Y21.275 E9.08202
G1 X-19.642 Y21.213 E9.10096
G1 X-19.938 Y21.104 E9.12203
G1 X-20.265 Y20.926 E9.14693
G1 X-20.516 Y20.736 E9.16798
G1 X-20.748 Y20.502 E9.19000
G1 X-20.914 Y20.285 E9.20822
G1 X-21.077 Y19.996 E9.23038
G1 X-21.199 Y19.689 E9.25248
G1 X-21.257 Y19.468 E9.26770
G1 X-21.305 Y19.007 E9.29871
G1 X-21.305 Y-19.009 E11.83836
G1 X-21.255 Y-19.471 E11.86938
G1 X-21.139 Y-19.857 E11.89635
G1 X-20.926 Y-20.265 E11.92708
G1 X-20.638 Y-20.621 E11.95769
G1 X-20.285 Y-20.914 E11.98833
G1 X-19.903 Y-21.121 E12.01736
G1 X-19.468 Y-21.257 E12.04777
G1 X-19.007 Y-21.305 E12.07878
G1 X18.894 Y-21.306 E14.61077
G1 X19.260 Y-21.290 E14.63521 F1080.000
G1 X19.726 Y-21.187 E14.66707
G1 X20.122 Y-21.013 E14.69599
G1 X20.499 Y-20.750 E14.72667
G1 X20.776 Y-20.469 E14.75306
G1 X21.039 Y-20.073 E14.78481
G1 X21.199 Y-19.689 E14.81263
G1 X21.291 Y-19.250 E14.84260
G1 X21.306 Y-18.892 E14.86651
G1 X21.306 Y-0.180 E16.11658
G1 X20.770 Y-0.180 F4800.000
G1 X20.765 Y19.100 E17.40461 F1080.000
G1 X20.743 Y19.301 E17.41812
G1 X20.684 Y19.540 E17.43451
G1 X20.581 Y19.794 E17.45283
G1 X20.480 Y19.970 E17.46638
G1 X20.335 Y20.160 E17.48236
G1 X20.149 Y20.345 E17.49991
G1 X19.988 Y20.467 E17.51340
G1 X19.775 Y20.589 E17.52983
G1 X19.523 Y20.690 E17.54789
G1 X19.354 Y20.733 E17.55959
G1 X19.000 Y20.770 E17.58336
G1 X-19.001 Y20.770 E20.12205
G1 X-19.195 Y20.758 E20.13500
G1 X-19.490 Y20.699 E20.15514
G1 X-19.716 Y20.617 E20.17118
G1 X-19.947 Y20.494 E20.18865
G1 X-20.150 Y20.344 E20.20551
G1 X-20.345 Y20.149 E20.22396
G1 X-20.467 Y19.988 E20.23745
G1 X-20.589 Y19.775 E20.25388
G1 X-20.690 Y19.523 E20.27194
G1 X-20.733 Y19.354 E20.28364
G1 X-20.770 Y19.000 E20.30741
G1 X-20.770 Y-19.001 E22.84610
G1 X-20.731 Y-19.363 E22.87040
G1 X-20.642 Y-19.656 E22.89086
G1 X-20.480 Y-19.970 E22.91444
G1 X-20.259 Y-20.243 E22.93792
G1 X-19.988 Y-20.467 E22.96142
G1 X-19.688 Y-20.630 E22.98421
G1 X-19.354 Y-20.733 E23.00758
G1 X-19.000 Y-20.770 E23.03135
G1 X18.892 Y-20.770 E25.56272
G1 X19.195 Y-20.758 E25.58298 F1080.000
G1 X19.553 Y-20.680 E25.60747
G1 X19.861 Y-20.545 E25.62993
G1 X20.150 Y-20.344 E25.65344
G1 X20.362 Y-20.129 E25.67361
G1 X20.563 Y-19.829 E25.69776
G1 X20.700 Y-19.487 E25.72234
G1 X20.763 Y-19.145 E25.74561
G1 X20.770 Y-0.240 E27.00855
G1 X20.234 Y-0.240 F4800.000
G1 X20.234 Y19.000 E28.29387 F1080.000
G1 X20.185 Y19.339 E28.31677
G1 X20.129 Y19.494 E28.32779
G1 X20.038 Y19.666 E28.34081
G1 X19.850 Y19.893 E28.36048
G1 X19.584 Y20.086 E28.38246
G1 X19.346 Y20.184 E28.39962
G1 X18.993 Y20.234 E28.42343
G1 X-18.994 Y20.234 E30.96117
G1 X-19.339 Y20.185 E30.98447
G1 X-19.494 Y20.129 E30.99549
G1 X-19.666 Y20.038 E31.00850
G1 X-19.893 Y19.850 E31.02818
G1 X-20.086 Y19.584 E31.05016
G1 X-20.183 Y19.346 E31.06731
G1 X-20.234 Y18.993 E31.09113
G1 X-20.234 Y-18.994 E33.62887
G1 X-20.215 Y-19.206 E33.64312
G1 X-20.146 Y-19.455 E33.66039
G1 X-20.033 Y-19.674 E33.67681
G1 X-19.880 Y-19.865 E33.69318
G1 X-19.692 Y-20.021 E33.70954
G1 X-19.474 Y-20.139 E33.72607
G1 X-19.239 Y-20.210 E33.74242
G1 X-18.993 Y-20.234 E33.75895
G1 X18.892 Y-20.234 E36.28987
G1 X19.130 Y-20.227 E36.30578 F1080.000
G1 X19.339 Y-20.185 E36.32003
G1 X19.567 Y-20.095 E36.33644
G1 X19.773 Y-19.961 E36.35282
G1 X19.948 Y-19.790 E36.36919
G1 X20.086 Y-19.584 E36.38576
G1 X20.180 Y-19.358 E36.40208
G1 X20.229 Y-19.106 E36.41923
G1 X20.234 Y-0.300 E37.67558
G1 X19.666 Y-0.300 F4800.000
G1 X19.666 Y18.977 E38.96340 F420.000
G1 X19.655 Y19.106 E38.97201
G1 X19.617 Y19.245 E38.98169
G1 X19.557 Y19.362 E38.99046
G1 X19.475 Y19.465 E38.99924
G1 X19.374 Y19.548 E39.00797
G1 X19.251 Y19.614 E39.01729
G1 X19.129 Y19.651 E39.02581
G1 X18.882 Y19.667 E39.04239
G1 X-18.977 Y19.666 E41.57156
G1 X-19.106 Y19.655 E41.58017
G1 X-19.245 Y19.617 E41.58985
G1 X-19.362 Y19.557 E41.59862
G1 X-19.465 Y19.475 E41.60739
G1 X-19.548 Y19.374 E41.61612
G1 X-19.614 Y19.251 E41.62544
G1 X-19.651 Y19.129 E41.63397
G1 X-19.667 Y18.882 E41.65054
G1 X-19.666 Y-18.977 E44.17971
G1 X-19.655 Y-19.106 E44.18832
G1 X-19.617 Y-19.245 E44.19800
G1 X-19.557 Y-19.362 E44.20677
G1 X-19.475 Y-19.465 E44.21555
G1 X-19.374 Y-19.548 E44.22427
G1 X-19.251 Y-19.614 E44.23360
G1 X-19.125 Y-19.652 E44.24243
G1 X-18.976 Y-19.666 E44.25242
G1 X18.977 Y-19.666 E46.78789
G1 X19.106 Y-19.655 E46.79649 F420.000
G1 X19.245 Y-19.617 E46.80618
G1 X19.362 Y-19.557 E46.81495
G1 X19.465 Y-19.475 E46.82372
G1 X19.548 Y-19.374 E46.83245
G1 X19.614 Y-19.251 E46.84177
G1 X19.652 Y-19.125 E46.85061
G1 X19.666 Y-18.976 E46.86060
G1 X19.666 Y-0.360 E48.10423
G1 X19.320 Y-0.100 F4800.000
G1 X19.131 Y-0.360 F4800.000
G1 X19.131 Y18.954 E49.39454 F840.000
G1 X19.117 Y19.115 E49.40530
G1 X18.865 Y19.131 E49.42219
G1 X-18.954 Y19.131 E51.94870
G1 X-19.115 Y19.117 E51.95946
G1 X-19.131 Y18.865 E51.97635
G1 X-19.131 Y-18.954 E54.50287
G1 X-19.117 Y-19.115 E54.51362
G1 X-18.951 Y-19.131 E54.52479
G1 X18.954 Y-19.131 E57.05704
G1 X19.115 Y-19.117 E57.06780
G1 X19.131 Y-18.951 E57.07897 F840.000
G1 X19.131 Y-0.420 E58.31690
G1 F3840
G1 X19.131 Y7.260 E52.61690
G1 E52.31690 F3000.00000
G92 E0
G1 Z0.800 F4800.000
G1 X-6.373 Y-18.595 F4800.000
G1 Z0.300 F4800.000
G1 E5.00000 F3000.00000
G1 X-0.872 Y-18.595 E5.36748 F288.000
G1 X-0.864 Y-18.282 E5.38837
G1 X-1.670 Y-18.238 E5.44233 F288.000
G1 X-2.997 Y-18.068 E5.53169
G1 X-4.307 Y-17.801 E5.62104
G1 X-5.596 Y-17.439 E5.71042
G1 X-6.853 Y-16.984 E5.79979
G1 X-8.073 Y-16.439 E5.88904
G1 X-9.253 Y-15.805 E5.97851
G1 X-9.454 Y-15.678 E5.99438
G1 X-10.052 Y-16.028 E6.04072
G1 X-10.462 Y-16.201 E6.07043
G1 X-11.156 Y-16.396 E6.11861
G1 X-11.882 Y-16.472 E6.16735
G1 X-12.326 Y-16.462 E6.19705
G1 X-13.090 Y-16.346 E6.24864
G1 X-13.250 Y-16.976 E6.29205
G1 X-13.423 Y-17.373 E6.32100
G1 X-13.762 Y-17.877 E6.36158
G1 X-14.121 Y-18.231 E6.39527
G1 X-14.318 Y-18.372 E6.41139
G1 X-14.246 Y-18.595 E6.42705
G1 X-6.433 Y-18.595 E6.94900
G1 X-18.595 Y-18.595 F4800.000
G1 X-17.616 Y-18.595 E7.01437 F288.000
G1 X-17.542 Y-18.377 E7.02974
G1 X-17.837 Y-18.150 E7.05462 F288.000
G1 X-18.134 Y-17.821 E7.08418
G1 X-18.364 Y-17.464 E7.11262
G1 X-18.595 Y-17.532 E7.12868
G1 X-18.595 Y-18.535 E7.19571
G1 X-15.726 Y-9.545 F4800.000
G1 X-15.670 Y-9.465 E7.20225 F288.000
G1 X-15.807 Y-9.250 E7.21929
G1 X-16.440 Y-8.072 E7.30864
G1 X-16.984 Y-6.853 E7.39780
G1 X-17.439 Y-5.593 E7.48730
G1 X-17.801 Y-4.304 E7.57673
G1 X-18.067 Y-2.998 E7.66582
G1 X-18.238 Y-1.669 E7.75532
G1 X-18.283 Y-0.860 E7.80945
G1 X-18.595 Y-0.868 E7.83034
G1 X-18.595 Y-14.742 E8.75720
G1 X-18.367 Y-14.812 E8.77311
G1 X-18.017 Y-14.290 E8.81508
G1 X-17.586 Y-13.884 E8.85463 F288.000
G1 X-17.110 Y-13.604 E8.89156
G1 X-16.628 Y-13.421 E8.92600
G1 X-16.264 Y-13.348 E8.95081
G1 X-16.426 Y-12.666 E8.99762
G1 X-16.475 Y-11.910 E9.04828
G1 X-16.396 Y-11.156 E9.09893
G1 X-16.190 Y-10.426 E9.14958
G1 X-15.865 Y-9.741 E9.20023
G1 X-15.761 Y-9.594 E9.21224
G1 F3840
G1 X-15.670 Y-9.465 E9.09503
G1 F3840
G1 X-15.807 Y-9.250 E8.90581
G1 F3840
G1 X-16.440 Y-8.072 E7.91308
G1 F3840
G1 X-16.984 Y-6.853 E6.92257
G1 F3840
G1 X-17.439 Y-5.593 E5.92827
G1 F3840
G1 X-17.801 Y-4.304 E4.93466
G1 F3840
G1 X-18.067 Y-2.998 E3.94499
G1 F3840
G1 X-18.142 Y-2.419 E3.51224
G1 E3.21224 F3000.00000
G92 E0
G1 Z0.800 F4800.000
G1 X-18.595 Y10.881 F4800.000
G1 Z0.300 F4800.000
G1 E5.00000 F3000.00000
G1 X-18.595 Y1.000 E5.66007 F288.000
G1 X-18.288 Y0.986 E5.68058
G1 X-18.165 Y2.335 E5.77106
G1 X-17.946 Y3.657 E5.86056 F288.000
G1 X-17.631 Y4.958 E5.95001
G1 X-17.223 Y6.228 E6.03908
G1 X-16.721 Y7.472 E6.12875
G1 X-16.136 Y8.662 E6.21728
G1 X-15.678 Y9.453 E6.27838
G1 X-16.043 Y10.078 E6.32672
G1 X-16.311 Y10.794 E6.37781
G1 X-16.452 Y11.532 E6.42795
G1 X-16.467 Y12.289 E6.47857
G1 X-16.342 Y13.120 E6.53470
G1 X-16.815 Y13.229 E6.56714
G1 X-17.373 Y13.493 E6.60839
G1 X-17.837 Y13.850 E6.64752
G1 X-18.134 Y14.179 E6.67708
G1 X-18.365 Y14.537 E6.70555
G1 X-18.595 Y14.469 E6.72161
G1 X-18.595 Y10.941 E6.95731
G1 X-18.595 Y18.595 F4800.000
G1 X-18.595 Y17.257 E7.04668 F288.000
G1 X-18.367 Y17.188 E7.06258
G1 X-18.017 Y17.710 E7.10458
G1 X-17.586 Y18.116 E7.14414 F288.000
G1 X-17.174 Y18.358 E7.17607
G1 X-17.239 Y18.595 E7.19248
G1 X-18.535 Y18.595 E7.27911
G1 X-7.504 Y16.693 F4800.000
G1 X-6.853 Y16.984 E7.32674 F288.000
G1 X-5.608 Y17.434 E7.41519
G1 X-4.936 Y17.636 E7.46208
G1 X-3.653 Y17.946 E7.55027
G1 X-2.335 Y18.165 E7.63952
G1 X-0.987 Y18.288 E7.72993
G1 X-1.001 Y18.595 E7.75044
G1 X-14.506 Y18.595 E8.65259
G1 X-14.574 Y18.365 E8.66863
G1 X-14.181 Y18.110 E8.69988
G1 X-13.761 Y17.708 E8.73873
G1 X-13.424 Y17.209 E8.77895
G1 X-13.218 Y16.699 E8.81571
G1 X-13.136 Y16.339 E8.84038
G1 X-12.326 Y16.462 E8.89507
G1 X-11.882 Y16.472 E8.92477
G1 X-11.156 Y16.396 E8.97351
G1 X-10.462 Y16.201 E9.02169
G1 X-10.052 Y16.028 E9.05140
G1 X-9.454 Y15.678 E9.09774
G1 X-9.253 Y15.805 E9.11361
G1 X-8.073 Y16.439 E9.20309 F288.000
G1 X-7.559 Y16.669 E9.24069
G1 X9.917 Y18.595 F4800.000
G1 X1.002 Y18.595 E9.83626 F288.000
G1 X0.988 Y18.288 E9.85677
G1 X2.331 Y18.165 E9.94691
G1 X3.655 Y17.946 E10.03651
G1 X4.955 Y17.631 E10.12589
G1 X6.229 Y17.223 E10.21525
G1 X7.469 Y16.722 E10.30461
G1 X8.658 Y16.138 E10.39311
G1 X9.453 Y15.678 E10.45447
G1 X10.078 Y16.043 E10.50281
G1 X10.794 Y16.311 E10.55391 F288.000
G1 X11.532 Y16.452 E10.60405
G1 X12.289 Y16.467 E10.65467
G1 X13.039 Y16.354 E10.70532
G1 X13.318 Y16.262 E10.72494
G1 X13.454 Y16.807 E10.76247
G1 X13.692 Y17.277 E10.79767
G1 X13.983 Y17.710 E10.83251
G1 X14.414 Y18.116 E10.87207
G1 X14.826 Y18.358 E10.90403
G1 X14.762 Y18.595 E10.92044
G1 X9.977 Y18.595 E11.24013
G1 X17.997 Y17.939 F4800.000
G1 X18.239 Y17.708 E11.26246 F288.000
G1 X18.367 Y17.518 E11.27781
G1 X18.595 Y17.587 E11.29370
G1 X18.595 Y18.595 E11.36104 F288.000
G1 X17.494 Y18.595 E11.43459
G1 X17.426 Y18.365 E11.45062
G1 X17.819 Y18.110 E11.48191
G1 X17.954 Y17.981 E11.49441
G1 X18.595 Y9.793 F4800.000
G1 X18.595 Y14.246 E11.79190 F288.000
G1 X18.367 Y14.315 E11.80780
G1 X18.238 Y14.123 E11.82330
G1 X17.879 Y13.769 E11.85699
G1 X17.467 Y13.474 E11.89082
G1 X16.912 Y13.227 E11.93139
G1 X16.346 Y13.088 E11.97031
