; generated by Slic3r 1.2.9 on 2022-04-13 at 18:25:40

; external perimeters extrusion width = 0.40mm
; perimeters extrusion width = 0.67mm
; infill extrusion width = 0.67mm
; solid infill extrusion width = 0.67mm
; top infill extrusion width = 0.67mm

G28 ; home all axes
M104 S190
M190 S70 ; set bed temperature
G1 Z220
G28
G1 X0.000 Y70.000 Z30.300 F8000.000
M109 S190
G1 Z0.2 F2000
G1 X40.000 Y50.000 Z0.1 E10.000
G1 X0 Y0 Z15

G21 ; set units to millimeters
G90 ; use absolute coordinates
M82 ; use absolute distances for extrusion
G92 E0
G1 Z0.300 F4800.000
G1 E-2.00000 F2400.00000
G92 E0
G1 X26.071 Y0.000 F4800.000
G1 E0.80000 F2400.00000
G1 X26.071 Y15.000 E1.90229 F1080.000
G1 X25.673 Y17.943 E2.12049
G1 X24.507 Y20.673 E2.33870
G1 X22.657 Y22.996 E2.55690
G1 X20.257 Y24.744 E2.77511
G1 X17.478 Y25.790 E2.99331
G1 X15.000 Y26.071 E3.17657
G1 X-15.000 Y26.071 E5.38115
G1 X-17.943 Y25.673 E5.59936
G1 X-20.673 Y24.507 E5.81756
G1 X-22.996 Y22.657 E6.03577
G1 X-24.744 Y20.257 E6.25397
G1 X-25.790 Y17.478 E6.47218
G1 X-26.071 Y15.000 E6.65543
G1 X-26.071 Y-15.000 E8.86001
G1 X-25.673 Y-17.943 E9.07822
G1 X-24.507 Y-20.673 E9.29642
G1 X-22.657 Y-22.996 E9.51463
G1 X-20.257 Y-24.744 E9.73283
G1 X-17.478 Y-25.790 E9.95104
G1 X-15.000 Y-26.071 E10.13430
G1 X15.000 Y-26.071 E12.33887
G1 X17.943 Y-25.673 E12.55708
G1 X20.673 Y-24.507 E12.77528 F1080.000
G1 X22.996 Y-22.657 E12.99349
G1 X24.744 Y-20.257 E13.21169
G1 X25.790 Y-17.478 E13.42990
G1 X26.071 Y-15.000 E13.61316
G1 X26.071 Y-0.060 E14.71104
G1 X25.536 Y0.000 F4800.000
G1 X25.536 Y15.000 E15.81333 F1080.000
G1 X25.138 Y17.869 E16.02616
G1 X23.973 Y20.521 E16.23900
G1 X22.131 Y22.756 E16.45184
G1 X19.750 Y24.404 E16.66467
G1 X17.009 Y25.342 E16.87751
G1 X15.000 Y25.536 E17.02586
G1 X-15.000 Y25.536 E19.23044
G1 X-17.869 Y25.138 E19.44328
G1 X-20.521 Y23.973 E19.65611
G1 X-22.756 Y22.131 E19.86895
G1 X-24.404 Y19.750 E20.08179
G1 X-25.342 Y17.009 E20.29462
G1 X-25.536 Y15.000 E20.44297
G1 X-25.536 Y-15.000 E22.64755
G1 X-25.138 Y-17.869 E22.86039
G1 X-23.973 Y-20.521 E23.07323
G1 X-22.131 Y-22.756 E23.28606
G1 X-19.750 Y-24.404 E23.49890
G1 X-17.009 Y-25.342 E23.71174
G1 X-15.000 Y-25.536 E23.86009
G1 X15.000 Y-25.536 E26.06466
G1 X17.869 Y-25.138 E26.27750
G1 X20.521 Y-23.973 E26.49034 F1080.000
G1 X22.756 Y-22.131 E26.70317
G1 X24.404 Y-19.750 E26.91601
G1 X25.342 Y-17.009 E27.12885
G1 X25.536 Y-15.000 E27.27720
G1 X25.536 Y-0.060 E28.37508
G1 E26.37508 F2400.00000
G92 E0
G1 X16.339 Y0.000 F4800.000
G1 E0.80000 F2400.00000
G1 X16.339 Y15.555 E1.94305 F1080.000
G1 X15.555 Y16.339 E2.02457
G1 X-15.555 Y16.339 E4.31066
G1 X-16.339 Y15.555 E4.39218
G1 X-16.339 Y-15.555 E6.67828
G1 X-15.555 Y-16.339 E6.75980
G1 X15.555 Y-16.339 E9.04589
G1 X16.339 Y-15.555 E9.12741
G1 X16.339 Y-0.060 E10.26605 F1080.000
G1 X15.803 Y0.000 F4800.000
G1 X15.803 Y15.333 E11.39280 F1080.000
G1 X15.333 Y15.803 E11.44171
G1 X-15.333 Y15.803 E13.69520
G1 X-15.803 Y15.333 E13.74411
G1 X-15.803 Y-15.333 E15.99760
G1 X-15.333 Y-15.803 E16.04651
G1 X15.333 Y-15.803 E18.30000
G1 X15.803 Y-15.333 E18.34891 F1080.000
G1 X15.803 Y-0.060 E19.47124
G1 E17.47124 F2400.00000
G92 E0
G1 X15.268 Y-15.111 F4800.000
G1 E0.80000 F2400.00000
G1 X15.268 Y15.111 E3.02088 F1080.000
G1 X15.111 Y15.268 E3.03719
G1 X-15.111 Y15.268 E5.25807
G1 X-15.268 Y15.111 E5.27437
G1 X-15.268 Y-15.111 E7.49525
G1 X-15.111 Y-15.268 E7.51156
G1 X15.111 Y-15.268 E9.73244
G1 X15.225 Y-15.153 E9.74433
G1 X14.700 Y-14.700 F4800.000
G1 X14.700 Y14.700 E11.90482 F216.000
G1 X-14.700 Y14.700 E14.06531
G1 X-14.700 Y-14.700 E16.22580
G1 X14.640 Y-14.700 E18.38188
G1 X14.500 Y-14.354 F4800.000
G1 X14.164 Y-14.164 F4800.000
G1 X14.164 Y14.164 E20.46365 F720.000
G1 X-14.164 Y14.164 E22.54541
G1 X-14.164 Y-14.164 E24.62718
G1 X14.104 Y-14.164 E26.70454
G1 X13.629 Y-13.629 F4800.000
G1 X13.629 Y-11.908 E26.83096 F288.000
G1 X13.396 Y-11.841 E26.84873
G1 X13.033 Y-12.419 E26.89886
G1 X12.419 Y-13.033 E26.96271
G1 X11.841 Y-13.396 E27.01284
G1 X11.908 Y-13.629 E27.03061
G1 X13.569 Y-13.629 E27.15263
G1 E25.15263 F2400.00000
G92 E0
G1 X13.629 Y-8.092 F4800.000
G1 E0.80000 F2400.00000
G1 X13.629 Y13.629 E2.39614 F720.000
G1 X-13.629 Y13.629 E4.39919
G1 X-13.629 Y-13.629 E6.40223
G1 X8.092 Y-13.629 E7.99837
G1 X8.159 Y-13.396 E8.01615
G1 X7.581 Y-13.033 E8.06628
G1 X6.967 Y-12.419 E8.13012
G1 X6.504 Y-11.683 E8.19397
G1 X6.217 Y-10.863 E8.25782
G1 X6.120 Y-10.000 E8.32166
G1 X6.217 Y-9.137 E8.38551
G1 X6.504 Y-8.317 E8.44935
G1 X6.967 Y-7.581 E8.51320
G1 X7.581 Y-6.967 E8.57705
G1 X8.317 Y-6.504 E8.64089
G1 X9.137 Y-6.217 E8.70474
G1 X10.000 Y-6.120 E8.76859
G1 X10.863 Y-6.217 E8.83243
G1 X11.683 Y-6.504 E8.89628
G1 X12.419 Y-6.967 E8.96012
G1 X13.033 Y-7.581 E9.02397
G1 X13.396 Y-8.159 E9.07410
G1 X13.571 Y-8.108 E9.08747
G1 X12.524 Y-8.784 F4800.000
G1 X12.191 Y-8.253 E9.13357 F288.000
G1 X11.747 Y-7.809 E9.17968
G1 X11.216 Y-7.476 E9.22579
G1 X10.623 Y-7.268 E9.27189
G1 X10.000 Y-7.198 E9.31800
G1 X9.377 Y-7.268 E9.36411
G1 X8.784 Y-7.476 E9.41021
G1 X8.253 Y-7.809 E9.45632
G1 X7.809 Y-8.253 E9.50243
G1 X7.476 Y-8.784 E9.54853
G1 X7.268 Y-9.377 E9.59464
G1 X7.198 Y-10.000 E9.64075
G1 X7.268 Y-10.623 E9.68685
G1 X7.476 Y-11.216 E9.73296
G1 X7.809 Y-11.747 E9.77907
G1 X8.253 Y-12.191 E9.82517
G1 X8.784 Y-12.524 E9.87128
G1 X9.377 Y-12.732 E9.91739
G1 X9.985 Y-12.800 E9.96241 F288.000
G1 X10.623 Y-12.732 E10.00952
G1 X11.216 Y-12.524 E10.05568
G1 X11.747 Y-12.191 E10.10179
G1 X12.191 Y-11.747 E10.14790
G1 X12.524 Y-11.216 E10.19400
G1 X12.732 Y-10.623 E10.24011
G1 X12.802 Y-10.000 E10.28622
G1 X12.732 Y-9.377 E10.33232
G1 X12.544 Y-8.841 E10.37402
G1 X12.737 Y-8.446 F4800.000
G1 X13.030 Y-8.607 F4800.000
G1 X12.612 Y-7.917 E10.43333 F288.000
G1 X12.083 Y-7.388 E10.48831
G1 X11.450 Y-6.990 E10.54328
G1 X10.743 Y-6.743 E10.59826
G1 X10.000 Y-6.659 E10.65324
G1 X9.257 Y-6.743 E10.70821
G1 X8.550 Y-6.990 E10.76319
G1 X7.917 Y-7.388 E10.81817
G1 X7.388 Y-7.917 E10.87314
G1 X6.990 Y-8.550 E10.92812
G1 X6.743 Y-9.257 E10.98310
G1 X6.659 Y-10.000 E11.03807
G1 X6.743 Y-10.743 E11.09305
G1 X6.990 Y-11.450 E11.14803
G1 X7.388 Y-12.083 E11.20300
G1 X7.917 Y-12.612 E11.25798
G1 X8.550 Y-13.010 E11.31296
G1 X9.257 Y-13.257 E11.36793
G1 X9.984 Y-13.339 E11.42171 F288.000
G1 X10.741 Y-13.258 E11.47769
G1 X11.450 Y-13.010 E11.53284
G1 X12.083 Y-12.612 E11.58781
G1 X12.612 Y-12.083 E11.64279
G1 X13.010 Y-11.450 E11.69777
G1 X13.257 Y-10.743 E11.75274
G1 X13.341 Y-10.000 E11.80772
G1 X13.257 Y-9.257 E11.86270
G1 X13.050 Y-8.664 E11.90883
G1 X13.576 Y-8.386 F4800.000
G1 X13.703 Y-9.133 E12.02689 F360.000
G1 X13.727 Y-9.514 E12.08650
G1 X13.727 Y-9.514 F4800.000
G1 X13.753 Y-9.984 E12.12106 F360.000
G1 X13.727 Y-10.486 E12.15797
G1 X13.703 Y-10.867 E12.21758 F360.000
G1 X13.576 Y-11.614 E12.33564
G1 X13.348 Y-12.446 F4800.000
G1 X13.293 Y-12.636 E12.35013 F360.000
G1 X13.100 Y-13.100 E12.38708
G1 X12.636 Y-13.293 E12.42403
G1 X12.446 Y-13.348 E12.43852
G1 X11.614 Y-13.576 F4800.000
G1 X10.864 Y-13.703 E12.55706 F360.000
G1 X10.484 Y-13.726 E12.61644
G1 X9.998 Y-13.752 E12.65217 F360.000
G1 X9.514 Y-13.727 E12.68779
G1 X9.514 Y-13.727 F4800.000
G1 X9.133 Y-13.703 E12.74739 F360.000
G1 X8.386 Y-13.576 E12.86546
G1 X7.205 Y-13.046 F4800.000
G1 X6.944 Y-13.307 E12.89285 F360.000
G1 X6.823 Y-12.664 E12.94136
G1 X6.180 Y-13.307 E13.00878
G1 X5.416 Y-13.307 E13.06540
G1 X6.509 Y-12.214 E13.17995
G1 X6.217 Y-11.742 E13.22108
G1 X4.652 Y-13.307 E13.38512
G1 X3.888 Y-13.307 E13.44173
G1 X6.019 Y-11.176 E13.66508
G1 X5.872 Y-10.560 E13.71205
G1 X3.124 Y-13.307 E14.00000
G1 X2.360 Y-13.307 E14.05661
G1 X5.798 Y-9.870 E14.41687
G1 X5.895 Y-9.009 E14.48108
G1 X1.596 Y-13.307 E14.93156
G1 X0.832 Y-13.307 E14.98817
G1 X6.387 Y-7.753 E15.57031
G1 X7.753 Y-6.387 F4800.000
G1 X13.307 Y-0.832 E16.15244 F360.000
G1 X13.307 Y-0.068 E16.20906
G1 X0.068 Y-13.307 E17.59654
G1 X-0.695 Y-13.307 E17.65315
G1 X13.307 Y0.695 E19.12069
G1 X13.307 Y1.459 E19.17730
G1 X-1.459 Y-13.307 E20.72491
G1 X-2.223 Y-13.307 E20.78152
G1 X13.307 Y2.223 E22.40918
G1 X13.307 Y2.987 E22.46579
G1 X-2.987 Y-13.307 E24.17352
G1 X-3.751 Y-13.307 E24.23013
G1 X13.307 Y3.751 E26.01791
G1 X13.307 Y4.515 E26.07453
G1 X-4.515 Y-13.307 E27.94237
G1 X-5.279 Y-13.307 E27.99898
G1 X13.307 Y5.279 E29.94689
G1 X13.307 Y6.043 E30.00350
G1 X-6.043 Y-13.307 E32.03147
G1 X-6.807 Y-13.307 E32.08808
G1 X13.307 Y6.807 E34.19610
G1 X13.307 Y7.571 E34.25272
G1 X-7.571 Y-13.307 E36.44080
G1 X-8.334 Y-13.307 E36.49741
G1 X13.307 Y8.334 E38.76556
G1 X13.307 Y9.098 E38.82217
G1 X-9.098 Y-13.307 E41.17038
G1 X-9.862 Y-13.307 E41.22699
G1 X13.307 Y9.862 E43.65526
G1 X13.307 Y10.626 E43.71187
G1 X-10.626 Y-13.307 E46.22020
G1 X-11.390 Y-13.307 E46.27682
G1 X13.307 Y11.390 E48.86521
G1 X13.307 Y12.154 E48.92182
G1 X-12.154 Y-13.307 E51.59027
G1 X-12.918 Y-13.307 E51.64688
G1 X13.307 Y12.918 E54.39539
G1 X12.933 Y13.307 E54.43543
G1 X-13.307 Y-12.933 E57.18549
G1 X-13.307 Y-12.169 E57.24210
G1 X12.169 Y13.307 E59.91210
G1 X11.405 Y13.307 E59.96872
G1 X-13.307 Y-11.405 E62.55866
G1 X-13.307 Y-10.641 E62.61527
G1 X10.641 Y13.307 E65.12515
G1 X9.877 Y13.307 E65.18176
G1 X-13.307 Y-9.877 E67.61158
G1 X-13.307 Y-9.113 E67.66819
G1 X9.113 Y13.307 E70.01795
G1 X8.349 Y13.307 E70.07456
G1 X-13.307 Y-8.349 E72.34426
G1 X-13.307 Y-7.585 E72.40088
G1 X7.585 Y13.307 E74.59051
G1 X6.821 Y13.307 E74.64713
G1 X-13.307 Y-6.821 E76.75670
G1 X-13.307 Y-6.058 E76.81332
G1 X6.058 Y13.307 E78.84283
G1 X5.294 Y13.307 E78.89944
G1 X-13.307 Y-5.294 E80.84890
G1 X-13.307 Y-4.530 E80.90551
G1 X4.530 Y13.307 E82.77491
G1 X3.766 Y13.307 E82.83152
G1 X-13.307 Y-3.766 E84.62086
G1 X-13.307 Y-3.002 E84.67747
G1 X3.002 Y13.307 E86.38674
G1 X2.238 Y13.307 E86.44336
G1 X-13.307 Y-2.238 E88.07257
G1 X-13.307 Y-1.474 E88.12918
G1 X1.474 Y13.307 E89.67834
G1 X0.710 Y13.307 E89.73495
G1 X-13.307 Y-0.710 E91.20404
G1 X-13.307 Y0.054 E91.26065
G1 X-0.054 Y13.307 E92.64969
G1 X-0.818 Y13.307 E92.70630
G1 X-13.307 Y0.818 E94.01527
G1 X-13.307 Y1.581 E94.07188
G1 X-1.581 Y13.307 E95.30079
G1 X-2.345 Y13.307 E95.35741
G1 X-13.307 Y2.345 E96.50626
G1 X-13.307 Y3.109 E96.56287
G1 X-3.109 Y13.307 E97.63166
G1 X-3.873 Y13.307 E97.68827
G1 X-13.307 Y3.873 E98.67700
G1 X-13.307 Y4.637 E98.73361
G1 X-4.637 Y13.307 E99.64228
G1 X-5.401 Y13.307 E99.69889
G1 X-13.307 Y5.401 E100.52750
G1 X-13.307 Y6.165 E100.58412
G1 X-6.165 Y13.307 E101.33266
G1 X-6.929 Y13.307 E101.38928
G1 X-13.307 Y6.929 E102.05776
G1 X-13.307 Y7.693 E102.11438
G1 X-7.693 Y13.307 E102.70280
G1 X-8.457 Y13.307 E102.75941
G1 X-13.307 Y8.457 E103.26778
G1 X-13.307 Y9.220 E103.32439
G1 X-9.220 Y13.307 E103.75270
G1 X-9.984 Y13.307 E103.80931
G1 X-13.307 Y9.984 E104.15756
G1 X-13.307 Y10.748 E104.21417
G1 X-10.748 Y13.307 E104.48235
G1 X-11.512 Y13.307 E104.53897
G1 X-13.307 Y11.512 E104.72709
G1 X-13.307 Y12.276 E104.78370
G1 X-12.276 Y13.307 E104.89177
G1 X-13.040 Y13.307 E104.94838
G1 X-13.307 Y13.040 E104.97638
G1 E102.97638 F2400.00000
G92 E0
G1 X9.009 Y-5.895 F4800.000
G1 E0.80000 F2400.00000
G1 X13.307 Y-1.596 E1.25049 F360.000
G1 X13.307 Y-2.360 E1.30710
G1 X9.870 Y-5.798 E1.66736
G1 X10.560 Y-5.872 E1.71878
G1 X13.307 Y-3.124 E2.00673
G1 X13.307 Y-3.888 E2.06334
G1 X11.176 Y-6.019 E2.28669
G1 X11.742 Y-6.217 E2.33112
G1 X13.307 Y-4.652 E2.49516
G1 X13.307 Y-5.416 E2.55177
G1 X12.214 Y-6.509 E2.66633
G1 X12.664 Y-6.823 E2.70698
G1 X13.307 Y-6.180 E2.77440
G1 X13.307 Y-6.944 E2.83102
G1 X13.046 Y-7.205 E2.85841
G1 E0.85841 F2400.00000
G92 E0
M104 S0 ; turn off temperature
M140 S0; turn off heated bed
G28
M84     ; disable motors

; filament used = 172.8mm (0.4cm3)

; avoid_crossing_perimeters = 0
; bed_shape = 99.4522x10.4528,97.8148x20.7912,95.1057x30.9017,91.3545x40.6737,86.6025x50,80.9017x58.7785,74.3145x66.9131,66.9131x74.3145,58.7785x80.9017,50x86.6025,40.6737x91.3545,30.9017x95.1057,20.7912x97.8148,10.4528x99.4522,0x100,-10.4528x99.4522,-20.7912x97.8148,-30.9017x95.1057,-40.6737x91.3545,-50x86.6025,-58.7785x80.9017,-66.9131x74.3145,-74.3145x66.9131,-80.9017x58.7785,-86.6025x50,-91.3545x40.6737,-95.1057x30.9017,-97.8148x20.7912,-99.4522x10.4528,-100x0,-99.4522x-10.4528,-97.8148x-20.7912,-95.1057x-30.9017,-91.3545x-40.6737,-86.6025x-50,-80.9017x-58.7785,-74.3145x-66.9131,-66.9131x-74.3145,-58.7785x-80.9017,-50x-86.6025,-40.6737x-91.3545,-30.9017x-95.1057,-20.7912x-97.8148,-10.4528x-99.4522,0x-100,10.4528x-99.4522,20.7912x-97.8148,30.9017x-95.1057,40.6737x-91.3545,50x-86.6025,58.7785x-80.9017,66.9131x-74.3145,74.3145x-66.9131,80.9017x-58.7785,86.6025x-50,91.3545x-40.6737,95.1057x-30.9017,97.8148x-20.7912,99.4522x-10.4528,100x0
; bed_temperature = 70
; before_layer_gcode = 
; bridge_acceleration = 0
; bridge_fan_speed = 100
; brim_width = 2
; complete_objects = 0
; cooling = 0
; default_acceleration = 0
; disable_fan_first_layers = 3
; duplicate_distance = 6
; end_gcode = M104 S0 ; turn off temperature\nM140 S0; turn off heated bed\nG28\nM84     ; disable motors\n
; extruder_clearance_height = 20
; extruder_clearance_radius = 20
; extruder_offset = 0x0
; extrusion_axis = E
; extrusion_multiplier = 1.1
; fan_always_on = 1
; fan_below_layer_time = 60
; filament_colour = #000000
; filament_diameter = 1.75
; first_layer_acceleration = 0
; first_layer_bed_temperature = 70
; first_layer_extrusion_width = 200%
; first_layer_speed = 40%
; first_layer_temperature = 190
; gcode_arcs = 0
; gcode_comments = 0
; gcode_flavor = reprap
; infill_acceleration = 0
; infill_first = 0
; layer_gcode = 
; max_fan_speed = 100
; max_print_speed = 50
; max_volumetric_speed = 0
; min_fan_speed = 100
; min_print_speed = 5
; min_skirt_length = 0
; notes = 
; nozzle_diameter = 0.4
; only_retract_when_crossing_perimeters = 1
; ooze_prevention = 0
; output_filename_format = [input_filename_base].gcode
; perimeter_acceleration = 0
; post_process = 
; pressure_advance = 0
; resolution = 0
; retract_before_travel = 2
; retract_layer_change = 0
; retract_length = 2
; retract_length_toolchange = 10
; retract_lift = 0
; retract_restart_extra = -1.2
; retract_restart_extra_toolchange = 0
; retract_speed = 40
; skirt_distance = 10
; skirt_height = 1
; skirts = 2
; slowdown_below_layer_time = 10
; spiral_vase = 0
; standby_temperature_delta = -5
; start_gcode = G28 ; home all axes\nM104 S[first_layer_temperature]\nM190 S70 ; set bed temperature\nG1 Z220\nG28\nG1 X0.000 Y70.000 Z30.300 F8000.000\nM109 S[first_layer_temperature]\nG1 Z0.2 F2000\nG1 X40.000 Y50.000 Z0.1 E10.000\nG1 X0 Y0 Z15\n
; temperature = 190
; threads = 2
; toolchange_gcode = 
; travel_speed = 80
; use_firmware_retraction = 0
; use_relative_e_distances = 0
; use_volumetric_e = 0
; vibration_limit = 0
; wipe = 0
; z_offset = 0
; dont_support_bridges = 1
; extrusion_width = 0
; first_layer_height = 0.3
; infill_only_where_needed = 0
; interface_shells = 0
; layer_height = 0.2
; raft_layers = 0
; seam_position = aligned
; support_material = 0
; support_material_angle = 0
; support_material_contact_distance = 0.2
; support_material_enforce_layers = 0
; support_material_extruder = 1
; support_material_extrusion_width = 0
; support_material_interface_extruder = 1
; support_material_interface_layers = 3
; support_material_interface_spacing = 0
; support_material_interface_speed = 100%
; support_material_pattern = rectilinear-grid
; support_material_spacing = 2.5
; support_material_speed = 45
; support_material_threshold = 0
; xy_size_compensation = 0
; bottom_solid_layers = 3
; bridge_flow_ratio = 1
; bridge_speed = 45
; external_fill_pattern = rectilinear
; external_perimeter_extrusion_width = 0
; external_perimeter_speed = 30%
; external_perimeters_first = 0
; extra_perimeters = 1
; fill_angle = 45
; fill_density = 100%
; fill_pattern = rectilinear
; gap_fill_speed = 15
; infill_every_layers = 1
; infill_extruder = 1
; infill_extrusion_width = 0
; infill_overlap = 15%
; infill_speed = 30
; overhangs = 1
; perimeter_extruder = 1
; perimeter_extrusion_width = 0
; perimeter_speed = 30
; perimeters = 3
; small_perimeter_speed = 12
; solid_infill_below_area = 70
