; generated by Slic3r 1.2.9 on 2019-05-17 at 21:52:17

; external perimeters extrusion width = 0.40mm
; perimeters extrusion width = 0.48mm
; infill extrusion width = 0.48mm
; solid infill extrusion width = 0.48mm
; top infill extrusion width = 0.48mm

M190 S65 ; set bed temperature
M104 S190 ; set temperature
G28 ; home all axes
G1 Z5 F5000 ; lift nozzle

M109 S190 ; wait for temperature to be reached
G21 ; set units to millimeters
G90 ; use absolute coordinates
M82 ; use absolute distances for extrusion
G92 E0
G1 Z0.400 F4800.000
G1 E-2.00000 F2400.00000
G92 E0
G1 X-0.201 Y-15.598 F4800.000
G1 E2.00000 F2400.00000
G1 X0.327 Y-15.598 E2.05643 F1800.000
G1 X1.747 Y-15.536 E2.20832 F1800.000
G1 X2.512 Y-15.464 E2.29039
G1 X3.242 Y-15.371 E2.36905
G1 X4.713 Y-15.109 E2.52880
G1 X5.430 Y-14.945 E2.60740
G1 X6.202 Y-14.740 E2.69282
G1 X7.498 Y-14.328 E2.83818
G1 X8.781 Y-13.833 E2.98514
G1 X9.519 Y-13.506 E3.07144
G1 X10.184 Y-13.183 E3.15048
G1 X11.413 Y-12.513 E3.30010
G1 X12.677 Y-11.714 E3.45996
G1 X13.804 Y-10.896 E3.60875
G1 X14.458 Y-10.370 E3.69846
G1 X14.966 Y-9.932 E3.77019
G1 X16.046 Y-8.906 E3.92942
G1 X17.018 Y-7.854 E4.08249
G1 X17.526 Y-7.248 E4.16705
G1 X17.978 Y-6.668 E4.24566
G1 X18.806 Y-5.495 E4.39914
G1 X19.227 Y-4.830 E4.48328
G1 X19.581 Y-4.224 E4.55831
G1 X19.985 Y-3.388 E4.65753
G1 X20.184 Y-2.869 E4.71694
G1 X20.309 Y-2.479 E4.76074
G1 X20.424 Y-2.052 E4.80792
G1 X20.528 Y-1.563 E4.86136
G1 X20.601 Y-1.094 E4.91214
G1 X20.650 Y-0.602 E4.96499
G1 X20.670 Y0.037 E5.03331
G1 X20.657 Y0.487 E5.08140
G1 X20.614 Y0.982 E5.13452
G1 X20.553 Y1.422 E5.18204
G1 X20.451 Y1.939 E5.23839
G1 X20.334 Y2.395 E5.28868
G1 X20.190 Y2.851 E5.33979
G1 X19.867 Y3.655 E5.43243
G1 X19.468 Y4.425 E5.52514
G1 X18.781 Y5.533 E5.66440
G1 X17.972 Y6.677 E5.81416
G1 X17.157 Y7.694 E5.95350
G1 X16.357 Y8.583 E6.08133
G1 X15.467 Y9.473 E6.21585
G1 X14.545 Y10.297 E6.34799
G1 X13.801 Y10.899 E6.45038
G1 X13.013 Y11.482 E6.55507
G1 X12.228 Y12.012 E6.65638
G1 X11.428 Y12.504 E6.75673
G1 X10.570 Y12.983 E6.86184
G1 X9.703 Y13.419 E6.96555
G1 X8.791 Y13.829 E7.07236
G1 X7.949 Y14.165 E7.16932
G1 X7.048 Y14.481 E7.27138
G1 X6.203 Y14.740 E7.36583
G1 X5.265 Y14.985 E7.46948
G1 X4.155 Y15.221 E7.59077
G1 X3.177 Y15.381 E7.69669
G1 X2.212 Y15.496 E7.80051
G1 X1.348 Y15.562 E7.89318
G1 X0.381 Y15.597 E7.99662
G1 X-0.405 Y15.595 E8.08064
G1 X-1.332 Y15.557 E8.17976
G1 X-24.730 Y14.118 E10.68554
G1 X-25.532 Y14.033 E10.77171
G1 X-26.213 Y13.906 E10.84570
G1 X-27.018 Y13.686 E10.93489
G1 X-27.811 Y13.390 E11.02541
G1 X-28.587 Y13.012 E11.11767
G1 X-29.149 Y12.679 E11.18757
G1 X-29.740 Y12.266 E11.26463
G1 X-30.311 Y11.793 E11.34381
G1 X-30.745 Y11.376 E11.40816
G1 X-31.160 Y10.920 E11.47403
G1 X-31.569 Y10.402 E11.54460
G1 X-31.878 Y9.953 E11.60285
G1 X-32.240 Y9.337 E11.67929
G1 X-32.504 Y8.806 E11.74265
G1 X-32.762 Y8.182 E11.81483
G1 X-32.949 Y7.622 E11.87788
G1 X-33.114 Y6.997 E11.94697
G1 X-33.245 Y6.297 E12.02312
G1 X-33.312 Y5.720 E12.08518
G1 X-33.348 Y4.900 E12.17292
G1 X-33.341 Y-5.266 E13.25959
G1 X-33.312 Y-5.720 E13.30825
G1 X-33.251 Y-6.256 E13.36590
G1 X-33.111 Y-7.009 E13.44777
G1 X-32.985 Y-7.501 E13.50201
G1 X-32.804 Y-8.066 E13.56542
G1 X-32.503 Y-8.807 E13.65092
G1 X-32.079 Y-9.626 E13.74954
G1 X-31.824 Y-10.037 E13.80121
G1 X-31.502 Y-10.492 E13.86075
G1 X-31.161 Y-10.920 E13.91928
G1 X-30.745 Y-11.376 E13.98526
G1 X-30.222 Y-11.873 E14.06241
G1 X-29.739 Y-12.266 E14.12893
G1 X-29.149 Y-12.679 E14.20592
G1 X-28.540 Y-13.038 E14.28142
G1 X-28.034 Y-13.290 E14.34193
G1 X-27.410 Y-13.549 E14.41411
G1 X-26.806 Y-13.751 E14.48217
G1 X-26.217 Y-13.905 E14.54729
G1 X-25.494 Y-14.039 E14.62585
G1 X-24.729 Y-14.118 E14.70808
G1 X-1.297 Y-15.559 E17.21746
G1 X-0.261 Y-15.597 E17.32829
G1 X-0.191 Y-14.884 F4800.000
G1 X0.323 Y-14.884 E17.38327 F1800.000
G1 X1.689 Y-14.824 E17.52941 F1800.000
G1 X3.138 Y-14.665 E17.68519
G1 X4.562 Y-14.411 E17.83982
G1 X5.262 Y-14.251 E17.91659
G1 X6.011 Y-14.052 E17.99943
G1 X7.260 Y-13.655 E18.13946
G1 X8.500 Y-13.177 E18.28152
G1 X9.214 Y-12.861 E18.36502
G1 X9.865 Y-12.544 E18.44238
G1 X11.048 Y-11.899 E18.58638
G1 X12.278 Y-11.122 E18.74193
G1 X13.370 Y-10.330 E18.88612
G1 X14.491 Y-9.398 E19.04194
G1 X15.541 Y-8.402 E19.19664
G1 X16.515 Y-7.344 E19.35033
G1 X16.972 Y-6.797 E19.42654
G1 X17.469 Y-6.157 E19.51316
G1 X18.254 Y-5.034 E19.65958
G1 X18.620 Y-4.454 E19.73287
G1 X18.989 Y-3.818 E19.81151
G1 X19.328 Y-3.108 E19.89560
G1 X19.509 Y-2.636 E19.94964
G1 X19.643 Y-2.213 E19.99712
G1 X19.837 Y-1.371 E20.08939
G1 X19.937 Y-0.554 E20.17739
G1 X19.948 Y0.356 E20.27472
G1 X19.862 Y1.219 E20.36739
G1 X19.724 Y1.911 E20.44284
G1 X19.462 Y2.767 E20.53855
G1 X19.181 Y3.437 E20.61613
G1 X18.948 Y3.893 E20.67096
G1 X18.593 Y4.498 E20.74591
G1 X17.887 Y5.579 E20.88393
G1 X17.131 Y6.598 E21.01952
G1 X16.333 Y7.553 E21.15259
G1 X15.562 Y8.380 E21.27334
G1 X14.724 Y9.188 E21.39781
G1 X13.817 Y9.974 E21.52614
G1 X13.090 Y10.542 E21.62469
G1 X12.335 Y11.083 E21.72403
G1 X11.585 Y11.574 E21.81982
G1 X10.790 Y12.047 E21.91870
G1 X9.999 Y12.475 E22.01482
G1 X9.172 Y12.880 E22.11321
G1 X8.302 Y13.259 E22.21465
G1 X7.415 Y13.600 E22.31625
G1 X6.542 Y13.893 E22.41471
G1 X5.644 Y14.152 E22.51463
G1 X4.685 Y14.385 E22.62010
G1 X3.799 Y14.560 E22.71661
G1 X2.963 Y14.689 E22.80702
G1 X2.034 Y14.795 E22.90698
G1 X1.090 Y14.861 E23.00813
G1 X0.211 Y14.885 E23.10207
G1 X-0.564 Y14.876 E23.18501
G1 X-1.288 Y14.844 E23.26245
G1 X-24.686 Y13.405 E25.76819
G1 X-25.423 Y13.327 E25.84738
G1 X-26.050 Y13.211 E25.91555
G1 X-26.801 Y13.006 E25.99874
G1 X-27.529 Y12.733 E26.08187
G1 X-28.344 Y12.330 E26.17906
G1 X-29.091 Y11.857 E26.27357
G1 X-29.747 Y11.339 E26.36291
G1 X-30.237 Y10.874 E26.43508
G1 X-30.687 Y10.373 E26.50710
G1 X-31.140 Y9.774 E26.58729
G1 X-31.416 Y9.344 E26.64198
G1 X-31.680 Y8.868 E26.70016
G1 X-31.921 Y8.361 E26.76013
G1 X-32.133 Y7.822 E26.82204
G1 X-32.300 Y7.300 E26.88064
G1 X-32.448 Y6.701 E26.94654
G1 X-32.539 Y6.188 E27.00228
G1 X-32.601 Y5.654 E27.05970
G1 X-32.634 Y4.900 E27.14035
G1 X-32.627 Y-5.243 E28.22462
G1 X-32.545 Y-6.151 E28.32200
G1 X-32.414 Y-6.856 E28.39861
G1 X-32.300 Y-7.300 E28.44764
G1 X-32.133 Y-7.822 E28.50624
G1 X-31.852 Y-8.514 E28.58605
G1 X-31.463 Y-9.265 E28.67648
G1 X-31.226 Y-9.645 E28.72437
G1 X-30.929 Y-10.066 E28.77940
G1 X-30.613 Y-10.461 E28.83354
G1 X-30.237 Y-10.874 E28.89318
G1 X-29.747 Y-11.339 E28.96536
G1 X-29.218 Y-11.765 E29.03801
G1 X-28.664 Y-12.141 E29.10957
G1 X-28.194 Y-12.413 E29.16756
G1 X-27.573 Y-12.714 E29.24138
G1 X-26.895 Y-12.975 E29.31898
G1 X-26.175 Y-13.182 E29.39904
G1 X-25.581 Y-13.303 E29.46388
G1 X-25.032 Y-13.376 E29.52306
G1 X-1.253 Y-14.846 E32.06964
G1 X-0.251 Y-14.883 E32.17678
G1 E30.17678 F2400.00000
G92 E0
G1 X-19.345 Y3.513 F4800.000
G1 E2.00000 F2400.00000
G1 X-19.052 Y4.010 E2.06170 F1200.000
G1 X-18.299 Y4.559 E2.16134
G1 X-17.377 Y4.766 E2.26225
G1 X-16.502 Y4.648 E2.35665
G1 X-15.803 Y4.267 E2.44179
G1 X-15.203 Y3.589 E2.53853
G1 X-14.791 Y4.065 E2.60588
G1 X-14.289 Y4.420 E2.67158
G1 X-13.776 Y4.649 E2.73158
G1 X-13.252 Y4.796 E2.78983
G1 X-12.677 Y4.875 E2.85183
G1 X-12.074 Y4.885 E2.91632
G1 X-11.472 Y4.825 E2.98093
G1 X-10.776 Y4.636 E3.05801
G1 X-10.194 Y4.349 E3.12745
G1 X-9.958 Y4.167 E3.15927
G1 X-9.570 Y4.482 E3.21260
G1 X-8.976 Y4.705 E3.28041
G1 X-8.403 Y4.752 E3.34192
G1 X-7.900 Y4.705 E3.39594
G1 X-7.116 Y4.713 E3.47969
G1 X-6.457 Y4.679 E3.55021
G1 X-5.701 Y4.557 E3.63214
G1 X-5.223 Y4.396 E3.68601
G1 X-4.651 Y4.825 E3.76245
G1 X-4.151 Y5.047 E3.82088
G1 X-3.668 Y5.165 E3.87405
G1 X-3.172 Y5.199 E3.92720
G1 X-2.675 Y5.145 E3.98067
G1 X-2.152 Y4.991 E4.03894
G1 X-1.763 Y4.774 E4.08654
G1 X-1.632 Y4.846 E4.10251
G1 X-0.593 Y4.948 E4.21417
G1 X0.082 Y4.638 E4.29346
G1 X0.177 Y4.710 E4.30617
G1 X0.441 Y4.790 E4.33572
G1 X0.476 Y5.387 E4.39962
G1 X0.589 Y5.850 E4.45053
G1 X0.815 Y6.324 E4.50674
G1 X-0.165 Y6.340 E4.61141
G1 X-0.787 Y6.316 E4.67799
G1 X-21.105 Y5.067 E6.85387
G1 X-21.154 Y4.720 E6.89125
G1 X-20.679 Y4.551 E6.94518
G1 X-20.289 Y4.347 E6.99224
G1 X-19.835 Y4.022 E7.05186
G1 X-19.386 Y3.556 E7.12104
G1 E5.12104 F2400.00000
G92 E0
G1 X-22.632 Y0.887 F4800.000
G1 E2.00000 F2400.00000
G1 X-22.725 Y0.730 E2.01943 F1200.000
G1 X-22.773 Y0.559 E2.03845
G1 X-22.808 Y0.316 E2.06473
G1 X-22.823 Y-0.072 E2.10619
G1 X-22.804 Y-0.420 E2.14344
G1 X-22.767 Y-0.652 E2.16851
G1 X-22.722 Y-0.807 E2.18579
G1 X-22.602 Y-1.066 E2.21630
G1 X-21.852 Y-0.642 E2.30841
G1 X-21.423 Y-0.506 E2.35648
G1 X-20.935 Y-0.480 E2.40872
G1 X-20.418 Y-0.638 E2.46653
G1 X-19.902 Y-1.033 E2.53594
G1 X-19.736 Y-0.926 E2.55701
G1 X-19.214 Y-0.833 E2.61369
G1 X-18.832 Y-0.872 E2.65480
G1 X-18.815 Y1.904 E2.95152
G1 X-18.860 Y2.651 E3.03160
G1 X-18.756 Y3.105 E3.08140
G1 X-18.512 Y3.520 E3.13286
G1 X-17.998 Y3.895 E3.20081
G1 X-17.346 Y4.041 E3.27223
G1 X-16.728 Y3.958 E3.33886
G1 X-16.255 Y3.700 E3.39650
G1 X-15.908 Y3.308 E3.45244
G1 X-15.721 Y2.876 E3.50269
G1 X-15.643 Y2.443 E3.54976
G1 X-15.657 Y-0.861 E3.90287
G1 X-15.004 Y-0.930 E3.97310
G1 X-14.554 Y-1.070 E4.02349
G1 X-14.440 Y-1.157 E4.03883
G1 X-14.119 Y-0.905 E4.08242
G1 X-14.231 Y-0.457 E4.13179
G1 X-14.222 Y0.030 E4.18389
G1 X-13.986 Y0.705 E4.26027
G1 X-14.459 Y1.001 E4.31991
G1 X-14.799 Y1.488 E4.38338
G1 X-14.927 Y2.105 E4.45076
G1 X-14.861 Y2.635 E4.50787
G1 X-14.635 Y3.154 E4.56838
G1 X-14.307 Y3.532 E4.62185
G1 X-13.934 Y3.797 E4.67079
G1 X-13.533 Y3.976 E4.71768
G1 X-13.106 Y4.095 E4.76511
G1 X-12.622 Y4.162 E4.81726
G1 X-12.103 Y4.170 E4.87276
G1 X-11.602 Y4.121 E4.92660
G1 X-11.030 Y3.965 E4.98993
G1 X-10.573 Y3.740 E5.04444
G1 X-10.082 Y3.362 E5.11060
G1 X-9.863 Y3.098 E5.14731
G1 X-9.590 Y3.546 E5.20345
G1 X-9.210 Y3.854 E5.25568
G1 X-8.818 Y4.002 E5.30044
G1 X-8.407 Y4.035 E5.34454
G1 X-7.930 Y3.991 E5.39579
G1 X-7.131 Y3.998 E5.48115
G1 X-6.533 Y3.968 E5.54519
G1 X-5.873 Y3.861 E5.61664
G1 X-5.295 Y3.666 E5.68181
G1 X-5.026 Y3.515 E5.71485
G1 X-4.698 Y3.897 E5.76873
G1 X-4.287 Y4.205 E5.82356
G1 X-3.919 Y4.368 E5.86657
G1 X-3.558 Y4.457 E5.90632
G1 X-3.187 Y4.482 E5.94611
G1 X-2.815 Y4.442 E5.98605
G1 X-2.430 Y4.329 E6.02896
G1 X-1.983 Y4.079 E6.08375
G1 X-1.816 Y3.930 E6.10762
G1 X-1.417 Y4.150 E6.15635
G1 X-0.715 Y4.218 E6.23170
G1 X-0.103 Y3.937 E6.30369
G1 X0.086 Y3.749 E6.33223
G1 X0.505 Y4.063 E6.38811
G1 X1.002 Y4.214 E6.44368
G1 X1.312 Y4.207 E6.47684
G1 X1.165 Y4.932 E6.55598
G1 X1.185 Y5.281 E6.59329
G1 X1.265 Y5.609 E6.62942
G1 X1.471 Y6.041 E6.68054
G1 X1.870 Y6.454 E6.74194
G1 X2.139 Y6.589 E6.77414
G1 X2.088 Y6.900 E6.80785
G1 X1.580 Y6.972 E6.86272
G1 X0.729 Y7.040 E6.95394
G1 X-0.173 Y7.055 E7.05037
G1 X-0.823 Y7.029 E7.11991
G1 X-24.146 Y5.595 E9.61761
G1 X-24.446 Y5.535 E9.65026
G1 X-24.582 Y5.453 E9.66729
G1 X-24.715 Y5.288 E9.68990
G1 X-24.776 Y5.133 E9.70779
G1 X-24.796 Y5.022 E9.71977
G1 X-24.805 Y3.360 E9.89749
G1 X-23.954 Y3.848 E10.00237
G1 X-23.614 Y3.983 E10.04151
G1 X-23.248 Y4.084 E10.08207
G1 X-22.891 Y4.144 E10.12081
G1 X-22.365 Y4.172 E10.17712
G1 X-21.861 Y4.139 E10.23106
G1 X-21.396 Y4.049 E10.28166
G1 X-20.966 Y3.895 E10.33053
G1 X-20.664 Y3.737 E10.36693
G1 X-20.304 Y3.480 E10.41425
G1 X-19.981 Y3.144 E10.46400
G1 X-19.734 Y2.766 E10.51228
G1 X-19.464 Y2.133 E10.58589
G1 X-19.626 Y1.369 E10.66931
G1 X-20.037 Y0.833 E10.74153
G1 X-20.611 Y0.509 E10.81198
G1 X-21.221 Y0.410 E10.87797
G1 X-21.701 Y0.490 E10.93005
G1 X-22.029 Y0.639 E10.96857
G1 X-22.298 Y0.839 E11.00438
G1 X-22.418 Y0.981 E11.02418
G1 X-22.577 Y0.911 E11.04280
G1 E9.04280 F2400.00000
G92 E0
G1 X-18.879 Y-4.803 F4800.000
G1 E2.00000 F2400.00000
G1 X-18.877 Y-5.204 E2.04284 F1200.000
G1 X-0.760 Y-6.318 E3.98299
G1 X0.043 Y-6.341 E4.06889
G1 X0.982 Y-6.309 E4.16926
G1 X1.725 Y-6.236 E4.24906
G1 X2.452 Y-6.121 E4.32779
G1 X3.432 Y-5.900 E4.43513
G1 X4.394 Y-5.606 E4.54267
G1 X5.149 Y-5.318 E4.62908
G1 X5.873 Y-4.988 E4.71406
G1 X6.691 Y-4.550 E4.81323
G1 X7.494 Y-4.043 E4.91483
G1 X8.397 Y-3.386 E5.03418
G1 X7.455 Y-3.320 E5.13512
G1 X6.923 Y-3.205 E5.19336
G1 X6.794 Y-3.141 E5.20869
G1 X6.183 Y-3.360 E5.27803
G1 X5.340 Y-3.313 E5.36835
G1 X4.506 Y-2.907 E5.46739
G1 X4.196 Y-3.110 E5.50703
G1 X3.617 Y-3.305 E5.57233
G1 X2.915 Y-3.365 E5.64764
G1 X2.125 Y-3.162 E5.73482
G1 X1.932 Y-3.286 E5.75935
G1 X0.867 Y-3.374 E5.87358
G1 X0.193 Y-3.083 E5.95202
G1 X0.019 Y-3.192 E5.97396
G1 X-0.870 Y-3.392 E6.07132
G1 X-1.709 Y-3.209 E6.16315
G1 X-2.241 Y-2.921 E6.22779
G1 X-2.928 Y-2.274 E6.32865
G1 X-3.429 Y-3.129 E6.43450
G1 X-3.892 Y-3.670 E6.51067
G1 X-4.493 Y-4.149 E6.59284
G1 X-5.176 Y-4.483 E6.67412
G1 X-5.901 Y-4.672 E6.75413
G1 X-6.540 Y-4.756 E6.82301
G1 X-8.339 Y-4.797 E7.01537
G1 X-8.952 Y-4.732 E7.08128
G1 X-9.743 Y-4.427 E7.17186
G1 X-9.906 Y-4.267 E7.19629
G1 X-10.054 Y-4.381 E7.21628
G1 X-10.541 Y-4.644 E7.27538
G1 X-10.962 Y-4.793 E7.32309
G1 X-11.473 Y-4.904 E7.37906
G1 X-11.913 Y-4.951 E7.42636
G1 X-12.382 Y-4.958 E7.47643
G1 X-12.815 Y-4.927 E7.52289
G1 X-13.364 Y-4.829 E7.58242
G1 X-13.904 Y-4.647 E7.64339
G1 X-14.162 Y-4.513 E7.67441
G1 X-14.583 Y-4.702 E7.72376
G1 X-15.075 Y-4.784 E7.77707
G1 X-18.459 Y-4.773 E8.13880
G1 X-18.819 Y-4.799 E8.17737
G1 X-19.613 Y-4.795 F4800.000
G1 X-20.425 Y-4.482 E8.27037 F450.000
G1 X-20.694 Y-4.628 E8.30302
G1 X-20.985 Y-4.729 E8.33603
G1 X-20.938 Y-5.077 E8.37356
G1 X-19.692 Y-5.154 E8.50699
G1 X-19.626 Y-4.853 E8.53985
G1 X-24.802 Y-3.403 F4800.000
G1 X-24.802 Y-4.945 E8.70472 F1200.000
G1 X-24.770 Y-5.149 E8.72677
G1 X-24.705 Y-5.307 E8.74507
G1 X-24.550 Y-5.477 E8.76966
G1 X-24.355 Y-5.562 E8.79237
G1 X-24.150 Y-5.595 E8.81453
G1 X-0.792 Y-7.031 E11.31596
G1 X0.045 Y-7.056 E11.40551
G1 X1.029 Y-7.022 E11.51076
G1 X1.815 Y-6.944 E11.59522
G1 X2.587 Y-6.823 E11.67866
G1 X3.615 Y-6.591 E11.79136
G1 X4.626 Y-6.282 E11.90436
G1 X5.425 Y-5.977 E11.99575
G1 X6.190 Y-5.629 E12.08559
G1 X7.050 Y-5.168 E12.18994
G1 X7.896 Y-4.634 E12.29678
G1 X8.599 Y-4.122 E12.38982
G1 X9.351 Y-3.493 E12.49462
G1 X10.253 Y-2.629 E12.62809
G1 X7.876 Y-2.633 E12.88219
G1 X7.556 Y-2.611 E12.91642
G1 X7.159 Y-2.525 E12.95982
G1 X6.751 Y-2.324 E13.00842
G1 X6.577 Y-2.460 E13.03204
G1 X6.079 Y-2.639 E13.08864
G1 X5.523 Y-2.608 E13.14811
G1 X5.056 Y-2.380 E13.20365
G1 X4.725 Y-2.065 E13.25253
G1 X4.574 Y-1.846 E13.28098
G1 X4.288 Y-2.197 E13.32937
G1 X3.882 Y-2.463 E13.38128
G1 X3.471 Y-2.601 E13.42763
G1 X2.975 Y-2.643 E13.48082
G1 X2.367 Y-2.487 E13.54797
G1 X2.146 Y-2.301 E13.57879
G1 X1.697 Y-2.589 E13.63580
G1 X0.986 Y-2.647 E13.71203
G1 X0.409 Y-2.399 E13.77917
G1 X0.207 Y-2.231 E13.80722
G1 X-0.257 Y-2.522 E13.86579
G1 X-0.872 Y-2.660 E13.93319
G1 X-1.458 Y-2.533 E13.99728
G1 X-1.819 Y-2.337 E14.04114
G1 X-2.194 Y-1.984 E14.09628
G1 X-2.454 Y-1.380 E14.16652
G1 X-2.421 Y-0.766 E14.23225
G1 X-2.278 Y-0.345 E14.27980
G1 X-1.919 Y0.322 E14.36078
G1 X-2.138 Y0.553 E14.39483
G1 X-2.452 Y0.394 E14.43242
G1 X-2.833 Y0.282 E14.47486
G1 X-3.275 Y0.249 E14.52221
G1 X-3.264 Y-0.020 E14.55096
G1 X-3.288 Y-0.615 E14.61459
G1 X-3.399 Y-1.320 E14.69084
G1 X-3.501 Y-1.684 E14.73129
G1 X-3.688 Y-2.158 E14.78573
G1 X-4.013 Y-2.712 E14.85442
G1 X-4.391 Y-3.154 E14.91656
G1 X-4.877 Y-3.542 E14.98309
G1 X-5.426 Y-3.810 E15.04832
G1 X-6.038 Y-3.970 E15.11594
G1 X-6.594 Y-4.043 E15.17594
G1 X-8.309 Y-4.081 E15.35931
G1 X-8.783 Y-4.032 E15.41022
G1 X-9.349 Y-3.813 E15.47504
G1 X-9.899 Y-3.277 E15.55714
G1 X-10.168 Y-3.566 E15.59937
G1 X-10.445 Y-3.781 E15.63679
G1 X-10.832 Y-3.989 E15.68381
G1 X-11.157 Y-4.105 E15.72072
G1 X-11.587 Y-4.198 E15.76773
G1 X-11.957 Y-4.237 E15.80747
G1 X-12.362 Y-4.243 E15.85075
G1 X-12.727 Y-4.217 E15.88992
G1 X-13.186 Y-4.135 E15.93973
G1 X-13.624 Y-3.988 E15.98917
G1 X-14.031 Y-3.777 E16.03818
G1 X-14.191 Y-3.656 E16.05959
G1 X-14.387 Y-3.832 E16.08774
G1 X-14.791 Y-4.012 E16.13507
G1 X-15.133 Y-4.069 E16.17213
G1 X-18.484 Y-4.058 E16.53031
G1 X-19.127 Y-4.105 E16.59923
G1 X-19.519 Y-4.066 E16.64131
G1 X-19.941 Y-3.903 E16.68966
G1 X-20.340 Y-3.569 E16.74523
G1 X-20.579 Y-3.752 E16.77747
G1 X-20.983 Y-3.972 E16.82667
G1 X-21.442 Y-4.132 E16.87859
G1 X-21.945 Y-4.220 E16.93317
G1 X-22.416 Y-4.243 E16.98352
