; generated by Slic3r 1.2.9 on 2020-05-24 at 18:07:58

; external perimeters extrusion width = 0.40mm
; perimeters extrusion width = 0.67mm
; infill extrusion width = 0.67mm
; solid infill extrusion width = 0.67mm
; top infill extrusion width = 0.67mm

M107
M190 S65 ; set bed temperature
M104 S190 ; set temperature
G28 ; home all axes
G1 Z5 F5000 ; lift nozzle

M109 S190 ; wait for temperature to be reached
G21 ; set units to millimeters
G90 ; use absolute coordinates
M82 ; use absolute distances for extrusion
G92 E0
G1 Z0.400 F7800.000
G1 E-2.00000 F2400.00000
G92 E0
G1 X-0.215 Y-17.026 F7800.000
G1 E2.00000 F2400.00000
G1 X0.336 Y-17.026 E2.05888 F1800.000
G1 X1.863 Y-16.959 E2.22228 F1800.000
G1 X3.360 Y-16.797 E2.38315
G1 X4.139 Y-16.675 E2.46746
G1 X4.885 Y-16.533 E2.54861
G1 X6.308 Y-16.192 E2.70502
G1 X7.046 Y-15.979 E2.78717
G1 X7.855 Y-15.716 E2.87803
G1 X9.235 Y-15.192 E3.03594
G1 X10.608 Y-14.568 E3.19711
G1 X11.304 Y-14.210 E3.28073
G1 X12.017 Y-13.814 E3.36789
G1 X13.308 Y-13.011 E3.53045
G1 X14.542 Y-12.130 E3.69248
G1 X15.134 Y-11.664 E3.77302
G1 X15.746 Y-11.148 E3.85858
G1 X16.860 Y-10.113 E4.02115
G1 X17.376 Y-9.585 E4.10007
G1 X17.980 Y-8.925 E4.19569
G1 X18.923 Y-7.783 E4.35396
G1 X19.433 Y-7.101 E4.44501
G1 X19.930 Y-6.384 E4.53822
G1 X20.711 Y-5.127 E4.69642
G1 X21.176 Y-4.228 E4.80462
G1 X21.543 Y-3.311 E4.91016
G1 X21.700 Y-2.814 E4.96592
G1 X21.835 Y-2.292 E5.02359
G1 X21.933 Y-1.820 E5.07511
G1 X22.017 Y-1.278 E5.13371
G1 X22.091 Y-0.406 E5.22726
G1 X22.098 Y0.037 E5.27459
G1 X22.065 Y0.823 E5.35864
G1 X21.920 Y1.891 E5.47390
G1 X21.706 Y2.792 E5.57292
G1 X21.541 Y3.314 E5.63140
G1 X21.330 Y3.873 E5.69531
G1 X21.124 Y4.340 E5.74984
G1 X20.865 Y4.853 E5.81127
G1 X20.323 Y5.774 E5.92544
G1 X19.651 Y6.794 E6.05604
G1 X18.821 Y7.915 E6.20509
G1 X18.074 Y8.817 E6.33027
G1 X17.101 Y9.870 E6.48355
G1 X16.168 Y10.771 E6.62218
G1 X15.383 Y11.459 E6.73377
G1 X14.613 Y12.076 E6.83928
G1 X13.732 Y12.722 E6.95603
G1 X12.834 Y13.320 E7.07133
G1 X11.963 Y13.844 E7.17997
G1 X10.990 Y14.375 E7.29852
G1 X10.061 Y14.829 E7.40899
G1 X9.106 Y15.244 E7.52026
G1 X8.133 Y15.619 E7.63171
G1 X7.069 Y15.973 E7.75159
G1 X5.985 Y16.278 E7.87199
G1 X4.965 Y16.516 E7.98387
G1 X3.843 Y16.724 E8.10591
G1 X2.830 Y16.865 E8.21519
G1 X1.801 Y16.964 E8.32569
G1 X0.762 Y17.017 E8.43691
G1 X-0.353 Y17.024 E8.55607
G1 X-1.419 Y16.982 E8.67012
G1 X-24.818 Y15.543 E11.17600
G1 X-25.750 Y15.445 E11.27612
G1 X-26.615 Y15.279 E11.37023
G1 X-27.451 Y15.047 E11.46295
G1 X-28.365 Y14.706 E11.56727
G1 X-29.014 Y14.403 E11.64382
G1 X-29.693 Y14.024 E11.72697
G1 X-30.423 Y13.538 E11.82065
G1 X-31.170 Y12.941 E11.92294
G1 X-31.761 Y12.380 E12.01001
G1 X-32.415 Y11.644 E12.11522
G1 X-32.905 Y10.988 E12.20275
G1 X-33.254 Y10.444 E12.27183
G1 X-33.649 Y9.724 E12.35957
G1 X-33.902 Y9.178 E12.42392
G1 X-34.104 Y8.669 E12.48248
G1 X-34.320 Y8.025 E12.55512
G1 X-34.495 Y7.368 E12.62778
G1 X-34.637 Y6.642 E12.70686
G1 X-34.734 Y5.853 E12.79183
G1 X-34.775 Y5.054 E12.87733
G1 X-34.772 Y-5.184 E13.97164
G1 X-34.734 Y-5.853 E14.04327
G1 X-34.664 Y-6.467 E14.10934
G1 X-34.506 Y-7.317 E14.20174
G1 X-34.356 Y-7.903 E14.26641
G1 X-34.147 Y-8.553 E14.33944
G1 X-33.806 Y-9.393 E14.43633
G1 X-33.584 Y-9.850 E14.49062
G1 X-33.314 Y-10.344 E14.55083
G1 X-33.019 Y-10.819 E14.61058
G1 X-32.716 Y-11.253 E14.66712
G1 X-32.256 Y-11.836 E14.74644
G1 X-31.761 Y-12.380 E14.82511
G1 X-31.262 Y-12.859 E14.89912
G1 X-30.640 Y-13.376 E14.98557
G1 X-30.028 Y-13.811 E15.06576
G1 X-29.384 Y-14.203 E15.14636
G1 X-28.638 Y-14.584 E15.23587
G1 X-27.918 Y-14.885 E15.31932
G1 X-27.217 Y-15.119 E15.39828
G1 X-26.542 Y-15.296 E15.47284
G1 X-25.705 Y-15.452 E15.56392
G1 X-24.817 Y-15.544 E15.65933
G1 X-1.384 Y-16.985 E18.16876
G1 X-0.275 Y-17.025 E18.28740
G1 X-0.206 Y-16.312 F7800.000
G1 X0.332 Y-16.312 E18.34485 F1800.000
G1 X1.805 Y-16.247 E18.50250 F1800.000
G1 X2.587 Y-16.175 E18.58640
G1 X3.345 Y-16.078 E18.66816
G1 X4.154 Y-15.947 E18.75569
G1 X4.864 Y-15.807 E18.83305
G1 X5.597 Y-15.639 E18.91347
G1 X6.393 Y-15.428 E19.00146
G1 X7.737 Y-15.001 E19.15216
G1 X9.062 Y-14.490 E19.30402
G1 X9.824 Y-14.152 E19.39312
G1 X10.503 Y-13.822 E19.47384
G1 X11.778 Y-13.126 E19.62909
G1 X13.077 Y-12.306 E19.79326
G1 X14.238 Y-11.463 E19.94663
G1 X14.913 Y-10.920 E20.03925
G1 X15.441 Y-10.465 E20.11369
G1 X15.999 Y-9.953 E20.19469
G1 X16.552 Y-9.410 E20.27746
G1 X17.558 Y-8.322 E20.43583
G1 X18.080 Y-7.698 E20.52282
G1 X18.549 Y-7.098 E20.60428
G1 X19.404 Y-5.885 E20.76286
G1 X19.835 Y-5.205 E20.84895
G1 X20.196 Y-4.588 E20.92529
G1 X20.620 Y-3.720 E21.02856
G1 X20.921 Y-2.919 E21.12007
G1 X21.146 Y-2.101 E21.21075
G1 X21.259 Y-1.531 E21.27288
G1 X21.331 Y-1.006 E21.32952
G1 X21.373 Y-0.465 E21.38754
G1 X21.384 Y0.037 E21.44117
G1 X21.370 Y0.525 E21.49338
G1 X21.324 Y1.060 E21.55073
G1 X21.258 Y1.537 E21.60226
G1 X21.146 Y2.101 E21.66369
G1 X20.884 Y3.030 E21.76686
G1 X20.531 Y3.921 E21.86927
G1 X20.084 Y4.786 E21.97338
G1 X19.375 Y5.929 E22.11716
G1 X18.667 Y6.941 E22.24915
G1 X17.867 Y7.959 E22.38756
G1 X17.041 Y8.899 E22.52128
G1 X16.114 Y9.842 E22.66261
G1 X15.192 Y10.683 E22.79598
G1 X14.430 Y11.313 E22.90171
G1 X13.601 Y11.939 E23.01277
G1 X12.695 Y12.560 E23.13015
G1 X11.895 Y13.058 E23.23090
G1 X10.986 Y13.571 E23.34248
G1 X10.084 Y14.029 E23.45056
G1 X9.161 Y14.447 E23.55888
G1 X8.358 Y14.773 E23.65152
G1 X7.414 Y15.112 E23.75870
G1 X6.431 Y15.418 E23.86872
G1 X5.427 Y15.681 E23.97974
G1 X4.446 Y15.892 E24.08700
G1 X3.439 Y16.064 E24.19619
G1 X2.380 Y16.196 E24.31026
G1 X1.387 Y16.275 E24.41673
G1 X0.389 Y16.312 E24.52350
G1 X-0.422 Y16.309 E24.61020
G1 X-1.375 Y16.270 E24.71213
G1 X-24.774 Y14.831 E27.21796
G1 X-25.641 Y14.739 E27.31111
G1 X-26.452 Y14.584 E27.39940
G1 X-27.234 Y14.367 E27.48611
G1 X-28.092 Y14.046 E27.58402
G1 X-28.941 Y13.632 E27.68500
G1 X-29.539 Y13.277 E27.75935
G1 X-30.168 Y12.837 E27.84139
G1 X-30.785 Y12.327 E27.92695
G1 X-31.253 Y11.878 E27.99626
G1 X-31.708 Y11.379 E28.06846
G1 X-32.142 Y10.828 E28.14344
G1 X-32.481 Y10.335 E28.20734
G1 X-32.872 Y9.671 E28.28976
G1 X-33.155 Y9.099 E28.35796
G1 X-33.433 Y8.426 E28.43583
G1 X-33.635 Y7.824 E28.50367
G1 X-33.811 Y7.155 E28.57754
G1 X-33.951 Y6.406 E28.65898
G1 X-34.023 Y5.787 E28.72567
G1 X-34.061 Y5.042 E28.80541
G1 X-34.054 Y-5.289 E29.90960
G1 X-34.023 Y-5.787 E29.96293
G1 X-33.957 Y-6.362 E30.02480
G1 X-33.809 Y-7.163 E30.11193
G1 X-33.670 Y-7.702 E30.17139
G1 X-33.475 Y-8.310 E30.23961
G1 X-33.155 Y-9.100 E30.33080
G1 X-32.695 Y-9.987 E30.43761
G1 X-32.421 Y-10.428 E30.49305
G1 X-32.076 Y-10.917 E30.55710
G1 X-31.708 Y-11.378 E30.62002
G1 X-31.253 Y-11.878 E30.69235
G1 X-30.696 Y-12.407 E30.77446
G1 X-30.167 Y-12.838 E30.84737
G1 X-29.539 Y-13.277 E30.92933
G1 X-28.881 Y-13.665 E31.01091
G1 X-28.336 Y-13.937 E31.07606
G1 X-27.664 Y-14.217 E31.15388
G1 X-27.012 Y-14.435 E31.22738
G1 X-26.380 Y-14.601 E31.29722
G1 X-25.599 Y-14.745 E31.38204
G1 X-24.773 Y-14.831 E31.47086
G1 X-1.340 Y-16.272 E33.98027
G1 X-0.266 Y-16.311 E34.09520
G1 X-0.197 Y-15.598 F7800.000
G1 X0.327 Y-15.598 E34.15123 F1800.000
G1 X1.747 Y-15.536 E34.30312 F1800.000
G1 X2.512 Y-15.464 E34.38519
G1 X3.242 Y-15.371 E34.46385
G1 X4.713 Y-15.109 E34.62360
G1 X5.430 Y-14.945 E34.70220
G1 X6.202 Y-14.740 E34.78761
G1 X7.498 Y-14.328 E34.93298
G1 X8.781 Y-13.833 E35.07994
G1 X9.519 Y-13.506 E35.16624
G1 X10.184 Y-13.183 E35.24528
G1 X11.413 Y-12.513 E35.39490
G1 X12.677 Y-11.714 E35.55476
G1 X13.804 Y-10.896 E35.70354
G1 X14.458 Y-10.370 E35.79326
G1 X14.966 Y-9.932 E35.86499
G1 X16.046 Y-8.906 E36.02422
G1 X17.018 Y-7.854 E36.17729
G1 X17.526 Y-7.248 E36.26185
G1 X17.978 Y-6.668 E36.34046
G1 X18.806 Y-5.495 E36.49394
G1 X19.227 Y-4.830 E36.57808
G1 X19.581 Y-4.224 E36.65311
G1 X19.985 Y-3.388 E36.75233
G1 X20.184 Y-2.869 E36.81174
G1 X20.309 Y-2.479 E36.85554
G1 X20.424 Y-2.052 E36.90272
G1 X20.528 Y-1.563 E36.95616
G1 X20.601 Y-1.094 E37.00694
G1 X20.650 Y-0.602 E37.05979
G1 X20.670 Y0.037 E37.12811
G1 X20.657 Y0.487 E37.17620
G1 X20.614 Y0.982 E37.22932
G1 X20.553 Y1.422 E37.27684
G1 X20.451 Y1.939 E37.33319
G1 X20.334 Y2.395 E37.38348
G1 X20.190 Y2.851 E37.43459
G1 X19.867 Y3.655 E37.52723
G1 X19.468 Y4.425 E37.61994
G1 X18.781 Y5.533 E37.75919
G1 X17.972 Y6.677 E37.90895
G1 X17.157 Y7.694 E38.04830
G1 X16.357 Y8.583 E38.17613
G1 X15.467 Y9.473 E38.31065
G1 X14.545 Y10.297 E38.44279
G1 X13.801 Y10.899 E38.54518
G1 X13.013 Y11.482 E38.64987
G1 X12.228 Y12.012 E38.75118
G1 X11.428 Y12.504 E38.85153
G1 X10.570 Y12.983 E38.95664
G1 X9.703 Y13.419 E39.06035
G1 X8.791 Y13.829 E39.16716
G1 X7.949 Y14.165 E39.26412
G1 X7.048 Y14.481 E39.36618
G1 X6.203 Y14.740 E39.46063
G1 X5.265 Y14.985 E39.56428
G1 X4.155 Y15.221 E39.68557
G1 X3.177 Y15.381 E39.79149
G1 X2.212 Y15.496 E39.89531
G1 X1.348 Y15.562 E39.98798
G1 X0.381 Y15.597 E40.09141
G1 X-0.405 Y15.595 E40.17544
G1 X-1.332 Y15.557 E40.27456
G1 X-24.730 Y14.118 E42.78034
G1 X-25.532 Y14.033 E42.86651
G1 X-26.213 Y13.906 E42.94050
G1 X-27.018 Y13.686 E43.02969
G1 X-27.811 Y13.390 E43.12021
G1 X-28.587 Y13.012 E43.21247
G1 X-29.149 Y12.679 E43.28237
G1 X-29.740 Y12.266 E43.35943
G1 X-30.311 Y11.793 E43.43861
G1 X-30.745 Y11.376 E43.50296
G1 X-31.160 Y10.920 E43.56883
G1 X-31.569 Y10.402 E43.63940
G1 X-31.878 Y9.953 E43.69765
G1 X-32.240 Y9.337 E43.77409
G1 X-32.504 Y8.806 E43.83744
G1 X-32.762 Y8.182 E43.90963
G1 X-32.949 Y7.622 E43.97268
G1 X-33.114 Y6.997 E44.04177
G1 X-33.245 Y6.297 E44.11792
G1 X-33.312 Y5.720 E44.17998
G1 X-33.348 Y4.900 E44.26771
G1 X-33.341 Y-5.266 E45.35439
G1 X-33.312 Y-5.720 E45.40305
G1 X-33.251 Y-6.256 E45.46070
G1 X-33.111 Y-7.009 E45.54257
G1 X-32.985 Y-7.501 E45.59681
G1 X-32.804 Y-8.066 E45.66022
G1 X-32.503 Y-8.807 E45.74572
G1 X-32.079 Y-9.626 E45.84434
G1 X-31.824 Y-10.037 E45.89601
G1 X-31.502 Y-10.492 E45.95554
G1 X-31.161 Y-10.920 E46.01408
G1 X-30.745 Y-11.376 E46.08006
G1 X-30.222 Y-11.873 E46.15721
G1 X-29.739 Y-12.266 E46.22373
G1 X-29.149 Y-12.679 E46.30072
G1 X-28.540 Y-13.038 E46.37622
G1 X-28.034 Y-13.290 E46.43673
G1 X-27.410 Y-13.549 E46.50891
G1 X-26.806 Y-13.751 E46.57697
G1 X-26.217 Y-13.905 E46.64209
G1 X-25.494 Y-14.039 E46.72065
G1 X-24.729 Y-14.118 E46.80288
G1 X-1.297 Y-15.559 E49.31226
G1 X-0.257 Y-15.597 E49.42349
G1 X-0.188 Y-14.884 F7800.000
G1 X0.323 Y-14.884 E49.47809 F1800.000
G1 X1.689 Y-14.824 E49.62423 F1800.000
G1 X3.138 Y-14.665 E49.78001
G1 X4.562 Y-14.411 E49.93464
G1 X5.262 Y-14.251 E50.01140
G1 X6.011 Y-14.052 E50.09425
G1 X7.260 Y-13.655 E50.23428
G1 X8.500 Y-13.177 E50.37634
G1 X9.214 Y-12.861 E50.45983
G1 X9.865 Y-12.544 E50.53719
G1 X11.048 Y-11.899 E50.68119
G1 X12.278 Y-11.122 E50.83674
G1 X13.370 Y-10.330 E50.98094
G1 X14.491 Y-9.398 E51.13676
G1 X15.541 Y-8.402 E51.29146
G1 X16.515 Y-7.344 E51.44515
G1 X16.972 Y-6.797 E51.52136
G1 X17.469 Y-6.157 E51.60798
G1 X18.254 Y-5.034 E51.75440
G1 X18.620 Y-4.454 E51.82769
G1 X18.989 Y-3.818 E51.90632
G1 X19.328 Y-3.108 E51.99042
G1 X19.509 Y-2.636 E52.04446
G1 X19.643 Y-2.213 E52.09194
G1 X19.837 Y-1.371 E52.18420
G1 X19.937 Y-0.554 E52.27220
G1 X19.948 Y0.356 E52.36954
G1 X19.862 Y1.219 E52.46221
G1 X19.724 Y1.911 E52.53766
G1 X19.462 Y2.767 E52.63337
G1 X19.181 Y3.437 E52.71094
G1 X18.948 Y3.893 E52.76577
G1 X18.593 Y4.498 E52.84073
G1 X17.887 Y5.579 E52.97875
G1 X17.131 Y6.598 E53.11434
G1 X16.333 Y7.553 E53.24741
G1 X15.562 Y8.380 E53.36816
G1 X14.724 Y9.188 E53.49262
G1 X13.817 Y9.974 E53.62096
G1 X13.090 Y10.542 E53.71951
G1 X12.335 Y11.083 E53.81885
G1 X11.585 Y11.574 E53.91463
G1 X10.790 Y12.047 E54.01352
G1 X9.999 Y12.475 E54.10963
G1 X9.172 Y12.880 E54.20803
G1 X8.302 Y13.259 E54.30947
G1 X7.415 Y13.600 E54.41107
G1 X6.542 Y13.893 E54.50953
G1 X5.644 Y14.152 E54.60945
G1 X4.685 Y14.385 E54.71492
G1 X3.799 Y14.560 E54.81142
G1 X2.963 Y14.689 E54.90184
G1 X2.034 Y14.795 E55.00180
G1 X1.090 Y14.861 E55.10294
G1 X0.211 Y14.885 E55.19689
G1 X-0.564 Y14.876 E55.27982
G1 X-1.288 Y14.844 E55.35727
G1 X-24.686 Y13.405 E57.86300
G1 X-25.423 Y13.327 E57.94220
G1 X-26.050 Y13.211 E58.01037
G1 X-26.801 Y13.006 E58.09355
G1 X-27.529 Y12.733 E58.17668
G1 X-28.344 Y12.330 E58.27387
G1 X-29.091 Y11.857 E58.36838
G1 X-29.747 Y11.339 E58.45773
G1 X-30.237 Y10.874 E58.52989
G1 X-30.687 Y10.373 E58.60192
G1 X-31.140 Y9.774 E58.68211
G1 X-31.416 Y9.344 E58.73679
G1 X-31.680 Y8.868 E58.79497
G1 X-31.921 Y8.361 E58.85494
G1 X-32.133 Y7.822 E58.91686
G1 X-32.300 Y7.300 E58.97546
G1 X-32.448 Y6.701 E59.04136
G1 X-32.539 Y6.188 E59.09710
G1 X-32.601 Y5.654 E59.15452
G1 X-32.634 Y4.900 E59.23517
G1 X-32.627 Y-5.243 E60.31943
G1 X-32.545 Y-6.151 E60.41682
G1 X-32.414 Y-6.856 E60.49343
G1 X-32.300 Y-7.300 E60.54245
G1 X-32.133 Y-7.822 E60.60105
G1 X-31.852 Y-8.514 E60.68087
G1 X-31.463 Y-9.265 E60.77130
G1 X-31.226 Y-9.645 E60.81918
G1 X-30.929 Y-10.066 E60.87421
G1 X-30.613 Y-10.461 E60.92836
G1 X-30.237 Y-10.874 E60.98800
G1 X-29.747 Y-11.339 E61.06018
G1 X-29.218 Y-11.765 E61.13283
G1 X-28.664 Y-12.141 E61.20439
G1 X-28.194 Y-12.413 E61.26238
G1 X-27.573 Y-12.714 E61.33620
G1 X-26.895 Y-12.975 E61.41380
G1 X-26.175 Y-13.182 E61.49386
G1 X-25.581 Y-13.303 E61.55870
G1 X-25.032 Y-13.376 E61.61787
G1 X-1.253 Y-14.846 E64.16446
G1 X-0.248 Y-14.883 E64.27198
G1 E62.27198 F2400.00000
G92 E0
G1 X-0.144 Y-11.383 F7800.000
G1 E2.00000 F2400.00000
G1 X0.016 Y-11.385 E2.01711 F1800.000
G1 X1.342 Y-11.340 E2.15888 F1800.000
G1 X2.368 Y-11.240 E2.26905
G1 X3.629 Y-11.030 E2.40569
G1 X4.741 Y-10.771 E2.52780
G1 X6.024 Y-10.379 E2.67116
G1 X7.075 Y-9.979 E2.79136
G1 X7.717 Y-9.697 E2.86630
G1 X8.612 Y-9.263 E2.97259
G1 X9.218 Y-8.914 E3.04732
G1 X10.153 Y-8.333 E3.16506
G1 X11.254 Y-7.541 E3.30998
G1 X12.237 Y-6.718 E3.44706
G1 X13.073 Y-5.919 E3.57071
G1 X13.847 Y-5.078 E3.69286
G1 X14.676 Y-4.048 E3.83416
G1 X15.323 Y-3.121 E3.95492
G1 X15.931 Y-2.114 E4.08069
G1 X16.177 Y-1.560 E4.14549
G1 X16.329 Y-1.058 E4.20152
G1 X16.435 Y-0.464 E4.26602
G1 X16.455 Y0.075 E4.32374
G1 X16.438 Y0.401 E4.35865
G1 X16.387 Y0.810 E4.40271
G1 X16.233 Y1.443 E4.47228
G1 X15.917 Y2.141 E4.55419
G1 X15.393 Y3.013 E4.66298
G1 X14.803 Y3.875 E4.77466
G1 X14.229 Y4.623 E4.87535
G1 X13.463 Y5.508 E5.00047
G1 X12.722 Y6.267 E5.11383
G1 X11.918 Y6.998 E5.23001
G1 X11.014 Y7.724 E5.35394
G1 X10.226 Y8.284 E5.45725
G1 X9.683 Y8.635 E5.52644
G1 X9.042 Y9.015 E5.60607
G1 X8.370 Y9.378 E5.68768
G1 X7.731 Y9.690 E5.76372
G1 X7.164 Y9.941 E5.82996
G1 X6.437 Y10.231 E5.91359
G1 X5.138 Y10.661 E6.05990
G1 X4.505 Y10.832 E6.12998
G1 X3.791 Y10.997 E6.20834
G1 X2.503 Y11.219 E6.34802
G1 X1.774 Y11.304 E6.42646
G1 X1.135 Y11.353 E6.49496
G1 X0.361 Y11.383 E6.57772
G1 X-0.237 Y11.383 E6.64170
G1 X-1.041 Y11.352 E6.72767
G1 X-24.498 Y9.910 E9.23969
G1 X-24.850 Y9.874 E9.27747
G1 X-25.420 Y9.763 E9.33958
G1 X-25.829 Y9.641 E9.38516
G1 X-26.376 Y9.412 E9.44860
G1 X-26.785 Y9.188 E9.49840
G1 X-27.269 Y8.851 E9.56148
G1 X-27.637 Y8.526 E9.61401
G1 X-28.022 Y8.103 E9.67504
G1 X-28.274 Y7.764 E9.72021
G1 X-28.561 Y7.280 E9.78035
G1 X-28.781 Y6.798 E9.83701
G1 X-28.891 Y6.484 E9.87262
G1 X-29.359 Y4.889 E10.05024
G1 X-29.206 Y4.685 E10.07754
G1 X-29.133 Y4.465 E10.10228
G1 X-29.134 Y-4.931 E11.10664
G1 X-29.120 Y-5.280 E11.14395
G1 X-29.051 Y-5.837 E11.20399
G1 X-28.892 Y-6.483 E11.27509
G1 X-28.737 Y-6.906 E11.32323
G1 X-28.463 Y-7.461 E11.38932
G1 X-28.200 Y-7.869 E11.44127
G1 X-27.794 Y-8.366 E11.50984
G1 X-27.376 Y-8.763 E11.57148
G1 X-27.015 Y-9.038 E11.62002
G1 X-26.466 Y-9.368 E11.68841
G1 X-25.820 Y-9.644 E11.76356
G1 X-25.203 Y-9.814 E11.83192
G1 X-24.543 Y-9.906 E11.90320
G1 X-0.991 Y-11.355 E14.42534
G1 X-0.204 Y-11.383 E14.50957
G1 X-0.135 Y-10.669 F7800.000
G1 X-0.022 Y-10.671 E14.52166 F1800.000
G1 X1.298 Y-10.627 E14.66276 F1800.000
G1 X2.276 Y-10.531 E14.76789
G1 X3.490 Y-10.329 E14.89936
G1 X4.554 Y-10.081 E15.01622
G1 X5.794 Y-9.703 E15.15472
G1 X6.804 Y-9.318 E15.27025
G1 X7.801 Y-8.864 E15.38735
G1 X8.331 Y-8.600 E15.45069
G1 X8.861 Y-8.296 E15.51595
G1 X9.753 Y-7.741 E15.62827
G1 X10.816 Y-6.976 E15.76825
G1 X11.761 Y-6.186 E15.89994
G1 X12.565 Y-5.417 E16.01888
G1 X13.305 Y-4.613 E16.13568
