; generated by Slic3r 1.2.9 on 2021-10-19 at 20:01:59

; external perimeters extrusion width = 0.40mm
; perimeters extrusion width = 0.67mm
; infill extrusion width = 0.67mm
; solid infill extrusion width = 0.67mm
; top infill extrusion width = 0.67mm

M190 S70 ; set bed temperature
M104 S185 ; set temperature
G28 ; home all axes
G1 Z5 F5000 ; lift nozzle

M109 S185 ; wait for temperature to be reached
G21 ; set units to millimeters
G90 ; use absolute coordinates
M82 ; use absolute distances for extrusion
G92 E0
G1 E-6.00000 F3000.00000
G92 E0
G1 Z0.500 F4800.000
G1 X26.714 Y0.000 F4800.000
G1 Z0.200 F4800.000
G1 E5.00000 F3000.00000
G1 X26.714 Y17.000 E5.50475 F1080.000
G1 X26.317 Y19.275 E5.57331
G1 X24.748 Y21.748 E5.66028
G1 X21.748 Y24.748 E5.78624
G1 X19.859 Y26.075 E5.85480
G1 X17.000 Y26.714 E5.94177
G1 X-17.000 Y26.714 E6.95127
G1 X-19.275 Y26.317 E7.01983
G1 X-21.748 Y24.748 E7.10680
G1 X-24.748 Y21.748 E7.23277
G1 X-26.075 Y19.859 E7.30132
G1 X-26.714 Y17.000 E7.38829
G1 X-26.714 Y-17.000 E8.39779
G1 X-26.317 Y-19.275 E8.46635
G1 X-24.748 Y-21.748 E8.55332
G1 X-21.748 Y-24.748 E8.67929
G1 X-19.859 Y-26.075 E8.74784
G1 X-17.000 Y-26.714 E8.83481
G1 X17.000 Y-26.714 E9.84431
G1 X19.275 Y-26.317 E9.91287
G1 X21.748 Y-24.748 E9.99984 F1080.000
G1 X24.748 Y-21.748 E10.12581
G1 X26.075 Y-19.859 E10.19436
G1 X26.714 Y-17.000 E10.28133
G1 X26.714 Y-0.060 E10.78430
G1 X26.357 Y-0.060 F4800.000
G1 X26.357 Y17.000 E11.29083 F1080.000
G1 X25.960 Y19.211 E11.35753
G1 X24.495 Y21.495 E11.43810
G1 X21.495 Y24.495 E11.56407
G1 X19.651 Y25.778 E11.63076
G1 X17.000 Y26.357 E11.71134
G1 X-17.000 Y26.357 E12.72084
G1 X-19.211 Y25.960 E12.78754
G1 X-21.495 Y24.495 E12.86811
G1 X-24.495 Y21.495 E12.99408
G1 X-25.778 Y19.651 E13.06077
G1 X-26.357 Y17.000 E13.14135
G1 X-26.357 Y-17.000 E14.15085
G1 X-25.960 Y-19.211 E14.21754
G1 X-24.495 Y-21.495 E14.29812
G1 X-21.495 Y-24.495 E14.42409
G1 X-19.651 Y-25.778 E14.49078
G1 X-17.000 Y-26.357 E14.57135
G1 X17.000 Y-26.357 E15.58086
G1 X19.211 Y-25.960 E15.64755
G1 X21.495 Y-24.495 E15.72813 F1080.000
G1 X24.495 Y-21.495 E15.85409
G1 X25.778 Y-19.651 E15.92079
G1 X26.357 Y-17.000 E16.00136
G1 X26.357 Y-0.120 E16.50255
G1 F3840
G1 X26.357 Y7.560 E10.80255
G1 E10.50255 F3000.00000
G92 E0
G1 Z0.700 F4800.000
G1 X21.607 Y-0.120 F4800.000
G1 Z0.200 F4800.000
G1 E5.00000 F3000.00000
G1 X21.607 Y17.320 E5.51780 F1080.000
G1 X21.362 Y17.910 E5.53679
G1 X17.910 Y21.362 E5.68173
G1 X17.320 Y21.607 E5.70071
G1 X-17.320 Y21.607 E6.72920
G1 X-17.910 Y21.362 E6.74818
G1 X-21.362 Y17.910 E6.89313
G1 X-21.607 Y17.320 E6.91211
G1 X-21.607 Y-17.320 E7.94059
G1 X-21.362 Y-17.910 E7.95957
G1 X-17.910 Y-21.362 E8.10452
G1 X-17.320 Y-21.607 E8.12350
G1 X17.320 Y-21.607 E9.15199
G1 X17.910 Y-21.362 E9.17097
G1 X21.362 Y-17.910 E9.31592 F1080.000
G1 X21.607 Y-17.320 E9.33490
G1 X21.607 Y-0.180 E9.84379
G1 X21.250 Y-0.180 F4800.000
G1 X21.250 Y17.249 E10.36127 F1080.000
G1 X21.060 Y17.708 E10.37603
G1 X17.708 Y21.060 E10.51676
G1 X17.249 Y21.250 E10.53153
G1 X-17.249 Y21.250 E11.55579
G1 X-17.708 Y21.060 E11.57056
G1 X-21.060 Y17.708 E11.71129
G1 X-21.250 Y17.249 E11.72605
G1 X-21.250 Y-17.249 E12.75032
G1 X-21.060 Y-17.708 E12.76508
G1 X-17.708 Y-21.060 E12.90581
G1 X-17.249 Y-21.250 E12.92057
G1 X17.249 Y-21.250 E13.94484
G1 X17.708 Y-21.060 E13.95960 F1080.000
G1 X21.060 Y-17.708 E14.10033
G1 X21.250 Y-17.249 E14.11509
G1 X21.250 Y-0.240 E14.62010
G1 X20.893 Y-0.240 F4800.000
G1 X20.893 Y17.178 E15.13725 F1080.000
G1 X20.757 Y17.506 E15.14780
G1 X17.506 Y20.757 E15.28431
G1 X17.178 Y20.893 E15.29485
G1 X-17.178 Y20.893 E16.31490
G1 X-17.506 Y20.757 E16.32545
G1 X-20.757 Y17.506 E16.46196
G1 X-20.893 Y17.178 E16.47251
G1 X-20.893 Y-17.178 E17.49255
G1 X-20.757 Y-17.506 E17.50310
G1 X-17.506 Y-20.757 E17.63961
G1 X-17.178 Y-20.893 E17.65016
G1 X17.178 Y-20.893 E18.67021
G1 X17.506 Y-20.757 E18.68075
G1 X20.757 Y-17.506 E18.81726 F1080.000
G1 X20.893 Y-17.178 E18.82781
G1 X20.893 Y-0.300 E19.32893
G1 X20.536 Y-0.300 F4800.000
G1 X20.536 Y17.107 E19.84575 F1080.000
G1 X20.454 Y17.303 E19.85208
G1 X17.303 Y20.454 E19.98437
G1 X17.107 Y20.536 E19.99070
G1 X-17.107 Y20.536 E21.00653
G1 X-17.303 Y20.454 E21.01286
G1 X-20.454 Y17.303 E21.14515
G1 X-20.536 Y17.107 E21.15148
G1 X-20.536 Y-17.107 E22.16731
G1 X-20.454 Y-17.303 E22.17364
G1 X-17.303 Y-20.454 E22.30593
G1 X-17.107 Y-20.536 E22.31226
G1 X17.107 Y-20.536 E23.32809
G1 X17.303 Y-20.454 E23.33442 F1080.000
G1 X20.454 Y-17.303 E23.46671
G1 X20.536 Y-17.107 E23.47304
G1 X20.536 Y-0.360 E23.97026
G1 X20.179 Y-0.360 F4800.000
G1 X20.179 Y17.036 E24.48676 F1080.000
G1 X20.151 Y17.101 E24.48887
G1 X17.101 Y20.151 E24.61695
G1 X17.036 Y20.179 E24.61906
G1 X-17.036 Y20.179 E25.63067
G1 X-17.101 Y20.151 E25.63278
G1 X-20.151 Y17.101 E25.76086
G1 X-20.179 Y17.036 E25.76297
G1 X-20.179 Y-17.036 E26.77458
G1 X-20.151 Y-17.101 E26.77669
G1 X-17.101 Y-20.151 E26.90477
G1 X-17.036 Y-20.179 E26.90687
G1 X17.036 Y-20.179 E27.91849
G1 X17.101 Y-20.151 E27.92060
G1 X20.151 Y-17.101 E28.04867 F1080.000
G1 X20.179 Y-17.036 E28.05078
G1 X20.179 Y-0.420 E28.54412
G1 X19.800 Y-0.420 F4800.000
G1 X19.800 Y16.917 E29.05888 F420.000
G1 X16.917 Y19.800 E29.17993
G1 X-16.917 Y19.800 E30.18452
G1 X-19.800 Y16.917 E30.30557
G1 X-19.800 Y-16.917 E31.31015
G1 X-16.917 Y-19.800 E31.43120
G1 X16.917 Y-19.800 E32.43579
G1 X19.800 Y-16.917 E32.55684
G1 X19.800 Y-0.480 E33.04488 F420.000
G1 X19.454 Y-0.220 F4800.000
G1 F3840
G1 X19.800 Y7.200 E27.34488
G1 E27.04488 F3000.00000
G92 E0
G1 Z0.700 F4800.000
G1 X-3.066 Y19.242 F4800.000
G1 Z0.200 F4800.000
G1 E5.00000 F3000.00000
G1 X-3.078 Y19.443 E5.00599 F840.000
G1 X-16.769 Y19.443 E5.41250
G1 X-19.443 Y16.769 E5.52477
G1 X-19.443 Y3.011 E5.93326
G1 X-19.249 Y2.992 E5.93904
G1 X-18.919 Y4.678 E5.99005
G1 X-18.378 Y6.485 E6.04604 F840.000
G1 X-17.676 Y8.211 E6.10136
G1 X-16.800 Y9.881 E6.15736
G1 X-15.767 Y11.459 E6.21336
G1 X-14.589 Y12.926 E6.26922
G1 X-13.265 Y14.282 E6.32549
G1 X-11.826 Y15.495 E6.38136
G1 X-10.274 Y16.565 E6.43736
G1 X-8.645 Y17.471 E6.49268
G1 X-6.916 Y18.225 E6.54868
G1 X-5.123 Y18.808 E6.60468
G1 X-3.281 Y19.215 E6.66068
G1 X-3.125 Y19.234 E6.66534
G1 F3840
G1 X-3.078 Y19.443 E6.50661
G1 F3840
G1 X-10.544 Y19.443 E0.96534
G1 E0.66534 F3000.00000
G92 E0
G1 Z0.700 F4800.000
G1 X-19.086 Y13.945 F4800.000
G1 Z0.200 F4800.000
G1 E5.00000 F3000.00000
G1 X-19.086 Y6.005 E5.23573 F288.000
G1 X-18.903 Y5.978 E5.24123
G1 X-18.716 Y6.604 E5.26062
G1 X-18.000 Y8.362 E5.31696 F288.000
G1 X-17.108 Y10.062 E5.37398
G1 X-16.056 Y11.669 E5.43101
G1 X-14.857 Y13.163 E5.48789
G1 X-14.129 Y13.909 E5.51884
G1 X-14.236 Y14.055 E5.52424
G1 X-14.923 Y13.705 E5.54713
G1 X-15.750 Y13.574 E5.57198
G1 X-16.576 Y13.705 E5.59682
G1 X-17.325 Y14.086 E5.62175
G1 X-17.922 Y14.692 E5.64701
G1 X-18.294 Y15.423 E5.67136
G1 X-18.426 Y16.249 E5.69622
G1 X-18.295 Y17.076 E5.72108
G1 X-18.211 Y17.240 E5.72654
G1 X-18.359 Y17.348 E5.73197
G1 X-19.086 Y16.621 E5.76248
G1 X-19.086 Y14.005 E5.84017
G1 F3840
G1 X-19.086 Y6.325 E0.14017
G1 E-0.15983 F3000.00000
G92 E0
G1 Z0.700 F4800.000
G1 X-8.302 Y18.010 F4800.000
G1 Z0.200 F4800.000
G1 E5.00000 F3000.00000
G1 X-7.043 Y18.559 E5.04077 F288.000
G1 X-5.980 Y18.905 E5.07398
G1 X-6.008 Y19.086 E5.07942
G1 X-15.500 Y19.086 E5.36123
G1 X-15.515 Y18.888 E5.36711
G1 X-14.922 Y18.794 E5.38494
G1 X-14.176 Y18.414 E5.40980
G1 X-13.585 Y17.822 E5.43466
G1 X-13.213 Y17.091 E5.45900
G1 X-13.074 Y16.253 E5.48422
G1 X-13.205 Y15.423 E5.50917
G1 X-13.562 Y14.724 E5.53248
G1 X-13.425 Y14.615 E5.53769
G1 X-12.043 Y15.779 E5.59133
G1 X-10.462 Y16.869 E5.64835 F288.000
G1 X-8.804 Y17.791 E5.70469
G1 X-8.357 Y17.986 E5.71916
G1 X-16.696 Y18.734 F4800.000
G1 X-16.592 Y18.787 E5.72264 F288.000
G1 X-15.975 Y18.889 E5.74119 F288.000
G1 X-15.992 Y19.086 E5.74705
G1 X-16.621 Y19.086 E5.76575
G1 X-16.848 Y18.859 E5.77526
G1 X-16.747 Y18.720 E5.78038
G1 X-16.418 Y18.074 F4800.000
G1 X-16.898 Y17.830 E5.79637 F288.000
G1 X-17.330 Y17.398 E5.81452
G1 X-17.607 Y16.853 E5.83266
G1 X-17.702 Y16.250 E5.85080
G1 X-17.607 Y15.646 E5.86894
G1 X-17.336 Y15.115 E5.88665
G1 X-16.898 Y14.670 E5.90519
G1 X-16.353 Y14.393 E5.92333
G1 X-15.750 Y14.297 E5.94146 F288.000
G1 X-15.147 Y14.393 E5.95960
G1 X-14.602 Y14.670 E5.97773
G1 X-14.170 Y15.102 E5.99588
G1 X-13.893 Y15.647 E6.01401
G1 X-13.797 Y16.251 E6.03217
G1 X-13.899 Y16.865 E6.05067
G1 X-14.170 Y17.397 E6.06838
G1 X-14.602 Y17.829 E6.08652
G1 X-15.146 Y18.107 E6.10467
G1 X-15.750 Y18.203 E6.12283
G1 X-16.364 Y18.101 E6.14130
G1 X-16.731 Y18.323 F4800.000
G1 X-16.422 Y18.453 F4800.000
G1 X-16.479 Y18.444 E6.14301 F288.000
G1 X-17.110 Y18.122 E6.16403
G1 X-17.622 Y17.610 E6.18553
G1 X-17.951 Y16.965 E6.20704
G1 X-18.064 Y16.249 E6.22854
G1 X-17.951 Y15.534 E6.25004
G1 X-17.629 Y14.903 E6.27107
G1 X-17.111 Y14.378 E6.29296
G1 X-16.465 Y14.049 E6.31450
G1 X-15.750 Y13.936 E6.33598 F288.000
G1 X-15.035 Y14.049 E6.35748
G1 X-14.390 Y14.378 E6.37898
G1 X-13.878 Y14.890 E6.40048
G1 X-13.549 Y15.535 E6.42197
G1 X-13.436 Y16.252 E6.44353
G1 X-13.556 Y16.978 E6.46539
G1 X-13.877 Y17.609 E6.48641
G1 X-14.389 Y18.122 E6.50791
G1 X-15.034 Y18.451 E6.52941
G1 X-15.752 Y18.564 E6.55098
G1 X-16.363 Y18.463 E6.56939
G1 X2.963 Y19.247 F4800.000
G1 X4.194 Y19.036 E6.60648 F840.000
G1 X6.014 Y18.542 E6.66248
G1 X7.778 Y17.874 E6.71848
G1 X9.469 Y17.038 E6.77448
G1 X11.071 Y16.043 E6.83048
G1 X12.564 Y14.902 E6.88627
G1 X13.966 Y13.595 E6.94317
G1 X15.182 Y12.221 E6.99766
G1 X16.295 Y10.692 E7.05379
G1 X17.251 Y9.067 E7.10980
G1 X18.047 Y7.357 E7.16580
G1 X18.665 Y5.599 E7.22112
G1 X19.124 Y3.746 E7.27779
G1 X19.244 Y2.918 E7.30265
G1 X19.443 Y2.932 E7.30856
G1 X19.443 Y16.769 E7.71940 F840.000
G1 X16.769 Y19.443 E7.83167
G1 X2.979 Y19.443 E8.24111
G1 X2.968 Y19.307 E8.24518
G1 F3840
G1 X4.194 Y19.036 E7.31300
G1 F3840
G1 X6.014 Y18.542 E5.91331
G1 F3840
G1 X7.778 Y17.874 E4.51347
G1 F3840
G1 X9.469 Y17.038 E3.11363
G1 F3840
G1 X10.119 Y16.634 E2.54518
G1 E2.24518 F3000.00000
G92 E0
G1 Z0.700 F4800.000
G1 X16.667 Y10.765 F4800.000
G1 Z0.200 F4800.000
G1 E5.00000 F3000.00000
G1 X17.568 Y9.233 E5.05276 F840.000
G1 X18.378 Y7.491 E5.10979
G1 X18.908 Y5.985 E5.15720
G1 X19.086 Y6.016 E5.16257
G1 X19.086 Y16.000 E5.45901 F840.000
G1 X18.888 Y16.015 E5.46489
G1 X18.794 Y15.422 E5.48272
G1 X18.414 Y14.676 E5.50758
G1 X17.822 Y14.085 E5.53244
G1 X17.091 Y13.713 E5.55678
G1 X16.253 Y13.574 E5.58200
G1 X15.423 Y13.705 E5.60695
G1 X14.677 Y14.085 E5.63181
G1 X14.085 Y14.677 E5.65666
G1 X13.705 Y15.423 E5.68152
G1 X13.574 Y16.250 E5.70637
G1 X13.705 Y17.076 E5.73121
G1 X14.086 Y17.825 E5.75615
G1 X14.692 Y18.422 E5.78140
G1 X15.423 Y18.794 E5.80575
G1 X16.015 Y18.888 E5.82358
G1 X16.000 Y19.086 E5.82945
G1 X6.082 Y19.086 E6.12392
G1 X6.050 Y18.910 E6.12922
G1 X7.921 Y18.201 E6.18862
G1 X9.643 Y17.350 E6.24565
G1 X11.274 Y16.337 E6.30267
G1 X12.795 Y15.175 E6.35949
G1 X14.222 Y13.845 E6.41742
G1 X15.461 Y12.445 E6.47292
G1 X16.636 Y10.816 E6.53256
G1 X16.251 Y14.297 F4800.000
G1 X16.865 Y14.399 E6.55106 F288.000
G1 X17.397 Y14.670 E6.56877
G1 X17.829 Y15.102 E6.58691
G1 X18.107 Y15.646 E6.60505
G1 X18.203 Y16.250 E6.62322
G1 X18.100 Y16.866 E6.64175
G1 X17.830 Y17.398 E6.65946
G1 X17.398 Y17.830 E6.67760
G1 X16.853 Y18.107 E6.69575
G1 X16.250 Y18.202 E6.71389
G1 X15.646 Y18.107 E6.73203
G1 X15.115 Y17.836 E6.74974
G1 X14.670 Y17.398 E6.76828
G1 X14.393 Y16.853 E6.78642
G1 X14.297 Y16.250 E6.80454
G1 X14.393 Y15.647 E6.82268
G1 X14.670 Y15.102 E6.84082
G1 X15.102 Y14.670 E6.85896
G1 X15.647 Y14.393 E6.87710
G1 X16.191 Y14.307 E6.89348 F288.000
G1 X16.470 Y13.963 F4800.000
G1 X16.136 Y13.954 F4800.000
G1 X16.252 Y13.936 E6.89698 F288.000
G1 X16.978 Y14.056 E6.91883
G1 X17.609 Y14.377 E6.93986
G1 X18.122 Y14.889 E6.96136
G1 X18.451 Y15.534 E6.98286
G1 X18.564 Y16.252 E7.00443
G1 X18.444 Y16.979 E7.02632
G1 X18.122 Y17.610 E7.04735
G1 X17.610 Y18.122 E7.06885
G1 X16.965 Y18.451 E7.09035
G1 X16.249 Y18.564 E7.11186
G1 X15.534 Y18.451 E7.13336
G1 X14.903 Y18.129 E7.15438
G1 X14.378 Y17.611 E7.17628
G1 X14.049 Y16.965 E7.19782
G1 X13.936 Y16.250 E7.21930
G1 X14.049 Y15.535 E7.24080
G1 X14.378 Y14.890 E7.26229
G1 X14.890 Y14.378 E7.28379
G1 X15.535 Y14.049 E7.30529
G1 X16.076 Y13.963 E7.32157 F288.000
G1 F3840
G1 X16.252 Y13.936 E7.18958
G1 F3840
G1 X16.978 Y14.056 E6.64319
G1 F3840
G1 X17.609 Y14.377 E6.11759
G1 F3840
G1 X18.122 Y14.889 E5.58022
G1 F3840
G1 X18.451 Y15.534 E5.04273
G1 F3840
G1 X18.564 Y16.252 E4.50364
G1 F3840
G1 X18.444 Y16.979 E3.95633
G1 F3840
G1 X18.122 Y17.610 E3.43072
G1 F3840
G1 X17.610 Y18.122 E2.89325
G1 F3840
G1 X16.965 Y18.451 E2.35576
G1 F3840
G1 X16.249 Y18.564 E1.81827
G1 F3840
G1 X15.988 Y18.522 E1.62156
G1 E1.32157 F3000.00000
G92 E0
G1 Z0.700 F4800.000
G1 X19.244 Y-2.903 F4800.000
G1 Z0.200 F4800.000
G1 E5.00000 F3000.00000
G1 X19.124 Y-3.731 E5.02485 F840.000
G1 X18.673 Y-5.563 E5.08085
G1 X18.047 Y-7.342 E5.13685
G1 X17.251 Y-9.052 E5.19285
G1 X16.295 Y-10.678 E5.24885
G1 X15.187 Y-12.201 E5.30479
G1 X13.937 Y-13.611 E5.36070
G1 X12.566 Y-14.886 E5.41631
G1 X11.071 Y-16.028 E5.47217
G1 X9.469 Y-17.023 E5.52817
G1 X7.778 Y-17.859 E5.58417
G1 X6.014 Y-18.527 E5.64017
G1 X4.194 Y-19.022 E5.69617
G1 X2.877 Y-19.247 E5.73583
G1 X2.894 Y-19.443 E5.74168
G1 X16.769 Y-19.443 E6.15365
G1 X19.443 Y-16.769 E6.26591
G1 X19.443 Y-2.918 E6.67719 F840.000
G1 X19.304 Y-2.908 E6.68132
G1 X19.086 Y-12.263 F4800.000
G1 X19.086 Y-6.001 E6.86726 F288.000
G1 X18.908 Y-5.971 E6.87262
G1 X18.378 Y-7.477 E6.92004
G1 X17.568 Y-9.219 E6.97707
G1 X16.594 Y-10.874 E7.03409
G1 X15.465 Y-12.425 E7.09105
G1 X14.555 Y-13.452 E7.13178
G1 X14.664 Y-13.592 E7.13705
G1 X15.423 Y-13.205 E7.16235
G1 X16.250 Y-13.074 E7.18721
G1 X17.076 Y-13.205 E7.21205
G1 X17.825 Y-13.586 E7.23698
G1 X18.422 Y-14.192 E7.26224
G1 X18.794 Y-14.923 E7.28659
G1 X18.888 Y-15.515 E7.30441
G1 X19.086 Y-15.500 E7.31029
G1 X19.086 Y-12.323 E7.40461 F288.000
G1 X18.800 Y-16.542 F4800.000
G1 X18.711 Y-16.740 E7.41108 F288.000
G1 X18.859 Y-16.848 E7.41651
G1 X19.086 Y-16.621 E7.42603
G1 X19.086 Y-16.000 E7.44448 F288.000
G1 X18.888 Y-15.984 E7.45036
G1 X18.810 Y-16.482 E7.46533
G1 X17.240 Y-18.211 F4800.000
G1 X17.076 Y-18.295 E7.47079 F288.000
G1 X16.250 Y-18.426 E7.49565
G1 X15.440 Y-18.297 E7.52000
G1 X14.679 Y-17.916 E7.54526
G1 X14.085 Y-17.322 E7.57022
G1 X13.705 Y-16.576 E7.59505
G1 X13.574 Y-15.750 E7.61989
G1 X13.705 Y-14.923 E7.64474
G1 X14.062 Y-14.224 E7.66804
G1 X13.918 Y-14.116 E7.67337
G1 X12.796 Y-15.159 E7.71885
G1 X11.274 Y-16.322 E7.77574
G1 X9.643 Y-17.336 E7.83276
G1 X7.921 Y-18.187 E7.88979
G1 X6.005 Y-18.900 E7.95049
G1 X6.030 Y-19.086 E7.95606
G1 X16.621 Y-19.086 E8.27054
G1 X17.348 Y-18.359 E8.30105
G1 X17.276 Y-18.260 E8.30470 F288.000
G1 X16.925 Y-17.571 F4800.000
G1 X17.398 Y-17.330 E8.32046 F288.000
G1 X17.830 Y-16.898 E8.33860
G1 X18.107 Y-16.353 E8.35675
G1 X18.202 Y-15.750 E8.37489
G1 X18.107 Y-15.146 E8.39303
G1 X17.836 Y-14.615 E8.41074
G1 X17.398 Y-14.170 E8.42928
G1 X16.853 Y-13.893 E8.44742
G1 X16.250 Y-13.797 E8.46554
G1 X15.647 Y-13.893 E8.48368
G1 X15.102 Y-14.170 E8.50182
G1 X14.670 Y-14.602 E8.51996
G1 X14.393 Y-15.147 E8.53810
G1 X14.297 Y-15.750 E8.55624
G1 X14.393 Y-16.353 E8.57436
G1 X14.670 Y-16.897 E8.59248
G1 X15.102 Y-17.330 E8.61065
G1 X15.660 Y-17.609 E8.62918
G1 X16.250 Y-17.702 E8.64689 F288.000
G1 X16.871 Y-17.598 E8.66561
G1 X17.238 Y-17.819 F4800.000
G1 X17.033 Y-17.916 F4800.000
G1 X17.610 Y-17.622 E8.68483 F288.000
G1 X18.122 Y-17.110 E8.70633
G1 X18.451 Y-16.465 E8.72783
G1 X18.564 Y-15.749 E8.74934
G1 X18.451 Y-15.034 E8.77084
G1 X18.129 Y-14.403 E8.79186
G1 X17.611 Y-13.878 E8.81376
G1 X16.965 Y-13.549 E8.83530
G1 X16.250 Y-13.436 E8.85678
G1 X15.535 Y-13.549 E8.87828
G1 X14.890 Y-13.878 E8.89977
G1 X14.378 Y-14.390 E8.92127
G1 X14.049 Y-15.035 E8.94277
G1 X13.936 Y-15.750 E8.96427
G1 X14.049 Y-16.465 E8.98575
G1 X14.377 Y-17.109 E9.00722
G1 X14.891 Y-17.623 E9.02879
G1 X15.550 Y-17.953 E9.05068
G1 X16.250 Y-18.064 E9.07171 F288.000
G1 X16.980 Y-17.943 E9.09369
