; generated by Slic3r 1.2.9 on 2019-05-06 at 19:06:30

; external perimeters extrusion width = 0.40mm
; perimeters extrusion width = 0.67mm
; infill extrusion width = 0.67mm
; solid infill extrusion width = 0.67mm
; top infill extrusion width = 0.67mm

M190 S65 ; set bed temperature
M104 S190 ; set temperature
G28 ; home all axes
G1 Z5 F5000 ; lift nozzle

M109 S190 ; wait for temperature to be reached
G21 ; set units to millimeters
G90 ; use absolute coordinates
M82 ; use absolute distances for extrusion
G92 E0
G1 Z0.400 F4800.000
G1 E-2.00000 F2400.00000
G92 E0
G1 X42.928 Y0.000 F4800.000
G1 E2.00000 F2400.00000
G1 X42.928 Y53.500 E7.71854 F1800.000
G1 X42.890 Y54.255 E7.79938
G1 X42.807 Y54.998 E7.87928
G1 X42.476 Y56.503 E8.04391
G1 X42.215 Y57.254 E8.12900
G1 X41.525 Y58.701 E8.30028
G1 X41.135 Y59.323 E8.37872
G1 X40.098 Y60.623 E8.55651
G1 X39.623 Y61.098 E8.62836
G1 X38.323 Y62.135 E8.80615
G1 X37.701 Y62.525 E8.88459
G1 X36.254 Y63.215 E9.05587
G1 X35.503 Y63.476 E9.14096
G1 X33.998 Y63.807 E9.30558
G1 X33.255 Y63.890 E9.38549
G1 X32.500 Y63.928 E9.46633
G1 X-32.500 Y63.928 E16.41409
G1 X-33.256 Y63.890 E16.49498
G1 X-33.998 Y63.807 E16.57483
G1 X-35.503 Y63.476 E16.73945
G1 X-36.254 Y63.215 E16.82454
G1 X-37.701 Y62.525 E16.99588
G1 X-38.322 Y62.135 E17.07426
G1 X-39.623 Y61.098 E17.25205
G1 X-40.098 Y60.623 E17.32391
G1 X-41.135 Y59.322 E17.50170
G1 X-41.525 Y58.701 E17.58013
G1 X-42.215 Y57.254 E17.75142
G1 X-42.476 Y56.503 E17.83643
G1 X-42.807 Y54.998 E18.00113
G1 X-42.890 Y54.254 E18.08117
G1 X-42.928 Y53.500 E18.16187
G1 X-42.928 Y-53.500 E29.59896
G1 X-42.890 Y-54.255 E29.67971
G1 X-42.807 Y-54.998 E29.75970
G1 X-42.476 Y-56.503 E29.92439
G1 X-42.215 Y-57.254 E30.00940
G1 X-41.525 Y-58.701 E30.18071
G1 X-41.135 Y-59.322 E30.25913
G1 X-40.098 Y-60.623 E30.43691
G1 X-39.623 Y-61.098 E30.50876
G1 X-38.322 Y-62.135 E30.68656
G1 X-37.764 Y-62.486 E30.75700
G1 X-36.254 Y-63.215 E30.93622
G1 X-35.503 Y-63.476 E31.02133
G1 X-33.998 Y-63.807 E31.18597
G1 X-33.255 Y-63.890 E31.26594
G1 X-32.500 Y-63.928 E31.34669
G1 X32.500 Y-63.928 E38.29445
G1 X33.254 Y-63.890 E38.37516
G1 X33.998 Y-63.807 E38.45518 F1800.000
G1 X35.503 Y-63.476 E38.61982
G1 X36.254 Y-63.215 E38.70492
G1 X37.764 Y-62.486 E38.88414
G1 X38.322 Y-62.135 E38.95458
G1 X39.623 Y-61.098 E39.13238
G1 X40.098 Y-60.623 E39.20424
G1 X41.135 Y-59.322 E39.38201
G1 X41.525 Y-58.701 E39.46040
G1 X42.215 Y-57.254 E39.63174
G1 X42.432 Y-56.632 E39.70218
G1 X42.476 Y-56.503 E39.71683
G1 X42.807 Y-54.998 E39.88145
G1 X42.890 Y-54.255 E39.96136
G1 X42.928 Y-53.500 E40.04219
G1 X42.928 Y-0.060 E45.75432
G1 X42.214 Y0.000 F4800.000
G1 X42.214 Y53.500 E51.47286 F1800.000
G1 X42.179 Y54.183 E51.54593
G1 X42.097 Y54.918 E51.62504
G1 X41.799 Y56.278 E51.77384
G1 X41.541 Y57.018 E51.85765
G1 X40.918 Y58.326 E52.01247
G1 X40.531 Y58.943 E52.09028
G1 X39.593 Y60.118 E52.25097
G1 X39.118 Y60.593 E52.32283
G1 X37.943 Y61.531 E52.48352
G1 X37.326 Y61.918 E52.56133
G1 X36.018 Y62.541 E52.71614
G1 X35.278 Y62.799 E52.79996
G1 X33.918 Y63.097 E52.94876
G1 X33.183 Y63.179 E53.02787
G1 X32.500 Y63.214 E53.10094
G1 X-32.500 Y63.214 E60.04870
G1 X-33.183 Y63.179 E60.12181
G1 X-33.918 Y63.097 E60.20088
G1 X-35.278 Y62.799 E60.34967
G1 X-36.018 Y62.541 E60.43349
G1 X-37.326 Y61.917 E60.58835
G1 X-37.943 Y61.531 E60.66611
G1 X-39.118 Y60.593 E60.82681
G1 X-39.593 Y60.118 E60.89866
G1 X-40.531 Y58.943 E61.05936
G1 X-40.918 Y58.326 E61.13716
G1 X-41.541 Y57.018 E61.29198
G1 X-41.798 Y56.279 E61.37573
G1 X-42.097 Y54.918 E61.52459
G1 X-42.179 Y54.182 E61.60383
G1 X-42.214 Y53.500 E61.67677
G1 X-42.214 Y-53.500 E73.11386
G1 X-42.179 Y-54.182 E73.18685
G1 X-42.097 Y-54.918 E73.26604
G1 X-41.798 Y-56.279 E73.41490
G1 X-41.541 Y-57.018 E73.49864
G1 X-40.918 Y-58.326 E73.65348
G1 X-40.531 Y-58.943 E73.73127
G1 X-39.593 Y-60.118 E73.89196
G1 X-39.118 Y-60.593 E73.96381
G1 X-37.943 Y-61.531 E74.12452
G1 X-37.385 Y-61.881 E74.19496
G1 X-36.019 Y-62.541 E74.35709
G1 X-35.278 Y-62.799 E74.44092
G1 X-33.918 Y-63.097 E74.58973
G1 X-33.182 Y-63.179 E74.66890
G1 X-32.500 Y-63.214 E74.74189
G1 X32.500 Y-63.214 E81.68965
G1 X33.182 Y-63.179 E81.76260
G1 X33.918 Y-63.097 E81.84182 F1800.000
G1 X35.278 Y-62.799 E81.99063
G1 X36.019 Y-62.541 E82.07446
G1 X37.385 Y-61.881 E82.23658
G1 X37.943 Y-61.531 E82.30702
G1 X39.118 Y-60.593 E82.46773
G1 X39.593 Y-60.118 E82.53959
G1 X40.531 Y-58.943 E82.70027
G1 X40.917 Y-58.326 E82.77803
G1 X41.541 Y-57.018 E82.93290
G1 X41.758 Y-56.396 E83.00334
G1 X41.799 Y-56.278 E83.01671
G1 X42.097 Y-54.918 E83.16550
G1 X42.179 Y-54.183 E83.24463
G1 X42.214 Y-53.500 E83.31768
G1 X42.214 Y-0.060 E89.02981
G1 E87.02981 F2400.00000
G92 E0
G1 X-19.698 Y34.670 F4800.000
G1 E2.00000 F2400.00000
G1 X-18.883 Y35.007 E2.09421 F450.000
G1 X-18.191 Y35.538 E2.18753
G1 X-17.659 Y36.231 E2.28085
G1 X-17.325 Y37.037 E2.37416
G1 X-17.211 Y37.903 E2.46746
G1 X-17.325 Y38.768 E2.56078
G1 X-17.659 Y39.575 E2.65409
G1 X-18.191 Y40.268 E2.74740
G1 X-18.883 Y40.799 E2.84072
G1 X-19.690 Y41.133 E2.93402
G1 X-20.555 Y41.247 E3.02734
G1 X-21.421 Y41.133 E3.12065
G1 X-22.227 Y40.799 E3.21396
G1 X-22.920 Y40.268 E3.30727
G1 X-23.451 Y39.575 E3.40058
G1 X-23.785 Y38.768 E3.49390
G1 X-23.899 Y37.903 E3.58721
G1 X-23.785 Y37.037 E3.68052
G1 X-23.451 Y36.231 E3.77383
G1 X-22.920 Y35.538 E3.86715
G1 X-22.227 Y35.007 E3.96046
G1 X-21.421 Y34.673 E4.05377
G1 X-20.578 Y34.562 E4.14465 F450.000
G1 X-19.757 Y34.662 E4.23303
G1 X-19.881 Y35.367 F4800.000
G1 X-19.243 Y35.631 E4.30679 F450.000
G1 X-18.700 Y36.048 E4.38000
G1 X-18.283 Y36.591 E4.45322
G1 X-18.021 Y37.224 E4.52643
G1 X-17.932 Y37.903 E4.59964
G1 X-18.021 Y38.582 E4.67286
G1 X-18.283 Y39.215 E4.74607
G1 X-18.700 Y39.758 E4.81928
G1 X-19.243 Y40.175 E4.89249
G1 X-19.876 Y40.437 E4.96570
G1 X-20.555 Y40.527 E5.03892
G1 X-21.234 Y40.437 E5.11213
G1 X-21.867 Y40.175 E5.18534
G1 X-22.411 Y39.758 E5.25855
G1 X-22.828 Y39.215 E5.33177
G1 X-23.090 Y38.582 E5.40498
G1 X-23.179 Y37.903 E5.47819
G1 X-23.090 Y37.224 E5.55140
G1 X-22.828 Y36.591 E5.62462
G1 X-22.411 Y36.048 E5.69783
G1 X-21.867 Y35.631 E5.77104
G1 X-21.234 Y35.369 E5.84426
G1 X-20.575 Y35.282 E5.91539 F450.000
G1 X-19.941 Y35.359 E5.98367
G1 X-20.064 Y36.064 F4800.000
G1 X-19.604 Y36.254 E6.03698 F450.000
G1 X-19.209 Y36.557 E6.09009
G1 X-18.907 Y36.951 E6.14321
G1 X-18.717 Y37.410 E6.19632
G1 X-18.652 Y37.903 E6.24943
G1 X-18.717 Y38.396 E6.30254
G1 X-18.907 Y38.855 E6.35566
G1 X-19.209 Y39.249 E6.40877
G1 X-19.604 Y39.551 E6.46188
G1 X-20.063 Y39.741 E6.51499
G1 X-20.555 Y39.806 E6.56811
G1 X-21.048 Y39.741 E6.62122
G1 X-21.507 Y39.551 E6.67433
G1 X-21.901 Y39.249 E6.72744
G1 X-22.204 Y38.855 E6.78056
G1 X-22.394 Y38.396 E6.83367
G1 X-22.459 Y37.903 E6.88679
G1 X-22.394 Y37.410 E6.93990
G1 X-22.204 Y36.951 E6.99301
G1 X-21.901 Y36.557 E7.04613
G1 X-21.507 Y36.254 E7.09924
G1 X-21.048 Y36.064 E7.15235
G1 X-20.571 Y36.002 E7.20374 F450.000
G1 X-20.124 Y36.056 E7.25192
G1 X-19.770 Y35.792 F4800.000
G1 X24.167 Y36.872 F4800.000
G1 X24.284 Y35.980 E7.34802 F450.000
G1 X24.628 Y35.150 E7.44412
G1 X25.175 Y34.436 E7.54022
G1 X25.889 Y33.889 E7.63633
G1 X26.719 Y33.545 E7.73243
G1 X27.587 Y33.431 E7.82600 F450.000
G1 X28.494 Y33.542 E7.92368
G1 X29.333 Y33.889 E8.02068
G1 X30.046 Y34.437 E8.11679
G1 X30.593 Y35.150 E8.21289
G1 X30.937 Y35.980 E8.30899
G1 X31.055 Y36.872 E8.40509
G1 X30.937 Y37.763 E8.50120
G1 X30.593 Y38.594 E8.59730
G1 X30.046 Y39.307 E8.69340
G1 X29.333 Y39.855 E8.78951
G1 X28.502 Y40.199 E8.88561
G1 X27.611 Y40.316 E8.98171
G1 X26.719 Y40.199 E9.07781
G1 X25.889 Y39.855 E9.17391
G1 X25.175 Y39.307 E9.27002
G1 X24.628 Y38.594 E9.36612
G1 X24.284 Y37.763 E9.46222
G1 X24.174 Y36.931 E9.55191
G1 X24.887 Y36.872 F4800.000
G1 X24.980 Y36.167 E9.62791 F450.000
G1 X25.252 Y35.510 E9.70392
G1 X25.685 Y34.946 E9.77992
G1 X26.249 Y34.513 E9.85592
G1 X26.906 Y34.241 E9.93193
G1 X27.591 Y34.151 E10.00575 F450.000
G1 X28.311 Y34.239 E10.08333
G1 X28.973 Y34.513 E10.15988
G1 X29.537 Y34.946 E10.23589
G1 X29.970 Y35.510 E10.31189
G1 X30.242 Y36.167 E10.38789
G1 X30.334 Y36.872 E10.46389
G1 X30.242 Y37.577 E10.53990
G1 X29.970 Y38.234 E10.61590
G1 X29.537 Y38.798 E10.69190
G1 X28.973 Y39.231 E10.76791
G1 X28.316 Y39.503 E10.84391
G1 X27.611 Y39.596 E10.91991
G1 X26.906 Y39.503 E10.99591
G1 X26.249 Y39.231 E11.07191
G1 X25.685 Y38.798 E11.14792
G1 X25.252 Y38.234 E11.22392
G1 X24.980 Y37.577 E11.29992
G1 X24.895 Y36.931 E11.36951
G1 X25.607 Y36.872 F4800.000
G1 X25.676 Y36.353 E11.42542 F450.000
G1 X25.876 Y35.870 E11.48132
G1 X26.194 Y35.455 E11.53722
G1 X26.609 Y35.137 E11.59313
G1 X27.092 Y34.937 E11.64903
G1 X27.594 Y34.871 E11.70311 F450.000
G1 X28.128 Y34.936 E11.76059
G1 X28.612 Y35.137 E11.81669
G1 X29.027 Y35.455 E11.87259
G1 X29.346 Y35.870 E11.92850
G1 X29.546 Y36.353 E11.98440
G1 X29.614 Y36.872 E12.04030
G1 X29.546 Y37.390 E12.09621
G1 X29.346 Y37.874 E12.15211
G1 X29.027 Y38.288 E12.20801
G1 X28.612 Y38.607 E12.26392
G1 X28.129 Y38.807 E12.31982
G1 X27.611 Y38.875 E12.37572
G1 X27.092 Y38.807 E12.43162
G1 X26.609 Y38.607 E12.48753
G1 X26.194 Y38.288 E12.54343
G1 X25.876 Y37.874 E12.59934
G1 X25.676 Y37.390 E12.65524
G1 X25.615 Y36.931 E12.70473
G1 X25.270 Y36.657 F4800.000
G1 X27.611 Y-34.614 F4800.000
G1 X26.719 Y-34.731 E12.80083 F450.000
G1 X25.889 Y-35.075 E12.89693
G1 X25.175 Y-35.623 E12.99303
G1 X24.628 Y-36.336 E13.08913
G1 X24.293 Y-37.145 E13.18271
G1 X24.166 Y-38.050 E13.28038
G1 X24.284 Y-38.950 E13.37739
G1 X24.628 Y-39.780 E13.47350
G1 X25.175 Y-40.494 E13.56959
G1 X25.889 Y-41.041 E13.66570
G1 X26.719 Y-41.385 E13.76180
G1 X27.587 Y-41.499 E13.85537 F450.000
G1 X28.494 Y-41.388 E13.95305
G1 X29.333 Y-41.041 E14.05006
G1 X30.046 Y-40.494 E14.14616
G1 X30.593 Y-39.780 E14.24226
G1 X30.937 Y-38.950 E14.33836
G1 X31.055 Y-38.058 E14.43447
G1 X30.937 Y-37.167 E14.53057
G1 X30.593 Y-36.336 E14.62667
G1 X30.046 Y-35.623 E14.72277
G1 X29.333 Y-35.076 E14.81887
G1 X28.502 Y-34.731 E14.91498
G1 X27.670 Y-34.622 E15.00467
G1 X27.611 Y-35.334 F4800.000
G1 X26.906 Y-35.427 E15.08067 F450.000
G1 X26.249 Y-35.699 E15.15667
G1 X25.685 Y-36.132 E15.23268
G1 X25.252 Y-36.696 E15.30868
G1 X24.988 Y-37.334 E15.38251
G1 X24.886 Y-38.053 E15.46008
G1 X24.980 Y-38.763 E15.53664
G1 X25.252 Y-39.420 E15.61264
G1 X25.685 Y-39.984 E15.68864
G1 X26.249 Y-40.417 E15.76464
G1 X26.906 Y-40.689 E15.84065
G1 X27.591 Y-40.779 E15.91447 F450.000
G1 X28.311 Y-40.691 E15.99205
G1 X28.973 Y-40.417 E16.06860
G1 X29.537 Y-39.984 E16.14461
G1 X29.970 Y-39.420 E16.22061
G1 X30.242 Y-38.763 E16.29661
G1 X30.334 Y-38.058 E16.37262
G1 X30.242 Y-37.353 E16.44862
G1 X29.970 Y-36.696 E16.52462
G1 X29.537 Y-36.132 E16.60062
G1 X28.973 Y-35.699 E16.67662
G1 X28.316 Y-35.427 E16.75263
G1 X27.670 Y-35.342 E16.82222
G1 X27.611 Y-36.055 F4800.000
G1 X27.092 Y-36.123 E16.87812 F450.000
G1 X26.609 Y-36.323 E16.93403
G1 X26.194 Y-36.642 E16.98993
G1 X25.876 Y-37.056 E17.04583
G1 X25.682 Y-37.524 E17.09991
G1 X25.607 Y-38.056 E17.15739
G1 X25.676 Y-38.577 E17.21349
G1 X25.876 Y-39.060 E17.26939
G1 X26.194 Y-39.475 E17.32530
G1 X26.609 Y-39.793 E17.38120
G1 X27.092 Y-39.993 E17.43710
G1 X27.594 Y-40.059 E17.49118 F450.000
G1 X28.128 Y-39.994 E17.54866
G1 X28.612 Y-39.793 E17.60476
G1 X29.027 Y-39.475 E17.66066
G1 X29.346 Y-39.060 E17.71657
G1 X29.546 Y-38.577 E17.77247
G1 X29.614 Y-38.058 E17.82837
G1 X29.546 Y-37.540 E17.88428
G1 X29.346 Y-37.056 E17.94018
G1 X29.027 Y-36.642 E17.99608
G1 X28.612 Y-36.323 E18.05199
G1 X28.129 Y-36.123 E18.10789
G1 X27.670 Y-36.063 E18.15738
G1 X27.396 Y-35.717 F4800.000
G1 X-17.323 Y-43.517 F4800.000
G1 X-17.667 Y-42.686 E18.25349 F450.000
G1 X-18.214 Y-41.973 E18.34959
G1 X-18.927 Y-41.426 E18.44569
G1 X-19.758 Y-41.081 E18.54179
G1 X-20.649 Y-40.964 E18.63789
G1 X-21.541 Y-41.081 E18.73399
G1 X-22.371 Y-41.426 E18.83010
G1 X-23.085 Y-41.973 E18.92620
G1 X-23.632 Y-42.686 E19.02230
G1 X-23.976 Y-43.517 E19.11840
G1 X-24.093 Y-44.408 E19.21451
G1 X-23.976 Y-45.300 E19.31061
G1 X-23.632 Y-46.130 E19.40671
G1 X-23.085 Y-46.844 E19.50281
G1 X-22.371 Y-47.391 E19.59891
G1 X-21.541 Y-47.735 E19.69502
G1 X-20.673 Y-47.849 E19.78859 F450.000
G1 X-19.766 Y-47.738 E19.88626
G1 X-18.927 Y-47.391 E19.98327
G1 X-18.214 Y-46.844 E20.07937
G1 X-17.667 Y-46.130 E20.17547
G1 X-17.323 Y-45.300 E20.27158
G1 X-17.205 Y-44.408 E20.36768
G1 X-17.315 Y-43.576 E20.45737
G1 X-18.018 Y-43.703 F4800.000
G1 X-18.290 Y-43.046 E20.53338 F450.000
G1 X-18.723 Y-42.482 E20.60938
G1 X-19.287 Y-42.049 E20.68538
G1 X-19.944 Y-41.777 E20.76138
G1 X-20.649 Y-41.684 E20.83738
G1 X-21.354 Y-41.777 E20.91339
G1 X-22.011 Y-42.049 E20.98939
G1 X-22.575 Y-42.482 E21.06539
G1 X-23.008 Y-43.046 E21.14140
G1 X-23.280 Y-43.703 E21.21740
G1 X-23.373 Y-44.408 E21.29340
G1 X-23.280 Y-45.113 E21.36940
G1 X-23.008 Y-45.770 E21.44540
G1 X-22.575 Y-46.334 E21.52141
G1 X-22.011 Y-46.767 E21.59741
G1 X-21.354 Y-47.039 E21.67341
G1 X-20.669 Y-47.129 E21.74724 F450.000
G1 X-19.949 Y-47.041 E21.82481
G1 X-19.287 Y-46.767 E21.90137
G1 X-18.723 Y-46.334 E21.97737
G1 X-18.290 Y-45.770 E22.05337
G1 X-18.018 Y-45.113 E22.12938
G1 X-17.926 Y-44.408 E22.20538
G1 X-18.011 Y-43.763 E22.27497
G1 X-18.714 Y-43.890 F4800.000
G1 X-18.914 Y-43.406 E22.33087 F450.000
G1 X-19.233 Y-42.992 E22.38678
G1 X-19.648 Y-42.673 E22.44268
G1 X-20.131 Y-42.473 E22.49858
G1 X-20.649 Y-42.405 E22.55448
G1 X-21.168 Y-42.473 E22.61039
G1 X-21.651 Y-42.673 E22.66629
G1 X-22.066 Y-42.992 E22.72219
G1 X-22.384 Y-43.406 E22.77810
G1 X-22.584 Y-43.890 E22.83400
G1 X-22.653 Y-44.408 E22.88990
G1 X-22.584 Y-44.927 E22.94581
G1 X-22.384 Y-45.410 E23.00171
G1 X-22.066 Y-45.825 E23.05761
G1 X-21.651 Y-46.143 E23.11352
G1 X-21.168 Y-46.343 E23.16942
G1 X-20.666 Y-46.409 E23.22350 F450.000
G1 X-20.132 Y-46.344 E23.28097
G1 X-19.648 Y-46.143 E23.33708
G1 X-19.233 Y-45.825 E23.39298
G1 X-18.914 Y-45.410 E23.44888
G1 X-18.714 Y-44.927 E23.50479
G1 X-18.646 Y-44.408 E23.56069
G1 X-18.706 Y-43.949 E23.61018
G1 X-18.444 Y-43.595 F4800.000
G1 X-18.714 Y-54.671 F4800.000
G1 X32.409 Y-54.671 E29.07462 F1200.000
G1 X32.757 Y-54.631 E29.11210 F1200.000
G1 X33.003 Y-54.545 E29.13994
G1 X33.223 Y-54.407 E29.16772
G1 X33.407 Y-54.223 E29.19551
G1 X33.545 Y-54.003 E29.22333
G1 X33.628 Y-53.766 E29.25012
G1 X33.672 Y-53.394 E29.29020
G1 X33.672 Y53.397 E40.70498
G1 X33.631 Y53.757 E40.74370
G1 X33.545 Y54.003 E40.77151
G1 X33.407 Y54.223 E40.79930
G1 X33.223 Y54.407 E40.82708
G1 X33.003 Y54.545 E40.85490
G1 X32.766 Y54.628 E40.88170
G1 X32.394 Y54.672 E40.92178
G1 X-32.397 Y54.672 E47.84723
G1 X-32.757 Y54.631 E47.88595
G1 X-33.003 Y54.545 E47.91377
G1 X-33.223 Y54.407 E47.94155
G1 X-33.407 Y54.223 E47.96934
G1 X-33.545 Y54.003 E47.99715
G1 X-33.628 Y53.766 E48.02395
G1 X-33.672 Y53.394 E48.06403
G1 X-33.672 Y-53.397 E59.47881
G1 X-33.631 Y-53.757 E59.51753
G1 X-33.545 Y-54.003 E59.54534
G1 X-33.407 Y-54.223 E59.57313
G1 X-33.223 Y-54.407 E59.60091
G1 X-33.003 Y-54.545 E59.62873
G1 X-32.766 Y-54.628 E59.65552
G1 X-32.394 Y-54.672 E59.69560
G1 X-18.774 Y-54.671 E61.15142
G1 X-18.714 Y-55.386 F4800.000
G1 X32.449 Y-55.385 E66.62015 F1200.000
G1 X32.917 Y-55.332 E66.67050 F1200.000
G1 X33.315 Y-55.193 E66.71553
G1 X33.671 Y-54.969 E66.76053
G1 X33.969 Y-54.671 E66.80553
G1 X34.193 Y-54.315 E66.85055
G1 X34.328 Y-53.927 E66.89440
G1 X34.386 Y-53.435 E66.94736
G1 X34.386 Y53.438 E78.37085
G1 X34.332 Y53.917 E78.42245
G1 X34.193 Y54.315 E78.46746
G1 X33.969 Y54.671 E78.51246
G1 X33.671 Y54.969 E78.55746
G1 X33.315 Y55.193 E78.60248
G1 X32.927 Y55.328 E78.64633
G1 X32.435 Y55.386 E78.69929
G1 X-32.438 Y55.386 E85.63346
G1 X-32.917 Y55.332 E85.68506
G1 X-33.315 Y55.193 E85.73007
G1 X-33.671 Y54.969 E85.77507
G1 X-33.969 Y54.671 E85.82007
G1 X-34.193 Y54.315 E85.86509
G1 X-34.328 Y53.927 E85.90893
G1 X-34.386 Y53.435 E85.96190
G1 X-34.386 Y-53.438 E97.38539
G1 X-34.332 Y-53.917 E97.43699
G1 X-34.193 Y-54.315 E97.48201
G1 X-33.969 Y-54.671 E97.52701
G1 X-33.671 Y-54.969 E97.57201
G1 X-33.315 Y-55.193 E97.61703
G1 X-32.927 Y-55.328 E97.66087
G1 X-32.435 Y-55.386 E97.71383
