; generated by Slic3r 1.2.9 on 2021-10-23 at 14:55:28

; external perimeters extrusion width = 0.40mm
; perimeters extrusion width = 0.67mm
; infill extrusion width = 0.67mm
; solid infill extrusion width = 0.67mm
; top infill extrusion width = 0.67mm

M190 S70 ; set bed temperature
M104 S185 ; set temperature
G28 ; home all axes
G1 Z5 F5000 ; lift nozzle

M109 S185 ; wait for temperature to be reached
G21 ; set units to millimeters
G90 ; use absolute coordinates
M82 ; use absolute distances for extrusion
G92 E0
G1 E-6.00000 F3000.00000
G92 E0
G1 Z0.500 F4800.000
G1 X0.000 Y42.571 F4800.000
G1 Z0.300 F4800.000
G1 E5.00000 F3000.00000
G1 X-53.500 Y42.571 E8.57409 F1080.000
G1 X-54.606 Y42.484 E8.64821
G1 X-55.533 Y42.337 E8.71092
G1 X-57.637 Y41.654 E8.85872
G1 X-58.474 Y41.228 E8.92142
G1 X-60.263 Y39.927 E9.06922
G1 X-60.927 Y39.263 E9.13193
G1 X-62.228 Y37.474 E9.27973
G1 X-62.654 Y36.637 E9.34243
G1 X-63.337 Y34.534 E9.49018
G1 X-63.484 Y33.606 E9.55294
G1 X-63.571 Y32.500 E9.62706
G1 X-63.571 Y-32.500 E13.96941
G1 X-63.484 Y-33.605 E14.04346
G1 X-63.337 Y-34.533 E14.10624
G1 X-62.654 Y-36.637 E14.25399
G1 X-62.228 Y-37.474 E14.31675
G1 X-60.927 Y-39.263 E14.46455
G1 X-60.263 Y-39.927 E14.52725
G1 X-58.474 Y-41.227 E14.67500
G1 X-57.637 Y-41.654 E14.73775
G1 X-55.534 Y-42.337 E14.88548
G1 X-54.606 Y-42.484 E14.94826
G1 X-53.500 Y-42.571 E15.02238
G1 X53.500 Y-42.571 E22.17056
G1 X54.605 Y-42.484 E22.24463
G1 X55.533 Y-42.337 E22.30739 F1080.000
G1 X57.637 Y-41.654 E22.45517
G1 X58.474 Y-41.228 E22.51790
G1 X60.263 Y-39.927 E22.66570
G1 X60.927 Y-39.263 E22.72840
G1 X62.228 Y-37.474 E22.87620
G1 X62.654 Y-36.637 E22.93890
G1 X63.337 Y-34.533 E23.08670
G1 X63.484 Y-33.606 E23.14941
G1 X63.571 Y-32.500 E23.22353
G1 X63.571 Y32.500 E27.56589
G1 X63.484 Y33.606 E27.64001
G1 X63.337 Y34.533 E27.70272
G1 X62.654 Y36.637 E27.85052
G1 X62.228 Y37.474 E27.91322
G1 X60.927 Y39.263 E28.06102
G1 X60.263 Y39.927 E28.12372
G1 X58.474 Y41.228 E28.27152
G1 X57.637 Y41.654 E28.33423
G1 X55.533 Y42.337 E28.48203
G1 X54.606 Y42.484 E28.54473
G1 X53.500 Y42.571 E28.61885
G1 X0.060 Y42.571 E32.18894
G1 X0.060 Y42.036 F4800.000
G1 X-53.500 Y42.036 E35.76703 F1080.000
G1 X-54.522 Y41.955 E35.83554
G1 X-55.449 Y41.808 E35.89825
G1 X-57.394 Y41.176 E36.03485
G1 X-58.230 Y40.750 E36.09756
G1 X-59.885 Y39.548 E36.23416
G1 X-60.548 Y38.885 E36.29687
G1 X-61.750 Y37.230 E36.43347
G1 X-62.176 Y36.394 E36.49617
G1 X-62.808 Y34.450 E36.63273
G1 X-62.955 Y33.522 E36.69549
G1 X-63.036 Y32.500 E36.76399
G1 X-63.036 Y-32.500 E41.10635
G1 X-62.955 Y-33.521 E41.17478
G1 X-62.808 Y-34.449 E41.23756
G1 X-62.177 Y-36.394 E41.37412
G1 X-61.750 Y-37.230 E41.43687
G1 X-60.548 Y-38.885 E41.57347
G1 X-59.885 Y-39.548 E41.63618
G1 X-58.231 Y-40.750 E41.77274
G1 X-57.394 Y-41.176 E41.83549
G1 X-55.450 Y-41.808 E41.97202
G1 X-54.522 Y-41.955 E42.03480
G1 X-53.500 Y-42.036 E42.10331
G1 X53.500 Y-42.036 E49.25149
G1 X54.522 Y-41.955 E49.31994
G1 X55.449 Y-41.808 E49.38270 F1080.000
G1 X57.394 Y-41.177 E49.51929
G1 X58.230 Y-40.750 E49.58201
G1 X59.885 Y-39.548 E49.71861
G1 X60.548 Y-38.885 E49.78132
G1 X61.750 Y-37.230 E49.91792
G1 X62.176 Y-36.394 E49.98062
G1 X62.808 Y-34.449 E50.11723
G1 X62.955 Y-33.522 E50.17993
G1 X63.036 Y-32.500 E50.24845
G1 X63.036 Y32.500 E54.59080
G1 X62.955 Y33.522 E54.65931
G1 X62.808 Y34.449 E54.72202
G1 X62.176 Y36.394 E54.85862
G1 X61.750 Y37.230 E54.92132
G1 X60.548 Y38.885 E55.05793
G1 X59.885 Y39.548 E55.12063
G1 X58.230 Y40.750 E55.25724
G1 X57.394 Y41.176 E55.31994
G1 X55.449 Y41.808 E55.45654
G1 X54.522 Y41.955 E55.51925
G1 X53.500 Y42.036 E55.58776
G1 X0.120 Y42.036 E59.15383
G1 X0.120 Y36.839 F4800.000
G1 X-53.553 Y36.839 E62.73945 F1080.000
G1 X-54.741 Y36.659 E62.81972
G1 X-54.941 Y36.594 E62.83380
G1 X-55.965 Y36.072 E62.91059
G1 X-56.136 Y35.948 E62.92467
G1 X-56.948 Y35.136 E63.00145
G1 X-57.072 Y34.965 E63.01553
G1 X-57.594 Y33.941 E63.09231
G1 X-57.659 Y33.741 E63.10639
G1 X-57.839 Y32.553 E63.18667
G1 X-57.839 Y-32.553 E67.53604
G1 X-57.659 Y-33.741 E67.61631
G1 X-57.594 Y-33.941 E67.63039
G1 X-57.072 Y-34.965 E67.70718
G1 X-56.948 Y-35.136 E67.72126
G1 X-56.136 Y-35.948 E67.79804
G1 X-55.965 Y-36.072 E67.81212
G1 X-54.941 Y-36.594 E67.88891
G1 X-54.741 Y-36.659 E67.90298
G1 X-53.553 Y-36.839 E67.98326
G1 X53.657 Y-36.831 E75.14547
G1 X54.741 Y-36.659 E75.21873 F1080.000
G1 X54.941 Y-36.594 E75.23281
G1 X55.965 Y-36.072 E75.30960
G1 X56.136 Y-35.948 E75.32368
G1 X56.948 Y-35.136 E75.40047
G1 X57.072 Y-34.965 E75.41455
G1 X57.594 Y-33.941 E75.49133
G1 X57.659 Y-33.741 E75.50541
G1 X57.839 Y-32.553 E75.58568
G1 X57.839 Y32.553 E79.93507
G1 X57.659 Y33.741 E80.01534
G1 X57.594 Y33.941 E80.02942
G1 X57.072 Y34.965 E80.10620
G1 X56.948 Y35.136 E80.12029
G1 X56.136 Y35.948 E80.19707
G1 X55.965 Y36.072 E80.21115
G1 X54.941 Y36.594 E80.28793
G1 X54.740 Y36.659 E80.30202
G1 X53.553 Y36.839 E80.38228
G1 X0.180 Y36.839 E83.94786
G1 X0.180 Y36.303 F4800.000
G1 X-53.532 Y36.303 E87.53608 F1080.000
G1 X-54.615 Y36.137 E87.60932
G1 X-54.735 Y36.098 E87.61777
G1 X-55.684 Y35.614 E87.68893
G1 X-55.787 Y35.540 E87.69738
G1 X-56.540 Y34.787 E87.76853
G1 X-56.614 Y34.684 E87.77698
G1 X-57.098 Y33.735 E87.84812
G1 X-57.137 Y33.615 E87.85657
G1 X-57.303 Y32.532 E87.92982
G1 X-57.303 Y-32.532 E92.27638
G1 X-57.137 Y-33.615 E92.34963
G1 X-57.098 Y-33.735 E92.35807
G1 X-56.614 Y-34.684 E92.42923
G1 X-56.540 Y-34.787 E92.43768
G1 X-55.787 Y-35.540 E92.50883
G1 X-55.685 Y-35.614 E92.51728
G1 X-54.735 Y-36.098 E92.58843
G1 X-54.615 Y-36.137 E92.59687
G1 X-53.532 Y-36.303 E92.67012
G1 X53.532 Y-36.303 E99.82252
G1 X54.615 Y-36.137 E99.89576 F1080.000
G1 X54.735 Y-36.098 E99.90421
G1 X55.684 Y-35.614 E99.97536
G1 X55.787 Y-35.540 E99.98381
G1 X56.540 Y-34.787 E100.05496
G1 X56.614 Y-34.684 E100.06341
G1 X57.098 Y-33.735 E100.13456
G1 X57.137 Y-33.615 E100.14301
G1 X57.303 Y-32.532 E100.21626
G1 X57.303 Y32.532 E104.56283
G1 X57.137 Y33.615 E104.63607
G1 X57.098 Y33.736 E104.64452
G1 X56.614 Y34.684 E104.71567
G1 X56.540 Y34.787 E104.72413
G1 X55.787 Y35.540 E104.79527
G1 X55.684 Y35.614 E104.80372
G1 X54.735 Y36.098 E104.87487
G1 X54.615 Y36.137 E104.88333
G1 X53.532 Y36.303 E104.95656
G1 X0.240 Y36.303 E108.51673
G1 X0.240 Y35.768 F4800.000
G1 X-53.511 Y35.768 E112.10755 F1080.000
G1 X-54.530 Y35.601 E112.17655
G1 X-55.404 Y35.156 E112.24207
G1 X-56.131 Y34.438 E112.31038
G1 X-56.601 Y33.530 E112.37868
G1 X-56.768 Y32.511 E112.44768
G1 X-56.768 Y-32.511 E116.79143
G1 X-56.601 Y-33.530 E116.86043
G1 X-56.131 Y-34.438 E116.92874
G1 X-55.404 Y-35.156 E116.99704
G1 X-54.530 Y-35.601 E117.06256
G1 X-53.511 Y-35.768 E117.13156
G1 X53.531 Y-35.766 E124.28255
G1 X54.530 Y-35.601 E124.35014 F1080.000
G1 X55.404 Y-35.156 E124.41566
G1 X56.131 Y-34.438 E124.48397
G1 X56.601 Y-33.530 E124.55227
G1 X56.768 Y-32.511 E124.62127
G1 X56.768 Y32.511 E128.96503
G1 X56.601 Y33.530 E129.03403
G1 X56.131 Y34.438 E129.10233
G1 X55.438 Y35.131 E129.16785
G1 X54.530 Y35.601 E129.23615
G1 X53.511 Y35.768 E129.30515
G1 X0.300 Y35.768 E132.85990
G1 X0.300 Y35.200 F4800.000
G1 X-53.476 Y35.200 E136.45246 F420.000
G1 X-54.333 Y35.064 E136.51041
G1 X-55.085 Y34.681 E136.56677
G1 X-55.681 Y34.085 E136.62312
G1 X-56.064 Y33.333 E136.67948
G1 X-56.200 Y32.476 E136.73743
G1 X-56.200 Y-32.476 E141.07661
G1 X-56.062 Y-33.339 E141.13497
G1 X-55.681 Y-34.085 E141.19091
G1 X-55.085 Y-34.681 E141.24727
G1 X-54.333 Y-35.064 E141.30363
G1 X-53.476 Y-35.200 E141.36158
G1 X53.483 Y-35.199 E148.50703
G1 X54.333 Y-35.064 E148.56455 F420.000
G1 X55.085 Y-34.681 E148.62091
G1 X55.681 Y-34.085 E148.67726
G1 X56.064 Y-33.333 E148.73362
G1 X56.200 Y-32.476 E148.79157
G1 X56.200 Y32.476 E153.13077
G1 X56.064 Y33.333 E153.18872
G1 X55.681 Y34.085 E153.24508
G1 X55.085 Y34.681 E153.30143
G1 X54.333 Y35.064 E153.35779
G1 X53.476 Y35.200 E153.41574
G1 X0.360 Y35.200 E156.96420
G1 X0.100 Y34.854 F4800.000
G1 X0.360 Y34.664 F4800.000
G1 X-53.434 Y34.664 E160.55795 F840.000
G1 X-54.166 Y34.549 E160.60742
G1 X-54.766 Y34.243 E160.65244
G1 X-55.243 Y33.766 E160.69746
G1 X-55.549 Y33.166 E160.74248
G1 X-55.664 Y32.434 E160.79195
G1 X-55.664 Y-32.433 E165.12545
G1 X-55.546 Y-33.171 E165.17533
G1 X-55.243 Y-33.766 E165.21998
G1 X-54.766 Y-34.243 E165.26501
G1 X-54.166 Y-34.549 E165.31003
G1 X-53.434 Y-34.664 E165.35950
G1 X53.441 Y-34.663 E172.49931
G1 X54.166 Y-34.549 E172.54835 F840.000
G1 X54.766 Y-34.243 E172.59337
G1 X55.243 Y-33.766 E172.63839
G1 X55.549 Y-33.166 E172.68341
G1 X55.664 Y-32.434 E172.73288
G1 X55.664 Y32.434 E177.06645
G1 X55.549 Y33.166 E177.11592
G1 X55.243 Y33.766 E177.16094
G1 X54.766 Y34.243 E177.20596
G1 X54.166 Y34.549 E177.25098
G1 X53.434 Y34.664 E177.30045
G1 X0.420 Y34.664 E180.84209
G1 X40.904 Y34.129 F4800.000
G1 X-53.392 Y34.129 E187.14160 F840.000
G1 X-53.998 Y34.033 E187.18259
G1 X-54.447 Y33.804 E187.21628
G1 X-54.804 Y33.447 E187.24996
G1 X-55.033 Y32.998 E187.28365
G1 X-55.129 Y32.392 E187.32463
G1 X-55.129 Y-32.391 E191.65247
G1 X-55.031 Y-33.002 E191.69387
G1 X-54.804 Y-33.447 E191.72722
G1 X-54.447 Y-33.804 E191.76091
G1 X-53.998 Y-34.033 E191.79459
G1 X-53.392 Y-34.129 E191.83558
G1 X53.398 Y-34.128 E198.96976
G1 X53.998 Y-34.033 E199.01032 F840.000
G1 X54.447 Y-33.804 E199.04401
G1 X54.804 Y-33.447 E199.07769
G1 X55.033 Y-32.998 E199.11138
G1 X55.129 Y-32.392 E199.15236
G1 X55.129 Y32.392 E203.48030
G1 X55.033 Y32.998 E203.52128
G1 X54.804 Y33.447 E203.55497
G1 X54.447 Y33.804 E203.58866
G1 X53.998 Y34.033 E203.62234
G1 X53.392 Y34.129 E203.66333
G1 X40.964 Y34.129 E204.49356
G1 X1.785 Y22.261 F4800.000
G1 X1.266 Y23.013 E204.55460 F288.000
G1 X0.457 Y23.437 E204.61564
G1 X-0.457 Y23.437 E204.67668
G1 X-1.266 Y23.013 E204.73772
G1 X-1.785 Y22.261 E204.79876
G1 X-1.895 Y21.354 E204.85980
G1 X-1.571 Y20.500 E204.92084
G1 X-0.887 Y19.894 E204.98188
G1 X-0.128 Y19.706 E205.03414
G1 X0.000 Y19.675 E205.04292 F288.000
G1 X0.887 Y19.894 E205.10396
G1 X1.571 Y20.500 E205.16500
G1 X1.895 Y21.354 E205.22604
G1 X1.792 Y22.201 E205.28307
G1 X2.012 Y22.590 F4800.000
G1 X2.324 Y22.266 F4800.000
G1 X2.301 Y22.456 E205.29590 F288.000
G1 X1.632 Y23.426 E205.37458
G1 X0.589 Y23.973 E205.45326
G1 X-0.589 Y23.973 E205.53194
G1 X-1.632 Y23.426 E205.61062
G1 X-2.301 Y22.456 E205.68930
G1 X-2.443 Y21.287 E205.76797
G1 X-2.025 Y20.186 E205.84665
G1 X-1.144 Y19.405 E205.92533
G1 X-0.256 Y19.186 E205.98642
G1 X0.000 Y19.123 E206.00401 F288.000
G1 X1.144 Y19.405 E206.08269
G1 X2.025 Y20.186 E206.16137
G1 X2.443 Y21.287 E206.24005
G1 X2.331 Y22.206 E206.30189
G1 X2.863 Y22.271 F4800.000
G1 X2.817 Y22.652 E206.32754 F288.000
G1 X1.998 Y23.839 E206.42386
G1 X0.721 Y24.509 E206.52018
G1 X-0.721 Y24.509 E206.61650
G1 X-1.998 Y23.839 E206.71282
G1 X-2.817 Y22.652 E206.80914
G1 X-2.990 Y21.221 E206.90546
G1 X-2.479 Y19.873 E207.00177
G1 X-1.400 Y18.917 E207.09809
G1 X-0.384 Y18.666 E207.16800
G1 X0.000 Y18.572 E207.19441 F288.000
G1 X1.400 Y18.917 E207.29073
G1 X2.479 Y19.873 E207.38705
G1 X2.990 Y21.221 E207.48336
G1 X2.870 Y22.211 E207.55001
G1 F3840
G1 X2.817 Y22.652 E207.22044
G1 F3840
G1 X1.998 Y23.839 E206.15036
G1 F3840
G1 X0.721 Y24.509 E205.08029
G1 F3840
G1 X-0.721 Y24.509 E204.01023
G1 F3840
G1 X-1.998 Y23.839 E202.94016
G1 F3840
G1 X-2.817 Y22.652 E201.87008
G1 F3840
G1 X-2.820 Y22.625 E201.85001
G1 E201.55001 F3000.00000
G92 E0
G1 Z0.800 F4800.000
G1 X-34.977 Y27.381 F4800.000
G1 Z0.300 F4800.000
G1 E5.00000 F3000.00000
G1 X-35.087 Y28.288 E5.06104 F288.000
G1 X-35.606 Y29.040 E5.12208
G1 X-36.415 Y29.464 E5.18312
G1 X-37.329 Y29.464 E5.24416
G1 X-38.138 Y29.040 E5.30520
G1 X-38.657 Y28.288 E5.36624
G1 X-38.767 Y27.381 E5.42728
G1 X-38.443 Y26.526 E5.48832
G1 X-37.759 Y25.920 E5.54936
G1 X-36.888 Y25.706 E5.60928 F288.000
G1 X-35.986 Y25.919 E5.67123
G1 X-35.301 Y26.526 E5.73237
G1 X-34.998 Y27.324 E5.78940
G1 X-34.623 Y27.566 F4800.000
G1 X-34.497 Y27.135 F4800.000
G1 X-34.429 Y27.314 E5.80222 F288.000
G1 X-34.571 Y28.483 E5.88090
G1 X-35.240 Y29.453 E5.95958
G1 X-36.283 Y30.000 E6.03826
G1 X-37.461 Y30.000 E6.11694
G1 X-38.504 Y29.453 E6.19562
G1 X-39.173 Y28.483 E6.27430
G1 X-39.314 Y27.314 E6.35298
G1 X-38.897 Y26.213 E6.43165
G1 X-38.015 Y25.432 E6.51033
G1 X-36.891 Y25.155 E6.58772 F288.000
G1 X-35.731 Y25.429 E6.66731
G1 X-34.847 Y26.213 E6.74626
G1 X-34.519 Y27.078 E6.80810
G1 X-34.018 Y26.889 F4800.000
G1 X-33.882 Y27.248 E6.83375 F288.000
G1 X-34.055 Y28.679 E6.93007
G1 X-34.874 Y29.865 E7.02639
G1 X-36.151 Y30.535 E7.12271
G1 X-37.593 Y30.535 E7.21903
G1 X-38.869 Y29.865 E7.31535
G1 X-39.688 Y28.679 E7.41166
G1 X-39.862 Y27.248 E7.50798
G1 X-39.351 Y25.900 E7.60430
G1 X-38.272 Y24.943 E7.70062
G1 X-36.893 Y24.604 E7.79547 F288.000
G1 X-35.477 Y24.939 E7.89270
G1 X-34.393 Y25.900 E7.98946
G1 X-34.039 Y26.832 E8.05611
G1 X-42.934 Y1.568 F4800.000
G1 X-43.839 Y1.811 E8.11872 F288.000
G1 X-44.745 Y1.568 E8.18134
G1 X-45.407 Y0.905 E8.24395
G1 X-45.652 Y-0.007 E8.30706
G1 X-45.407 Y-0.906 E8.36928
G1 X-44.745 Y-1.568 E8.43184
G1 X-43.839 Y-1.811 E8.49445 F288.000
G1 X-42.934 Y-1.568 E8.55707
G1 X-42.271 Y-0.905 E8.61968
G1 X-42.029 Y-0.000 E8.68229
G1 X-42.271 Y0.905 E8.74490
G1 X-42.892 Y1.526 E8.80351
G1 X-42.969 Y1.966 F4800.000
G1 X-42.513 Y1.904 F4800.000
G1 X-42.657 Y2.048 E8.81710 F288.000
G1 X-43.839 Y2.365 E8.89889
G1 X-45.022 Y2.048 E8.98068
G1 X-45.888 Y1.183 E9.06246
G1 X-46.207 Y-0.008 E9.14484
G1 X-45.886 Y-1.184 E9.22623
G1 X-45.022 Y-2.048 E9.30789
G1 X-43.839 Y-2.365 E9.38967 F288.000
G1 X-42.657 Y-2.048 E9.47146
G1 X-41.791 Y-1.183 E9.55325
G1 X-41.474 Y-0.000 E9.63504
G1 X-41.791 Y1.183 E9.71682
G1 X-42.470 Y1.862 E9.78101
G1 X-42.092 Y2.241 F4800.000
G1 X-42.380 Y2.528 E9.80820 F288.000
G1 X-43.839 Y2.920 E9.90916
G1 X-45.299 Y2.528 E10.01013
G1 X-46.368 Y1.460 E10.11109
G1 X-46.762 Y-0.010 E10.21272
G1 X-46.365 Y-1.462 E10.31329
G1 X-45.299 Y-2.528 E10.41404
G1 X-43.839 Y-2.920 E10.51500 F288.000
G1 X-42.380 Y-2.528 E10.61596
G1 X-41.311 Y-1.460 E10.71693
G1 X-40.920 Y-0.000 E10.81789
G1 X-41.311 Y1.460 E10.91885
G1 X-42.049 Y2.198 E10.98862
G1 X-37.903 Y-18.745 F4800.000
G1 X-38.808 Y-18.987 E11.05123 F288.000
G1 X-39.471 Y-19.650 E11.11384
G1 X-39.713 Y-20.555 E11.17645
G1 X-39.471 Y-21.461 E11.23906
G1 X-38.808 Y-22.123 E11.30168
G1 X-37.919 Y-22.362 E11.36315 F288.000
G1 X-36.999 Y-22.124 E11.42666
G1 X-36.335 Y-21.461 E11.48938
G1 X-36.092 Y-20.555 E11.55199
G1 X-36.335 Y-19.650 E11.61460
G1 X-36.998 Y-18.987 E11.67721
G1 X-37.845 Y-18.760 E11.73582
G1 X-38.132 Y-18.417 F4800.000
G1 X-37.706 Y-18.243 F4800.000
G1 X-37.903 Y-18.190 E11.74941 F288.000
G1 X-39.085 Y-18.507 E11.83120
G1 X-39.951 Y-19.373 E11.91299
G1 X-40.268 Y-20.555 E11.99477
G1 X-39.951 Y-21.738 E12.07656
G1 X-39.085 Y-22.604 E12.15835
G1 X-37.922 Y-22.915 E12.23881 F288.000
G1 X-36.723 Y-22.607 E12.32150
G1 X-35.855 Y-21.738 E12.40358
G1 X-35.538 Y-20.555 E12.48536
G1 X-35.855 Y-19.373 E12.56715
G1 X-36.720 Y-18.507 E12.64894
G1 X-37.648 Y-18.258 E12.71312
G1 X-37.510 Y-17.741 F4800.000
G1 X-37.903 Y-17.636 E12.74032 F288.000
G1 X-39.363 Y-18.027 E12.84128
G1 X-40.431 Y-19.096 E12.94224
G1 X-40.823 Y-20.555 E13.04320
G1 X-40.431 Y-22.015 E13.14417
G1 X-39.363 Y-23.084 E13.24513
G1 X-37.925 Y-23.469 E13.34458 F288.000
G1 X-36.448 Y-23.089 E13.44644
G1 X-35.374 Y-22.015 E13.54789
G1 X-34.983 Y-20.555 E13.64885
G1 X-35.374 Y-19.096 E13.74981
G1 X-36.443 Y-18.027 E13.85078
G1 X-37.452 Y-17.757 E13.92054
G1 X-1.895 Y-20.846 F4800.000
G1 X-1.571 Y-21.700 E13.98158 F288.000
G1 X-0.887 Y-22.306 E14.04262
G1 X-0.128 Y-22.494 E14.09488
G1 X0.000 Y-22.525 E14.10366 F288.000
G1 X0.887 Y-22.306 E14.16470
G1 X1.571 Y-21.700 E14.22574
G1 X1.895 Y-20.846 E14.28678
G1 X1.785 Y-19.939 E14.34782
G1 X1.266 Y-19.187 E14.40886
G1 X0.457 Y-18.763 E14.46990
G1 X-0.457 Y-18.763 E14.53094
G1 X-1.266 Y-19.187 E14.59198
G1 X-1.785 Y-19.939 E14.65302
G1 X-1.888 Y-20.787 E14.71005
G1 X-2.194 Y-21.111 F4800.000
G1 X-2.420 Y-20.722 F4800.000
G1 X-2.443 Y-20.913 E14.72288 F288.000
G1 X-2.025 Y-22.014 E14.80156
G1 X-1.144 Y-22.795 E14.88024
G1 X-0.256 Y-23.014 E14.94132
