; generated by Slic3r 1.2.9 on 2018-10-03 at 22:27:41

; external perimeters extrusion width = 0.40mm
; perimeters extrusion width = 0.68mm
; infill extrusion width = 0.87mm
; solid infill extrusion width = 0.68mm
; top infill extrusion width = 0.68mm
; support material extrusion width = 0.40mm

M107
M190 S65 ; set bed temperature
M104 S190 ; set temperature
G28 ; home all axes
G1 Z5 F5000 ; lift nozzle

M109 S190 ; wait for temperature to be reached
G21 ; set units to millimeters
G90 ; use absolute coordinates
M82 ; use absolute distances for extrusion
G92 E0
G1 Z0.300 F4800.000
G1 E-2.00000 F2400.00000
G92 E0
G1 X42.571 Y0.000 F4800.000
G1 E2.00000 F2400.00000
G1 X42.571 Y53.500 E5.21668 F1080.000
G1 X42.534 Y54.220 E5.26002
G1 X42.452 Y54.958 E5.30471
G1 X42.137 Y56.391 E5.39288
G1 X41.878 Y57.137 E5.44035
G1 X41.221 Y58.514 E5.53210
G1 X40.833 Y59.133 E5.57601
G1 X39.846 Y60.370 E5.67120
G1 X39.370 Y60.846 E5.71162
G1 X38.133 Y61.833 E5.80681
G1 X37.514 Y62.221 E5.85072
G1 X36.137 Y62.878 E5.94247
G1 X35.391 Y63.137 E5.98994
G1 X34.183 Y63.423 E6.06459
G1 X25.134 Y64.737 E6.61433
G1 X24.118 Y64.810 E6.67557
G1 X-17.821 Y64.810 E9.19715
G1 X-18.415 Y64.785 E9.23293
G1 X-33.219 Y63.535 E10.12618
G1 X-33.958 Y63.452 E10.17091
G1 X-35.391 Y63.137 E10.25911
G1 X-36.137 Y62.878 E10.30655
G1 X-37.514 Y62.222 E10.39826
G1 X-38.133 Y61.833 E10.44221
G1 X-39.370 Y60.846 E10.53740
G1 X-39.846 Y60.370 E10.57782
G1 X-40.833 Y59.133 E10.67301
G1 X-41.222 Y58.513 E10.71698
G1 X-41.878 Y57.137 E10.80867
G1 X-42.137 Y56.390 E10.85617
G1 X-42.452 Y54.959 E10.94431
G1 X-42.535 Y54.218 E10.98908
G1 X-42.571 Y53.500 E11.03234
G1 X-42.571 Y-53.500 E17.46570
G1 X-42.535 Y-54.218 E17.50895
G1 X-42.452 Y-54.959 E17.55373
G1 X-42.137 Y-56.391 E17.64189
G1 X-41.878 Y-57.136 E17.68937
G1 X-41.222 Y-58.513 E17.78105
G1 X-40.833 Y-59.133 E17.82503
G1 X-39.846 Y-60.370 E17.92022
G1 X-39.371 Y-60.846 E17.96063
G1 X-38.133 Y-61.833 E18.05584
G1 X-37.572 Y-62.185 E18.09565
G1 X-36.137 Y-62.878 E18.19146
G1 X-35.390 Y-63.138 E18.23898
G1 X-33.958 Y-63.452 E18.32712
G1 X-33.218 Y-63.535 E18.37190
G1 X-32.500 Y-63.571 E18.41514
G1 X32.500 Y-63.571 E22.32325
G1 X33.218 Y-63.535 E22.36646
G1 X33.958 Y-63.452 E22.41127 F1080.000
G1 X35.390 Y-63.138 E22.49941
G1 X36.137 Y-62.878 E22.54694
G1 X37.572 Y-62.185 E22.64274
G1 X38.133 Y-61.833 E22.68255
G1 X39.371 Y-60.846 E22.77776
G1 X39.846 Y-60.370 E22.81817
G1 X40.833 Y-59.133 E22.91336
G1 X41.222 Y-58.514 E22.95731
G1 X41.878 Y-57.137 E23.04902
G1 X42.096 Y-56.511 E23.08883
G1 X42.137 Y-56.391 E23.09649
G1 X42.452 Y-54.959 E23.18466
G1 X42.535 Y-54.219 E23.22939
G1 X42.571 Y-53.500 E23.27269
G1 X42.571 Y-0.060 E26.48576
G1 X42.036 Y0.000 F4800.000
G1 X42.036 Y53.500 E29.70244 F1080.000
G1 X42.002 Y54.165 E29.74250
G1 X41.919 Y54.899 E29.78686
G1 X41.629 Y56.222 E29.86835
G1 X41.372 Y56.960 E29.91529
G1 X40.765 Y58.233 E30.00009
G1 X40.379 Y58.848 E30.04373
G1 X39.467 Y59.992 E30.13172
G1 X38.992 Y60.467 E30.17213
G1 X37.848 Y61.379 E30.26011
G1 X37.233 Y61.765 E30.30376
G1 X35.960 Y62.372 E30.38855
G1 X35.222 Y62.629 E30.43549
G1 X34.106 Y62.893 E30.50448
G1 X25.057 Y64.206 E31.05423
G1 X24.118 Y64.274 E31.11083
G1 X-17.821 Y64.274 E33.63241
G1 X-18.370 Y64.251 E33.66548
G1 X-33.165 Y63.002 E34.55816
G1 X-33.899 Y62.919 E34.60255
G1 X-35.223 Y62.629 E34.68407
G1 X-35.960 Y62.372 E34.73098
G1 X-37.232 Y61.766 E34.81575
G1 X-37.848 Y61.379 E34.85942
G1 X-38.992 Y60.467 E34.94741
G1 X-39.467 Y59.992 E34.98782
G1 X-40.379 Y58.848 E35.07581
G1 X-40.766 Y58.232 E35.11951
G1 X-41.372 Y56.960 E35.20425
G1 X-41.629 Y56.222 E35.25121
G1 X-41.919 Y54.899 E35.33268
G1 X-42.002 Y54.164 E35.37712
G1 X-42.036 Y53.500 E35.41710
G1 X-42.036 Y-53.500 E41.85046
G1 X-42.002 Y-54.164 E41.89043
G1 X-41.919 Y-54.899 E41.93487
G1 X-41.629 Y-56.222 E42.01635
G1 X-41.372 Y-56.960 E42.06330
G1 X-40.766 Y-58.232 E42.14803
G1 X-40.379 Y-58.848 E42.19174
G1 X-39.467 Y-59.992 E42.27972
G1 X-38.992 Y-60.467 E42.32014
G1 X-37.848 Y-61.379 E42.40813
G1 X-37.287 Y-61.732 E42.44794
G1 X-35.960 Y-62.372 E42.53654
G1 X-35.222 Y-62.629 E42.58352
G1 X-33.898 Y-62.920 E42.66499
G1 X-33.164 Y-63.002 E42.70943
G1 X-32.500 Y-63.036 E42.74939
G1 X32.500 Y-63.036 E46.65751
G1 X33.163 Y-63.002 E46.69744
G1 X33.898 Y-62.920 E46.74192 F1080.000
G1 X35.222 Y-62.629 E46.82338
G1 X35.960 Y-62.372 E46.87036
G1 X37.287 Y-61.732 E46.95896
G1 X37.848 Y-61.379 E46.99877
G1 X38.992 Y-60.467 E47.08677
G1 X39.467 Y-59.992 E47.12718
G1 X40.379 Y-58.848 E47.21516
G1 X40.766 Y-58.232 E47.25884
G1 X41.372 Y-56.960 E47.34360
G1 X41.591 Y-56.335 E47.38341
G1 X41.919 Y-54.899 E47.47199
G1 X42.002 Y-54.165 E47.51639
G1 X42.036 Y-53.500 E47.55640
G1 X42.036 Y-0.060 E50.76948
G1 E48.76948 F2400.00000
G92 E0
G1 X-19.814 Y35.116 F4800.000
G1 E2.00000 F2400.00000
G1 X-19.114 Y35.406 E2.04554 F270.000
G1 X-18.517 Y35.864 E2.09079
G1 X-18.059 Y36.461 E2.13605
G1 X-17.771 Y37.157 E2.18130
G1 X-17.672 Y37.903 E2.22655
G1 X-17.771 Y38.649 E2.27180
G1 X-18.059 Y39.344 E2.31705
G1 X-18.517 Y39.942 E2.36230
G1 X-19.114 Y40.400 E2.40756
G1 X-19.809 Y40.688 E2.45281
G1 X-20.555 Y40.786 E2.49806
G1 X-21.302 Y40.688 E2.54331
G1 X-21.997 Y40.400 E2.58856
G1 X-22.594 Y39.942 E2.63381
G1 X-23.052 Y39.344 E2.67907
G1 X-23.340 Y38.649 E2.72432
G1 X-23.438 Y37.903 E2.76957
G1 X-23.340 Y37.157 E2.81482
G1 X-23.058 Y36.476 E2.85914
G1 X-22.598 Y35.867 E2.90502
G1 X-21.997 Y35.406 E2.95056
G1 X-21.302 Y35.118 E2.99581
G1 X-20.571 Y35.022 E3.04013 F270.000
G1 X-19.873 Y35.109 E3.08240
G1 X-19.952 Y35.639 F4800.000
G1 X-19.384 Y35.874 E3.11934 F270.000
G1 X-18.899 Y36.246 E3.15612
G1 X-18.526 Y36.732 E3.19289
G1 X-18.292 Y37.297 E3.22966
G1 X-18.213 Y37.903 E3.26643
G1 X-18.292 Y38.509 E3.30321
G1 X-18.526 Y39.074 E3.33998
G1 X-18.899 Y39.560 E3.37675
G1 X-19.384 Y39.932 E3.41353
G1 X-19.949 Y40.166 E3.45030
G1 X-20.555 Y40.246 E3.48707
G1 X-21.162 Y40.166 E3.52384
G1 X-21.727 Y39.932 E3.56061
G1 X-22.212 Y39.560 E3.59739
G1 X-22.584 Y39.074 E3.63416
G1 X-22.818 Y38.509 E3.67093
G1 X-22.898 Y37.903 E3.70770
G1 X-22.818 Y37.297 E3.74448
G1 X-22.590 Y36.744 E3.78043
G1 X-22.214 Y36.248 E3.81783
G1 X-21.727 Y35.874 E3.85477
G1 X-21.162 Y35.640 E3.89155
G1 X-20.569 Y35.562 E3.92750 F270.000
G1 X-20.011 Y35.631 E3.96129
G1 X-20.090 Y36.161 F4800.000
G1 X-19.654 Y36.342 E3.98964 F270.000
G1 X-19.281 Y36.628 E4.01793
G1 X-18.994 Y37.002 E4.04623
G1 X-18.814 Y37.436 E4.07452
G1 X-18.753 Y37.903 E4.10281
G1 X-18.814 Y38.369 E4.13111
G1 X-18.994 Y38.804 E4.15940
G1 X-19.281 Y39.178 E4.18769
G1 X-19.654 Y39.464 E4.21599
G1 X-20.089 Y39.644 E4.24428
G1 X-20.555 Y39.705 E4.27257
G1 X-21.022 Y39.644 E4.30086
G1 X-21.457 Y39.464 E4.32916
G1 X-21.830 Y39.178 E4.35745
G1 X-22.116 Y38.804 E4.38574
G1 X-22.297 Y38.369 E4.41404
G1 X-22.358 Y37.903 E4.44233
G1 X-22.297 Y37.436 E4.47062
G1 X-22.121 Y37.012 E4.49821
G1 X-21.831 Y36.629 E4.52713
G1 X-21.457 Y36.342 E4.55548
G1 X-21.022 Y36.162 E4.58377
G1 X-20.567 Y36.102 E4.61136 F270.000
G1 X-20.149 Y36.154 E4.63667
G1 X-19.795 Y35.890 F4800.000
G1 X24.628 Y36.872 F4800.000
G1 X24.729 Y36.100 E4.68349 F270.000
G1 X25.027 Y35.380 E4.73031
G1 X25.501 Y34.762 E4.77713
G1 X26.119 Y34.288 E4.82395
G1 X26.839 Y33.990 E4.87078
G1 X27.595 Y33.891 E4.91662 F270.000
G1 X28.378 Y33.989 E4.96411
G1 X29.102 Y34.288 E5.01122
G1 X29.720 Y34.762 E5.05804
G1 X30.194 Y35.380 E5.10486
G1 X30.492 Y36.100 E5.15168
G1 X30.594 Y36.872 E5.19850
G1 X30.492 Y37.644 E5.24533
G1 X30.194 Y38.363 E5.29215
G1 X29.720 Y38.981 E5.33897
G1 X29.102 Y39.455 E5.38579
G1 X28.383 Y39.753 E5.43261
G1 X27.611 Y39.855 E5.47943
G1 X26.839 Y39.753 E5.52625
G1 X26.119 Y39.455 E5.57307
G1 X25.501 Y38.981 E5.61990
G1 X25.027 Y38.363 E5.66672
G1 X24.729 Y37.644 E5.71354
G1 X24.635 Y36.931 E5.75675
G1 X25.168 Y36.872 F4800.000
G1 X25.251 Y36.240 E5.79510 F270.000
G1 X25.495 Y35.650 E5.83344
G1 X25.883 Y35.144 E5.87178
G1 X26.389 Y34.756 E5.91012
G1 X26.978 Y34.512 E5.94846
G1 X27.596 Y34.431 E5.98594 F270.000
G1 X28.240 Y34.511 E6.02495
G1 X28.832 Y34.756 E6.06347
G1 X29.338 Y35.144 E6.10181
G1 X29.726 Y35.650 E6.14015
G1 X29.970 Y36.240 E6.17849
G1 X30.054 Y36.872 E6.21684
G1 X29.970 Y37.504 E6.25518
G1 X29.726 Y38.093 E6.29352
G1 X29.338 Y38.599 E6.33186
G1 X28.832 Y38.987 E6.37020
G1 X28.243 Y39.231 E6.40855
G1 X27.611 Y39.315 E6.44689
G1 X26.978 Y39.231 E6.48523
G1 X26.389 Y38.987 E6.52357
G1 X25.883 Y38.599 E6.56191
G1 X25.495 Y38.093 E6.60026
G1 X25.251 Y37.504 E6.63860
G1 X25.176 Y36.931 E6.67333
G1 X25.708 Y36.872 F4800.000
G1 X25.773 Y36.379 E6.70320 F270.000
G1 X25.963 Y35.921 E6.73306
G1 X26.265 Y35.526 E6.76292
G1 X26.659 Y35.224 E6.79278
G1 X27.118 Y35.034 E6.82265
G1 X27.598 Y34.971 E6.85176 F270.000
G1 X28.102 Y35.034 E6.88228
G1 X28.562 Y35.224 E6.91221
G1 X28.956 Y35.526 E6.94207
G1 X29.258 Y35.921 E6.97194
G1 X29.448 Y36.379 E7.00180
G1 X29.513 Y36.872 E7.03166
G1 X29.448 Y37.364 E7.06152
G1 X29.258 Y37.823 E7.09138
G1 X28.956 Y38.217 E7.12125
G1 X28.562 Y38.520 E7.15111
G1 X28.103 Y38.710 E7.18097
G1 X27.611 Y38.774 E7.21084
G1 X27.118 Y38.710 E7.24070
G1 X26.659 Y38.520 E7.27056
G1 X26.265 Y38.217 E7.30042
G1 X25.963 Y37.823 E7.33029
G1 X25.773 Y37.364 E7.36015
G1 X25.716 Y36.931 E7.38640
G1 X25.371 Y36.657 F4800.000
G1 X27.611 Y-35.075 F4800.000
G1 X26.839 Y-35.177 E7.43322 F270.000
G1 X26.119 Y-35.475 E7.48004
G1 X25.501 Y-35.949 E7.52687
G1 X25.027 Y-36.567 E7.57369
G1 X24.735 Y-37.271 E7.61954
G1 X24.627 Y-38.053 E7.66702
G1 X24.729 Y-38.830 E7.71413
G1 X25.027 Y-39.550 E7.76095
G1 X25.501 Y-40.168 E7.80777
G1 X26.119 Y-40.642 E7.85459
G1 X26.839 Y-40.940 E7.90142
G1 X27.595 Y-41.039 E7.94726 F270.000
G1 X28.378 Y-40.941 E7.99475
G1 X29.102 Y-40.642 E8.04186
G1 X29.720 Y-40.168 E8.08868
G1 X30.194 Y-39.550 E8.13550
G1 X30.492 Y-38.830 E8.18232
G1 X30.594 Y-38.058 E8.22914
G1 X30.492 Y-37.286 E8.27597
G1 X30.194 Y-36.567 E8.32279
G1 X29.720 Y-35.949 E8.36961
G1 X29.102 Y-35.475 E8.41643
G1 X28.383 Y-35.177 E8.46325
G1 X27.670 Y-35.083 E8.50647
G1 X27.611 Y-35.615 F4800.000
G1 X26.978 Y-35.699 E8.54481 F270.000
G1 X26.389 Y-35.943 E8.58315
G1 X25.883 Y-36.331 E8.62149
G1 X25.495 Y-36.837 E8.65983
G1 X25.257 Y-37.413 E8.69731
G1 X25.168 Y-38.055 E8.73632
G1 X25.251 Y-38.690 E8.77484
G1 X25.495 Y-39.280 E8.81318
G1 X25.883 Y-39.786 E8.85152
G1 X26.389 Y-40.174 E8.88986
G1 X26.978 Y-40.418 E8.92821
G1 X27.596 Y-40.499 E8.96568 F270.000
G1 X28.240 Y-40.419 E9.00469
G1 X28.832 Y-40.174 E9.04321
G1 X29.338 Y-39.786 E9.08155
G1 X29.726 Y-39.280 E9.11989
G1 X29.970 Y-38.690 E9.15823
G1 X30.054 Y-38.058 E9.19658
G1 X29.970 Y-37.426 E9.23492
G1 X29.726 Y-36.837 E9.27326
G1 X29.338 Y-36.331 E9.31160
G1 X28.832 Y-35.943 E9.34994
G1 X28.243 Y-35.699 E9.38829
G1 X27.670 Y-35.623 E9.42302
G1 X27.611 Y-36.156 F4800.000
G1 X27.118 Y-36.220 E9.45288 F270.000
G1 X26.659 Y-36.410 E9.48275
G1 X26.265 Y-36.713 E9.51261
G1 X25.963 Y-37.107 E9.54247
G1 X25.778 Y-37.554 E9.57159
G1 X25.708 Y-38.057 E9.60211
G1 X25.773 Y-38.551 E9.63204
G1 X25.963 Y-39.009 E9.66190
G1 X26.265 Y-39.404 E9.69176
G1 X26.659 Y-39.706 E9.72162
G1 X27.118 Y-39.896 E9.75149
G1 X27.598 Y-39.959 E9.78060 F270.000
G1 X28.102 Y-39.896 E9.81112
G1 X28.562 Y-39.706 E9.84105
G1 X28.956 Y-39.404 E9.87091
G1 X29.258 Y-39.009 E9.90078
G1 X29.448 Y-38.551 E9.93064
G1 X29.513 Y-38.058 E9.96050
G1 X29.448 Y-37.566 E9.99036
G1 X29.258 Y-37.107 E10.02023
G1 X28.956 Y-36.713 E10.05009
G1 X28.562 Y-36.410 E10.07995
G1 X28.103 Y-36.220 E10.10981
G1 X27.670 Y-36.163 E10.13607
G1 X27.396 Y-35.818 F4800.000
G1 X-17.768 Y-43.636 F4800.000
G1 X-18.066 Y-42.917 E10.18289 F270.000
G1 X-18.540 Y-42.299 E10.22971
G1 X-19.158 Y-41.825 E10.27653
G1 X-19.877 Y-41.527 E10.32336
G1 X-20.649 Y-41.425 E10.37018
G1 X-21.421 Y-41.527 E10.41700
G1 X-22.141 Y-41.825 E10.46382
G1 X-22.759 Y-42.299 E10.51064
G1 X-23.233 Y-42.917 E10.55746
G1 X-23.531 Y-43.636 E10.60428
G1 X-23.632 Y-44.408 E10.65111
G1 X-23.531 Y-45.180 E10.69793
G1 X-23.233 Y-45.900 E10.74475
G1 X-22.759 Y-46.518 E10.79157
G1 X-22.141 Y-46.992 E10.83839
G1 X-21.421 Y-47.290 E10.88521
G1 X-20.665 Y-47.389 E10.93106 F270.000
G1 X-19.882 Y-47.291 E10.97854
G1 X-19.158 Y-46.992 E11.02565
G1 X-18.540 Y-46.518 E11.07247
G1 X-18.066 Y-45.900 E11.11929
G1 X-17.768 Y-45.180 E11.16612
G1 X-17.666 Y-44.408 E11.21294
G1 X-17.760 Y-43.696 E11.25615
G1 X-18.290 Y-43.776 F4800.000
G1 X-18.534 Y-43.187 E11.29450 F270.000
G1 X-18.922 Y-42.681 E11.33284
G1 X-19.428 Y-42.293 E11.37118
G1 X-20.017 Y-42.049 E11.40952
G1 X-20.649 Y-41.965 E11.44786
G1 X-21.282 Y-42.049 E11.48620
G1 X-21.871 Y-42.293 E11.52455
G1 X-22.377 Y-42.681 E11.56289
G1 X-22.765 Y-43.187 E11.60123
G1 X-23.009 Y-43.776 E11.63957
G1 X-23.092 Y-44.408 E11.67791
G1 X-23.009 Y-45.040 E11.71626
G1 X-22.765 Y-45.630 E11.75460
G1 X-22.377 Y-46.136 E11.79294
G1 X-21.871 Y-46.524 E11.83128
G1 X-21.282 Y-46.768 E11.86962
G1 X-20.663 Y-46.849 E11.90711 F270.000
G1 X-20.020 Y-46.769 E11.94611
G1 X-19.428 Y-46.524 E11.98463
G1 X-18.922 Y-46.136 E12.02297
G1 X-18.534 Y-45.630 E12.06131
G1 X-18.290 Y-45.040 E12.09965
G1 X-18.206 Y-44.408 E12.13799
G1 X-18.282 Y-43.835 E12.17273
G1 X-18.812 Y-43.916 F4800.000
G1 X-19.002 Y-43.457 E12.20259 F270.000
G1 X-19.304 Y-43.063 E12.23245
G1 X-19.698 Y-42.760 E12.26232
G1 X-20.157 Y-42.570 E12.29218
G1 X-20.649 Y-42.506 E12.32204
G1 X-21.142 Y-42.570 E12.35190
G1 X-21.601 Y-42.760 E12.38177
G1 X-21.995 Y-43.063 E12.41163
G1 X-22.297 Y-43.457 E12.44149
G1 X-22.487 Y-43.916 E12.47135
G1 X-22.552 Y-44.408 E12.50122
G1 X-22.487 Y-44.901 E12.53108
G1 X-22.297 Y-45.359 E12.56094
G1 X-21.995 Y-45.753 E12.59080
G1 X-21.601 Y-46.056 E12.62066
G1 X-21.142 Y-46.246 E12.65053
G1 X-20.662 Y-46.309 E12.67964 F270.000
G1 X-20.158 Y-46.246 E12.71017
G1 X-19.698 Y-46.056 E12.74009
G1 X-19.304 Y-45.753 E12.76995
G1 X-19.002 Y-45.359 E12.79982
G1 X-18.812 Y-44.901 E12.82968
G1 X-18.747 Y-44.408 E12.85954
G1 X-18.804 Y-43.975 E12.88580
G1 X-18.541 Y-43.621 F4800.000
G1 X-18.811 Y-55.129 F4800.000
G1 X32.432 Y-55.128 E15.96678 F720.000
G1 X32.860 Y-55.080 E15.99268 F720.000
G1 X33.203 Y-54.960 E16.01452
G1 X33.510 Y-54.767 E16.03634
G1 X33.767 Y-54.510 E16.05817
G1 X33.960 Y-54.203 E16.08000
G1 X34.077 Y-53.867 E16.10136
G1 X34.129 Y-53.421 E16.12837
G1 X34.129 Y53.423 E22.55235
G1 X34.080 Y53.860 E22.57878
G1 X33.960 Y54.203 E22.60062
G1 X33.767 Y54.510 E22.62244
G1 X33.510 Y54.767 E22.64426
G1 X33.203 Y54.960 E22.66610
G1 X32.867 Y55.077 E22.68746
G1 X32.421 Y55.129 E22.71446
G1 X-32.423 Y55.129 E26.61321
G1 X-32.860 Y55.080 E26.63964
G1 X-33.203 Y54.960 E26.66147
G1 X-33.510 Y54.767 E26.68329
G1 X-33.767 Y54.510 E26.70511
G1 X-33.960 Y54.203 E26.72695
G1 X-34.077 Y53.867 E26.74831
G1 X-34.129 Y53.421 E26.77531
G1 X-34.129 Y-53.423 E33.19930
G1 X-34.080 Y-53.860 E33.22573
G1 X-33.960 Y-54.203 E33.24756
G1 X-33.767 Y-54.510 E33.26939
G1 X-33.510 Y-54.767 E33.29121
G1 X-33.203 Y-54.960 E33.31304
G1 X-32.867 Y-55.077 E33.33440
G1 X-32.421 Y-55.129 E33.36141
G1 X-18.871 Y-55.129 E34.17608
G1 X-18.811 Y-55.664 F4800.000
G1 X32.462 Y-55.663 E37.25887 F720.000
G1 X32.980 Y-55.605 E37.29021 F720.000
G1 X33.436 Y-55.445 E37.31930
G1 X33.846 Y-55.188 E37.34838
G1 X34.188 Y-54.846 E37.37747
G1 X34.445 Y-54.436 E37.40656
G1 X34.602 Y-53.988 E37.43513
G1 X34.664 Y-53.452 E37.46757
G1 X34.664 Y53.453 E43.89522
G1 X34.605 Y53.980 E43.92708
G1 X34.445 Y54.436 E43.95617
G1 X34.188 Y54.846 E43.98526
G1 X33.846 Y55.188 E44.01434
G1 X33.436 Y55.445 E44.04343
G1 X32.988 Y55.602 E44.07200
G1 X32.452 Y55.664 E44.10444
G1 X-32.453 Y55.664 E48.00685
G1 X-32.980 Y55.605 E48.03871
G1 X-33.436 Y55.445 E48.06780
G1 X-33.846 Y55.188 E48.09688
G1 X-34.188 Y54.846 E48.12597
G1 X-34.445 Y54.436 E48.15506
G1 X-34.602 Y53.988 E48.18363
G1 X-34.664 Y53.452 E48.21607
G1 X-34.664 Y-53.453 E54.64372
G1 X-34.605 Y-53.980 E54.67558
G1 X-34.445 Y-54.436 E54.70467
G1 X-34.188 Y-54.846 E54.73375
G1 X-33.846 Y-55.188 E54.76284
G1 X-33.436 Y-55.445 E54.79193
G1 X-32.988 Y-55.602 E54.82050
G1 X-32.452 Y-55.664 E54.85294
G1 X-18.871 Y-55.664 E55.66946
