; generated by Slic3r 1.2.9 on 2019-05-15 at 17:54:20

; external perimeters extrusion width = 0.40mm
; perimeters extrusion width = 0.48mm
; infill extrusion width = 0.48mm
; solid infill extrusion width = 0.48mm
; top infill extrusion width = 0.48mm

M190 S65 ; set bed temperature
M104 S190 ; set temperature
G28 ; home all axes
G1 Z5 F5000 ; lift nozzle

M109 S190 ; wait for temperature to be reached
G21 ; set units to millimeters
G90 ; use absolute coordinates
M82 ; use absolute distances for extrusion
G92 E0
G1 Z0.400 F4800.000
G1 E-2.00000 F2400.00000
G92 E0
G1 X0.000 Y42.928 F4800.000
G1 E2.00000 F2400.00000
G1 X-53.500 Y42.928 E7.71854 F1800.000
G1 X-54.256 Y42.890 E7.79943
G1 X-54.998 Y42.807 E7.87928
G1 X-56.503 Y42.476 E8.04391
G1 X-57.254 Y42.215 E8.12899
G1 X-58.701 Y41.525 E8.30033
G1 X-59.322 Y41.135 E8.37872
G1 X-60.623 Y40.098 E8.55651
G1 X-61.098 Y39.623 E8.62836
G1 X-62.135 Y38.322 E8.80615
G1 X-62.525 Y37.701 E8.88459
G1 X-63.215 Y36.254 E9.05587
G1 X-63.476 Y35.503 E9.14089
G1 X-63.807 Y33.998 E9.30558
G1 X-63.890 Y33.254 E9.38562
G1 X-63.928 Y32.500 E9.46632
G1 X-63.928 Y-32.500 E16.41409
G1 X-63.890 Y-33.254 E16.49479
G1 X-63.807 Y-33.998 E16.57483
G1 X-63.476 Y-35.503 E16.73953
G1 X-63.215 Y-36.254 E16.82453
G1 X-62.525 Y-37.701 E16.99585
G1 X-62.135 Y-38.322 E17.07426
G1 X-61.098 Y-39.623 E17.25205
G1 X-60.623 Y-40.098 E17.32391
G1 X-59.322 Y-41.135 E17.50170
G1 X-58.701 Y-41.526 E17.58018
G1 X-57.254 Y-42.215 E17.75142
G1 X-56.503 Y-42.476 E17.83651
G1 X-54.998 Y-42.807 E18.00113
G1 X-54.254 Y-42.890 E18.08118
G1 X-53.500 Y-42.928 E18.16187
G1 X53.500 Y-42.928 E29.59896
G1 X54.255 Y-42.890 E29.67972
G1 X54.998 Y-42.807 E29.75970 F1800.000
G1 X56.502 Y-42.477 E29.92430
G1 X57.254 Y-42.215 E30.00941
G1 X58.764 Y-41.486 E30.18863
G1 X59.322 Y-41.135 E30.25907
G1 X60.623 Y-40.098 E30.43687
G1 X61.099 Y-39.623 E30.50877
G1 X62.135 Y-38.323 E30.68651
G1 X62.525 Y-37.701 E30.76496
G1 X63.215 Y-36.254 E30.93622
G1 X63.476 Y-35.503 E31.02125
G1 X63.807 Y-33.998 E31.18597
G1 X63.890 Y-33.256 E31.26579
G1 X63.928 Y-32.500 E31.34669
G1 X63.928 Y32.500 E38.29445
G1 X63.890 Y33.256 E38.37536
G1 X63.807 Y33.998 E38.45517
G1 X63.476 Y35.503 E38.61985
G1 X63.215 Y36.254 E38.70492
G1 X62.525 Y37.701 E38.87618
G1 X62.135 Y38.322 E38.95463
G1 X61.098 Y39.623 E39.13243
G1 X60.623 Y40.099 E39.20432
G1 X59.322 Y41.135 E39.38206
G1 X58.701 Y41.525 E39.46050
G1 X57.254 Y42.215 E39.63178
G1 X56.503 Y42.476 E39.71686
G1 X54.998 Y42.807 E39.88150
G1 X54.256 Y42.890 E39.96133
G1 X53.500 Y42.928 E40.04224
G1 X0.060 Y42.928 E45.75437
G1 X0.000 Y42.214 F4800.000
G1 X-53.500 Y42.214 E51.47291 F1800.000
G1 X-54.183 Y42.179 E51.54602
G1 X-54.918 Y42.097 E51.62509
G1 X-56.278 Y41.799 E51.77388
G1 X-57.018 Y41.541 E51.85770
G1 X-58.326 Y40.917 E52.01256
G1 X-58.943 Y40.531 E52.09032
G1 X-60.118 Y39.593 E52.25102
G1 X-60.593 Y39.118 E52.32287
G1 X-61.531 Y37.943 E52.48357
G1 X-61.918 Y37.326 E52.56137
G1 X-62.541 Y36.018 E52.71619
G1 X-62.798 Y35.279 E52.79994
G1 X-63.097 Y33.918 E52.94880
G1 X-63.179 Y33.182 E53.02804
G1 X-63.214 Y32.500 E53.10098
G1 X-63.214 Y-32.500 E60.04875
G1 X-63.179 Y-33.182 E60.12169
G1 X-63.097 Y-33.918 E60.20093
G1 X-62.798 Y-35.279 E60.34979
G1 X-62.541 Y-36.018 E60.43353
G1 X-61.918 Y-37.326 E60.58837
G1 X-61.531 Y-37.943 E60.66616
G1 X-60.593 Y-39.118 E60.82685
G1 X-60.118 Y-39.593 E60.89871
G1 X-58.942 Y-40.531 E61.05941
G1 X-58.326 Y-40.918 E61.13726
G1 X-57.018 Y-41.541 E61.29203
G1 X-56.278 Y-41.799 E61.37585
G1 X-54.918 Y-42.097 E61.52464
G1 X-54.181 Y-42.179 E61.60388
G1 X-53.500 Y-42.214 E61.67682
G1 X53.500 Y-42.214 E73.11391
G1 X54.182 Y-42.179 E73.18691
G1 X54.918 Y-42.097 E73.26609 F1800.000
G1 X56.278 Y-41.799 E73.41486
G1 X57.018 Y-41.541 E73.49870
G1 X58.384 Y-40.881 E73.66083
G1 X58.942 Y-40.531 E73.73127
G1 X60.118 Y-39.593 E73.89197
G1 X60.594 Y-39.118 E73.96387
G1 X61.531 Y-37.943 E74.12452
G1 X61.918 Y-37.326 E74.20234
G1 X62.541 Y-36.019 E74.35713
G1 X62.798 Y-35.279 E74.44090
G1 X63.097 Y-33.918 E74.58978
G1 X63.179 Y-33.183 E74.66881
G1 X63.214 Y-32.500 E74.74194
G1 X63.214 Y32.500 E81.68970
G1 X63.179 Y33.183 E81.76283
G1 X63.097 Y33.918 E81.84186
G1 X62.798 Y35.278 E81.99071
G1 X62.541 Y36.019 E82.07451
G1 X61.918 Y37.326 E82.22930
G1 X61.531 Y37.943 E82.30712
G1 X60.593 Y39.118 E82.46782
G1 X60.118 Y39.594 E82.53970
G1 X58.942 Y40.531 E82.70036
G1 X58.326 Y40.918 E82.77817
G1 X57.018 Y41.541 E82.93299
G1 X56.278 Y41.798 E83.01678
G1 X54.918 Y42.097 E83.16560
G1 X54.183 Y42.179 E83.24465
G1 X53.500 Y42.214 E83.31777
G1 X0.060 Y42.214 E89.02990
G1 E87.02990 F2400.00000
G92 E0
G1 X34.731 Y26.719 F4800.000
G1 E2.00000 F2400.00000
G1 X35.075 Y25.889 E2.09610 F450.000
G1 X35.623 Y25.175 E2.19221
G1 X36.336 Y24.628 E2.28831
G1 X37.167 Y24.284 E2.38441
G1 X38.035 Y24.170 E2.47799 F450.000
G1 X38.942 Y24.281 E2.57566
G1 X39.780 Y24.628 E2.67267
G1 X40.493 Y25.175 E2.76877
G1 X41.041 Y25.889 E2.86487
G1 X41.385 Y26.719 E2.96097
G1 X41.502 Y27.611 E3.05707
G1 X41.385 Y28.502 E3.15318
G1 X41.041 Y29.333 E3.24928
G1 X40.494 Y30.046 E3.34539
G1 X39.780 Y30.593 E3.44148
G1 X38.950 Y30.937 E3.53759
G1 X38.058 Y31.055 E3.63369
G1 X37.167 Y30.937 E3.72979
G1 X36.336 Y30.593 E3.82590
G1 X35.623 Y30.046 E3.92200
G1 X35.075 Y29.333 E4.01810
G1 X34.731 Y28.502 E4.11421
G1 X34.614 Y27.611 E4.21031
G1 X34.724 Y26.779 E4.29999
G1 X35.427 Y26.906 F4800.000
G1 X35.699 Y26.249 E4.37600 F450.000
G1 X36.132 Y25.685 E4.45200
G1 X36.696 Y25.252 E4.52800
G1 X37.353 Y24.980 E4.60400
G1 X38.038 Y24.890 E4.67783 F450.000
G1 X38.758 Y24.978 E4.75541
G1 X39.420 Y25.252 E4.83196
G1 X39.984 Y25.685 E4.90796
G1 X40.417 Y26.249 E4.98397
G1 X40.689 Y26.906 E5.05997
G1 X40.782 Y27.611 E5.13597
G1 X40.689 Y28.316 E5.21198
G1 X40.417 Y28.973 E5.28798
G1 X39.984 Y29.537 E5.36398
G1 X39.420 Y29.970 E5.43998
G1 X38.763 Y30.242 E5.51599
G1 X38.058 Y30.334 E5.59199
G1 X37.353 Y30.242 E5.66799
G1 X36.696 Y29.970 E5.74400
G1 X36.132 Y29.537 E5.82000
G1 X35.699 Y28.973 E5.89600
G1 X35.427 Y28.316 E5.97201
G1 X35.334 Y27.611 E6.04801
G1 X35.419 Y26.965 E6.11760
G1 X36.123 Y27.092 F4800.000
G1 X36.323 Y26.609 E6.17350 F450.000
G1 X36.642 Y26.194 E6.22940
G1 X37.056 Y25.876 E6.28531
G1 X37.540 Y25.676 E6.34121
G1 X38.041 Y25.609 E6.39529 F450.000
G1 X38.575 Y25.675 E6.45277
G1 X39.060 Y25.876 E6.50887
G1 X39.475 Y26.194 E6.56477
G1 X39.793 Y26.609 E6.62067
G1 X39.993 Y27.092 E6.67658
G1 X40.062 Y27.611 E6.73248
G1 X39.993 Y28.129 E6.78838
G1 X39.793 Y28.612 E6.84429
G1 X39.475 Y29.027 E6.90019
G1 X39.060 Y29.346 E6.95609
G1 X38.577 Y29.546 E7.01200
G1 X38.058 Y29.614 E7.06790
G1 X37.540 Y29.546 E7.12380
G1 X37.056 Y29.346 E7.17971
G1 X36.642 Y29.027 E7.23561
G1 X36.323 Y28.612 E7.29151
G1 X36.123 Y28.129 E7.34742
G1 X36.055 Y27.611 E7.40332
G1 X36.115 Y27.152 E7.45281
G1 X35.853 Y26.797 F4800.000
G1 X43.517 Y-17.323 F4800.000
G1 X42.686 Y-17.667 E7.54892 F450.000
G1 X41.973 Y-18.214 E7.64502
G1 X41.425 Y-18.927 E7.74112
G1 X41.081 Y-19.758 E7.83722
G1 X40.964 Y-20.649 E7.93332
G1 X41.081 Y-21.541 E8.02942
G1 X41.416 Y-22.350 E8.12300
G1 X41.966 Y-23.079 E8.22068
G1 X42.686 Y-23.632 E8.31768
G1 X43.517 Y-23.976 E8.41378
G1 X44.385 Y-24.090 E8.50736 F450.000
G1 X45.292 Y-23.979 E8.60503
G1 X46.130 Y-23.632 E8.70204
G1 X46.843 Y-23.085 E8.79814
G1 X47.391 Y-22.371 E8.89424
G1 X47.735 Y-21.541 E8.99035
G1 X47.852 Y-20.649 E9.08645
G1 X47.735 Y-19.758 E9.18255
G1 X47.391 Y-18.927 E9.27865
G1 X46.844 Y-18.214 E9.37475
G1 X46.130 Y-17.667 E9.47085
G1 X45.300 Y-17.323 E9.56696
G1 X44.408 Y-17.205 E9.66306
G1 X43.576 Y-17.315 E9.75275
G1 X43.703 Y-18.018 F4800.000
G1 X43.046 Y-18.290 E9.82875 F450.000
G1 X42.482 Y-18.723 E9.90475
G1 X42.049 Y-19.287 E9.98076
G1 X41.777 Y-19.944 E10.05676
G1 X41.684 Y-20.649 E10.13276
G1 X41.777 Y-21.354 E10.20876
G1 X42.042 Y-21.992 E10.28259
G1 X42.478 Y-22.572 E10.36017
G1 X43.046 Y-23.008 E10.43672
G1 X43.703 Y-23.280 E10.51272
G1 X44.388 Y-23.370 E10.58655 F450.000
G1 X45.108 Y-23.282 E10.66412
G1 X45.770 Y-23.008 E10.74068
G1 X46.334 Y-22.575 E10.81668
G1 X46.767 Y-22.011 E10.89268
G1 X47.039 Y-21.354 E10.96869
G1 X47.132 Y-20.649 E11.04469
G1 X47.039 Y-19.944 E11.12069
G1 X46.767 Y-19.287 E11.19670
G1 X46.334 Y-18.723 E11.27270
G1 X45.770 Y-18.290 E11.34870
G1 X45.113 Y-18.018 E11.42470
G1 X44.408 Y-17.926 E11.50071
G1 X43.763 Y-18.011 E11.57029
G1 X43.890 Y-18.714 F4800.000
G1 X43.406 Y-18.914 E11.62620 F450.000
G1 X42.992 Y-19.233 E11.68210
G1 X42.673 Y-19.648 E11.73800
G1 X42.473 Y-20.131 E11.79391
G1 X42.405 Y-20.649 E11.84981
G1 X42.473 Y-21.168 E11.90571
G1 X42.667 Y-21.635 E11.95980
G1 X42.990 Y-22.065 E12.01727
G1 X43.406 Y-22.384 E12.07337
G1 X43.890 Y-22.584 E12.12927
G1 X44.391 Y-22.651 E12.18336 F450.000
G1 X44.925 Y-22.585 E12.24083
G1 X45.410 Y-22.384 E12.29693
G1 X45.825 Y-22.066 E12.35283
G1 X46.143 Y-21.651 E12.40874
G1 X46.343 Y-21.168 E12.46464
G1 X46.412 Y-20.649 E12.52054
G1 X46.343 Y-20.131 E12.57645
G1 X46.143 Y-19.648 E12.63235
G1 X45.825 Y-19.233 E12.68825
G1 X45.410 Y-18.914 E12.74415
G1 X44.927 Y-18.714 E12.80006
G1 X44.408 Y-18.646 E12.85596
G1 X43.949 Y-18.706 E12.90545
G1 X43.595 Y-18.444 F4800.000
G1 X-34.559 Y-20.555 F4800.000
G1 X-34.673 Y-19.690 E12.99877 F450.000
G1 X-35.007 Y-18.883 E13.09207
G1 X-35.538 Y-18.191 E13.18539
G1 X-36.231 Y-17.659 E13.27871
G1 X-37.037 Y-17.325 E13.37202
G1 X-37.903 Y-17.211 E13.46532
G1 X-38.768 Y-17.325 E13.55864
G1 X-39.575 Y-17.659 E13.65195
G1 X-40.268 Y-18.191 E13.74526
G1 X-40.799 Y-18.883 E13.83858
G1 X-41.124 Y-19.669 E13.92946
G1 X-41.248 Y-20.547 E14.02425
G1 X-41.133 Y-21.421 E14.11846
G1 X-40.799 Y-22.227 E14.21177
G1 X-40.268 Y-22.920 E14.30508
G1 X-39.575 Y-23.451 E14.39839
G1 X-38.768 Y-23.785 E14.49171
G1 X-37.925 Y-23.897 E14.58260 F450.000
G1 X-37.045 Y-23.789 E14.67738
G1 X-36.231 Y-23.451 E14.77160
G1 X-35.538 Y-22.920 E14.86491
G1 X-35.007 Y-22.227 E14.95822
G1 X-34.673 Y-21.421 E15.05154
G1 X-34.567 Y-20.615 E15.13843
G1 X-35.279 Y-20.555 F4800.000
G1 X-35.369 Y-19.876 E15.21165 F450.000
G1 X-35.631 Y-19.243 E15.28486
G1 X-36.048 Y-18.700 E15.35807
G1 X-36.591 Y-18.283 E15.43129
G1 X-37.224 Y-18.021 E15.50450
G1 X-37.903 Y-17.932 E15.57771
G1 X-38.582 Y-18.021 E15.65092
G1 X-39.215 Y-18.283 E15.72413
G1 X-39.758 Y-18.700 E15.79734
G1 X-40.175 Y-19.243 E15.87056
G1 X-40.430 Y-19.858 E15.94170
G1 X-40.527 Y-20.550 E16.01638
G1 X-40.437 Y-21.234 E16.09014
G1 X-40.175 Y-21.867 E16.16336
G1 X-39.758 Y-22.411 E16.23657
G1 X-39.215 Y-22.828 E16.30978
G1 X-38.582 Y-23.090 E16.38299
G1 X-37.922 Y-23.177 E16.45414 F450.000
G1 X-37.229 Y-23.092 E16.52882
G1 X-36.591 Y-22.828 E16.60259
G1 X-36.048 Y-22.411 E16.67580
G1 X-35.631 Y-21.867 E16.74901
G1 X-35.369 Y-21.234 E16.82222
G1 X-35.287 Y-20.615 E16.88902
G1 X-35.999 Y-20.555 F4800.000
G1 X-36.064 Y-20.063 E16.94214 F450.000
G1 X-36.254 Y-19.604 E16.99525
G1 X-36.557 Y-19.209 E17.04836
G1 X-36.951 Y-18.907 E17.10148
G1 X-37.410 Y-18.717 E17.15459
G1 X-37.903 Y-18.652 E17.20770
G1 X-38.396 Y-18.717 E17.26081
G1 X-38.855 Y-18.907 E17.31393
G1 X-39.249 Y-19.209 E17.36704
G1 X-39.551 Y-19.604 E17.42015
G1 X-39.735 Y-20.048 E17.47154
G1 X-39.807 Y-20.554 E17.52613
G1 X-39.741 Y-21.048 E17.57944
G1 X-39.551 Y-21.507 E17.63255
G1 X-39.249 Y-21.901 E17.68566
G1 X-38.855 Y-22.204 E17.73878
G1 X-38.396 Y-22.394 E17.79189
G1 X-37.919 Y-22.457 E17.84329 F450.000
G1 X-37.412 Y-22.395 E17.89787
G1 X-36.951 Y-22.204 E17.95118
G1 X-36.557 Y-21.901 E18.00430
G1 X-36.254 Y-21.507 E18.05741
G1 X-36.064 Y-21.048 E18.11052
G1 X-36.007 Y-20.615 E18.15722
G1 X-35.662 Y-20.340 F4800.000
G1 X-36.895 Y24.170 F4800.000
G1 X-35.988 Y24.281 E18.25490 F450.000
G1 X-35.150 Y24.628 E18.35190
G1 X-34.437 Y25.175 E18.44800
G1 X-33.889 Y25.889 E18.54411
G1 X-33.545 Y26.719 E18.64021
G1 X-33.428 Y27.611 E18.73631
G1 X-33.545 Y28.502 E18.83241
G1 X-33.889 Y29.333 E18.92851
G1 X-34.437 Y30.046 E19.02462
G1 X-35.150 Y30.593 E19.12072
G1 X-35.980 Y30.937 E19.21682
G1 X-36.872 Y31.055 E19.31293
G1 X-37.763 Y30.937 E19.40903
G1 X-38.594 Y30.593 E19.50513
G1 X-39.307 Y30.046 E19.60123
G1 X-39.855 Y29.333 E19.69734
G1 X-40.199 Y28.502 E19.79344
G1 X-40.325 Y27.543 E19.89685
G1 X-40.188 Y26.695 E19.98867
G1 X-39.855 Y25.889 E20.08193
G1 X-39.307 Y25.175 E20.17804
G1 X-38.594 Y24.628 E20.27414
G1 X-37.763 Y24.284 E20.37024
G1 X-36.955 Y24.178 E20.45740 F450.000
G1 X-36.892 Y24.890 F4800.000
G1 X-36.172 Y24.978 E20.53498 F450.000
G1 X-35.510 Y25.252 E20.61153
G1 X-34.946 Y25.685 E20.68753
G1 X-34.513 Y26.249 E20.76354
G1 X-34.241 Y26.906 E20.83954
G1 X-34.148 Y27.611 E20.91554
G1 X-34.241 Y28.316 E20.99155
G1 X-34.513 Y28.973 E21.06755
G1 X-34.946 Y29.537 E21.14355
G1 X-35.510 Y29.970 E21.21955
G1 X-36.167 Y30.242 E21.29556
G1 X-36.872 Y30.334 E21.37156
G1 X-37.577 Y30.242 E21.44757
G1 X-38.234 Y29.970 E21.52357
G1 X-38.798 Y29.537 E21.59957
G1 X-39.231 Y28.973 E21.67557
G1 X-39.503 Y28.316 E21.75158
G1 X-39.603 Y27.553 E21.83378
G1 X-39.497 Y26.891 E21.90549
G1 X-39.231 Y26.249 E21.97976
G1 X-38.798 Y25.685 E22.05577
G1 X-38.234 Y25.252 E22.13177
G1 X-37.577 Y24.980 E22.20777
G1 X-36.951 Y24.897 E22.27519 F450.000
G1 X-36.889 Y25.609 F4800.000
G1 X-36.355 Y25.675 E22.33267 F450.000
G1 X-35.870 Y25.876 E22.38876
G1 X-35.455 Y26.194 E22.44467
G1 X-35.137 Y26.609 E22.50057
G1 X-34.937 Y27.092 E22.55648
G1 X-34.868 Y27.611 E22.61238
G1 X-34.937 Y28.129 E22.66828
G1 X-35.137 Y28.612 E22.72418
G1 X-35.455 Y29.027 E22.78009
G1 X-35.870 Y29.346 E22.83599
G1 X-36.353 Y29.546 E22.89189
G1 X-36.872 Y29.614 E22.94780
G1 X-37.390 Y29.546 E23.00370
G1 X-37.874 Y29.346 E23.05961
G1 X-38.288 Y29.027 E23.11551
G1 X-38.607 Y28.612 E23.17141
G1 X-38.807 Y28.129 E23.22732
G1 X-38.881 Y27.564 E23.28830
G1 X-38.805 Y27.087 E23.33992
G1 X-38.607 Y26.609 E23.39520
G1 X-38.288 Y26.194 E23.45110
G1 X-37.874 Y25.876 E23.50701
G1 X-37.390 Y25.676 E23.56291
G1 X-36.948 Y25.617 E23.61058 F450.000
G1 X-36.676 Y25.271 F4800.000
G1 E21.61058 F2400.00000
G92 E0
G1 X-36.889 Y33.672 F4800.000
G1 E2.00000 F2400.00000
G1 X-53.397 Y33.672 E3.76460 F1200.000
G1 X-53.757 Y33.631 E3.80332
G1 X-54.003 Y33.545 E3.83114
G1 X-54.223 Y33.407 E3.85892
G1 X-54.407 Y33.223 E3.88671
G1 X-54.545 Y33.003 E3.91452
G1 X-54.628 Y32.766 E3.94132
G1 X-54.672 Y32.394 E3.98140
G1 X-54.672 Y-32.397 E10.90685
G1 X-54.631 Y-32.757 E10.94557
G1 X-54.545 Y-33.003 E10.97339
G1 X-54.407 Y-33.223 E11.00117
G1 X-54.223 Y-33.407 E11.02896
G1 X-54.003 Y-33.545 E11.05678
G1 X-53.766 Y-33.628 E11.08357
G1 X-53.394 Y-33.672 E11.12365
G1 X53.409 Y-33.671 E22.53964
G1 X53.757 Y-33.631 E22.57712 F1200.000
G1 X54.003 Y-33.545 E22.60496
G1 X54.223 Y-33.407 E22.63274
G1 X54.407 Y-33.223 E22.66053
G1 X54.545 Y-33.003 E22.68835
G1 X54.628 Y-32.766 E22.71514
G1 X54.672 Y-32.394 E22.75522
G1 X54.672 Y32.397 E29.68068
G1 X54.631 Y32.757 E29.71940
G1 X54.545 Y33.003 E29.74721
G1 X54.407 Y33.223 E29.77500
G1 X54.223 Y33.407 E29.80278
G1 X54.003 Y33.545 E29.83060
G1 X53.766 Y33.628 E29.85740
G1 X53.394 Y33.672 E29.89747
G1 X-36.829 Y33.672 E39.54124
G1 X-36.889 Y34.386 F4800.000
G1 X-53.438 Y34.386 E41.31012 F1200.000
G1 X-53.917 Y34.332 E41.36171
G1 X-54.315 Y34.193 E41.40673
G1 X-54.671 Y33.969 E41.45173
G1 X-54.969 Y33.671 E41.49673
G1 X-55.193 Y33.315 E41.54175
G1 X-55.328 Y32.927 E41.58559
G1 X-55.386 Y32.435 E41.63856
G1 X-55.386 Y-32.438 E48.57273
G1 X-55.332 Y-32.917 E48.62432
G1 X-55.193 Y-33.315 E48.66934
G1 X-54.969 Y-33.671 E48.71434
G1 X-54.671 Y-33.969 E48.75934
G1 X-54.315 Y-34.193 E48.80436
G1 X-53.927 Y-34.328 E48.84820
G1 X-53.435 Y-34.386 E48.90117
G1 X53.449 Y-34.385 E60.32588
G1 X53.917 Y-34.332 E60.37624 F1200.000
G1 X54.315 Y-34.193 E60.42127
G1 X54.671 Y-33.969 E60.46627
G1 X54.969 Y-33.671 E60.51127
G1 X55.193 Y-33.315 E60.55629
G1 X55.328 Y-32.927 E60.60013
G1 X55.386 Y-32.435 E60.65309
G1 X55.386 Y32.438 E67.58726
G1 X55.332 Y32.917 E67.63886
G1 X55.193 Y33.315 E67.68388
G1 X54.969 Y33.671 E67.72888
G1 X54.671 Y33.969 E67.77388
G1 X54.315 Y34.193 E67.81890
G1 X53.927 Y34.328 E67.86274
G1 X53.435 Y34.386 E67.91570
G1 X-36.829 Y34.386 E77.56390
