; generated by Slic3r 1.2.9 on 2018-03-28 at 21:35:52

; external perimeters extrusion width = 0.40mm
; perimeters extrusion width = 0.67mm
; infill extrusion width = 0.67mm
; solid infill extrusion width = 0.67mm
; top infill extrusion width = 0.67mm

M107
M190 S65 ; set bed temperature
M104 S190 ; set temperature
G28 ; home all axes
G1 Z5 F5000 ; lift nozzle

M109 S190 ; wait for temperature to be reached
G21 ; set units to millimeters
G90 ; use absolute coordinates
M82 ; use absolute distances for extrusion
G92 E0
G1 Z0.400 F4800.000
G1 E-2.00000 F2400.00000
G92 E0
G1 X-57.398 Y1.751 F4800.000
G1 E2.00000 F2400.00000
G1 X-57.427 Y0.076 E2.17914 F1080.000
G1 X-57.416 Y-1.092 E2.30396
G1 X-57.382 Y-2.259 E2.42877
G1 X-57.315 Y-3.576 E2.56973
G1 X-57.138 Y-5.753 E2.80321
G1 X-57.009 Y-6.914 E2.92803
G1 X-56.857 Y-8.072 E3.05284
G1 X-56.656 Y-9.375 E3.19379
G1 X-56.452 Y-10.534 E3.31961
G1 X-56.013 Y-12.665 E3.55209
G1 X-55.707 Y-13.947 E3.69305
G1 X-55.412 Y-15.077 E3.81787
G1 X-55.079 Y-16.249 E3.94811
G1 X-54.438 Y-18.284 E4.17615
G1 X-54.004 Y-19.529 E4.31710
G1 X-53.596 Y-20.624 E4.44193
G1 X-53.146 Y-21.756 E4.57217
G1 X-52.301 Y-23.715 E4.80023
G1 X-51.294 Y-25.822 E5.04985
G1 X-50.758 Y-26.860 E5.17466
G1 X-50.128 Y-28.018 E5.31561
G1 X-49.026 Y-29.904 E5.54910
G1 X-48.408 Y-30.895 E5.67391
G1 X-47.686 Y-31.998 E5.81486
G1 X-47.026 Y-32.961 E5.93967
G1 X-46.346 Y-33.911 E6.06450
G1 X-45.023 Y-35.649 E6.29798
G1 X-44.192 Y-36.673 E6.43893
G1 X-43.437 Y-37.564 E6.56375
G1 X-42.630 Y-38.477 E6.69398
G1 X-41.172 Y-40.034 E6.92205
G1 X-40.349 Y-40.863 E7.04686
G1 X-39.400 Y-41.779 E7.18782
G1 X-38.505 Y-42.605 E7.31806
G1 X-36.896 Y-44.006 E7.54611
G1 X-35.876 Y-44.842 E7.68705
G1 X-34.957 Y-45.562 E7.81188
G1 X-34.023 Y-46.264 E7.93670
G1 X-32.239 Y-47.524 E8.17018
G1 X-31.266 Y-48.170 E8.29500
G1 X-30.152 Y-48.875 E8.43596
G1 X-28.271 Y-49.986 E8.66943
G1 X-27.249 Y-50.551 E8.79425
G1 X-26.216 Y-51.094 E8.91907
G1 X-25.036 Y-51.683 E9.06002
G1 X-23.933 Y-52.202 E9.19027
G1 X-21.978 Y-53.056 E9.41832
G1 X-20.894 Y-53.491 E9.54313
G1 X-19.661 Y-53.957 E9.68409
G1 X-18.560 Y-54.346 E9.80891
G1 X-16.479 Y-55.012 E10.04238
G1 X-15.357 Y-55.336 E10.16720
G1 X-14.083 Y-55.674 E10.30816
G1 X-12.898 Y-55.960 E10.43841
G1 X-10.811 Y-56.401 E10.66645
G1 X-9.662 Y-56.609 E10.79127
G1 X-8.359 Y-56.816 E10.93223
G1 X-6.193 Y-57.093 E11.16570
G1 X-5.031 Y-57.207 E11.29052
G1 X-3.716 Y-57.308 E11.43146
G1 X-2.550 Y-57.371 E11.55629
G1 X-1.383 Y-57.411 E11.68110
G1 X-0.164 Y-57.427 E11.81135
G1 X2.120 Y-57.389 E12.05553 F1080.000
G1 X4.451 Y-57.255 E12.30515
G1 X6.775 Y-57.027 E12.55477
G1 X8.939 Y-56.728 E12.78826
G1 X10.289 Y-56.498 E12.93465
G1 X12.528 Y-56.045 E13.17883
G1 X14.651 Y-55.528 E13.41231
G1 X16.896 Y-54.887 E13.66193
G1 X19.114 Y-54.154 E13.91155
G1 X21.300 Y-53.332 E14.16116
G1 X22.519 Y-52.829 E14.30213
G1 X24.648 Y-51.870 E14.55174
G1 X26.603 Y-50.895 E14.78522
G1 X28.650 Y-49.772 E15.03484
G1 X29.828 Y-49.074 E15.18122
G1 X31.757 Y-47.849 E15.42542
G1 X33.553 Y-46.607 E15.65889
G1 X35.421 Y-45.204 E15.90851
G1 X37.229 Y-43.727 E16.15814
G1 X38.261 Y-42.827 E16.30453
G1 X39.934 Y-41.271 E16.54870
G1 X41.579 Y-39.614 E16.79833
G1 X43.056 Y-38.004 E17.03180
G1 X44.565 Y-36.222 E17.28142
G1 X45.416 Y-35.149 E17.42781
G1 X46.778 Y-33.315 E17.67200
G1 X48.011 Y-31.512 E17.90547
G1 X49.253 Y-29.534 E18.15509
G1 X50.413 Y-27.507 E18.40470
G1 X51.031 Y-26.342 E18.54567
G1 X52.060 Y-24.246 E18.79529
G1 X52.944 Y-22.248 E19.02877
G1 X53.805 Y-20.078 E19.27838
G1 X54.577 Y-17.874 E19.52800
G1 X54.973 Y-16.616 E19.66896
G1 X55.603 Y-14.367 E19.91857
G1 X56.109 Y-12.242 E20.15206
G1 X56.561 Y-9.951 E20.40168
G1 X56.774 Y-8.649 E20.54264
G1 X57.079 Y-6.334 E20.79226
G1 X57.278 Y-4.159 E21.02573
G1 X57.400 Y-1.827 E21.27535
G1 X57.427 Y0.508 E21.52497
G1 X57.400 Y1.827 E21.66593
G1 X57.278 Y4.159 E21.91555
G1 X57.079 Y6.334 E22.14902
G1 X56.774 Y8.649 E22.39864
G1 X56.376 Y10.950 E22.64826
G1 X55.884 Y13.233 E22.89788
G1 X55.565 Y14.513 E23.03883
G1 X54.973 Y16.616 E23.27231
G1 X54.252 Y18.837 E23.52193
G1 X53.441 Y21.027 E23.77155
G1 X52.944 Y22.248 E23.91251
G1 X52.060 Y24.246 E24.14599
G1 X51.031 Y26.342 E24.39560
G1 X50.413 Y27.507 E24.53657
G1 X49.253 Y29.534 E24.78618
G1 X48.011 Y31.512 E25.03580
G1 X46.778 Y33.315 E25.26928
G1 X45.385 Y35.189 E25.51890
G1 X43.917 Y37.005 E25.76851
G1 X42.376 Y38.760 E26.01813
G1 X41.475 Y39.723 E26.15909
G1 X39.934 Y41.271 E26.39257
G1 X38.223 Y42.861 E26.64218
G1 X36.449 Y44.379 E26.89181
G1 X34.615 Y45.824 E27.14142
G1 X32.723 Y47.194 E27.39104
G1 X31.631 Y47.933 E27.53200
G1 X29.656 Y49.179 E27.78161
G1 X27.764 Y50.271 E28.01510
G1 X25.697 Y51.358 E28.26471
G1 X24.511 Y51.935 E28.40568
G1 X22.519 Y52.829 E28.63915
G1 X20.352 Y53.701 E28.88878
G1 X18.152 Y54.484 E29.13838
G1 X15.922 Y55.177 E29.38801
G1 X14.651 Y55.528 E29.52897
G1 X12.381 Y56.078 E29.77859
G1 X10.240 Y56.508 E30.01206
G1 X7.934 Y56.878 E30.26168
G1 X6.625 Y57.045 E30.40265
G1 X4.301 Y57.267 E30.65226
G1 X1.969 Y57.394 E30.90186
G1 X-0.215 Y57.428 E31.13535
G1 X-2.550 Y57.371 E31.38497
G1 X-3.866 Y57.298 E31.52594
G1 X-6.043 Y57.109 E31.75941
G1 X-8.359 Y56.816 E32.00902
G1 X-9.662 Y56.609 E32.14999
G1 X-11.955 Y56.169 E32.39961
G1 X-14.229 Y55.637 E32.64922
G1 X-16.335 Y55.056 E32.88270
G1 X-18.560 Y54.346 E33.13233
G1 X-20.754 Y53.546 E33.38194
G1 X-21.978 Y53.056 E33.52290
G1 X-24.117 Y52.118 E33.77251
G1 X-26.081 Y51.163 E34.00599
G1 X-28.140 Y50.060 E34.25561
G1 X-30.152 Y48.875 E34.50523
G1 X-32.114 Y47.609 E34.75485
G1 X-34.023 Y46.264 E35.00446
G1 X-35.076 Y45.470 E35.14543
G1 X-36.780 Y44.103 E35.37890
G1 X-38.543 Y42.571 E35.62852
G1 X-40.242 Y40.969 E35.87814
G1 X-41.874 Y39.299 E36.12775
G1 X-43.437 Y37.564 E36.37737
G1 X-44.288 Y36.557 E36.51832
G1 X-45.738 Y34.726 E36.76794
G1 X-47.026 Y32.961 E37.00143
G1 X-48.327 Y31.022 E37.25104
G1 X-49.026 Y29.904 E37.39201
G1 X-50.128 Y28.018 E37.62549
G1 X-51.226 Y25.957 E37.87511
G1 X-52.239 Y23.853 E38.12472
G1 X-53.165 Y21.709 E38.37434
G1 X-53.650 Y20.483 E38.51531
G1 X-54.438 Y18.284 E38.76492
G1 X-55.137 Y16.056 E39.01454
G1 X-55.707 Y13.947 E39.24801
G1 X-56.024 Y12.615 E39.39440
G1 X-56.481 Y10.377 E39.63859
G1 X-56.835 Y8.221 E39.87207
G1 X-57.122 Y5.904 E40.12168
G1 X-57.315 Y3.576 E40.37130
G1 X-57.396 Y1.811 E40.56018
G1 X-56.684 Y1.729 F4800.000
G1 X-56.713 Y0.068 E40.73777 F1080.000
G1 X-56.702 Y-1.085 E40.86104
G1 X-56.668 Y-2.238 E40.98430
G1 X-56.603 Y-3.526 E41.12215
G1 X-56.427 Y-5.688 E41.35408
G1 X-56.299 Y-6.834 E41.47735
G1 X-56.149 Y-7.978 E41.60060
G1 X-55.953 Y-9.252 E41.73846
G1 X-55.751 Y-10.397 E41.86272
G1 X-55.315 Y-12.513 E42.09365
G1 X-55.049 Y-13.635 E42.21691
G1 X-54.725 Y-14.884 E42.35477
G1 X-54.396 Y-16.042 E42.48346
G1 X-53.759 Y-18.063 E42.70995
G1 X-53.335 Y-19.281 E42.84780
G1 X-52.932 Y-20.361 E42.97107
G1 X-52.487 Y-21.480 E43.09976
G1 X-51.648 Y-23.426 E43.32626
G1 X-50.653 Y-25.507 E43.57278
G1 X-50.124 Y-26.531 E43.69604
G1 X-49.508 Y-27.664 E43.83389
G1 X-48.413 Y-29.538 E44.06582
G1 X-47.803 Y-30.516 E44.18909
G1 X-47.172 Y-31.482 E44.31235
G1 X-46.444 Y-32.546 E44.45018
G1 X-45.773 Y-33.484 E44.57347
G1 X-44.459 Y-35.210 E44.80539
G1 X-43.647 Y-36.212 E44.94323
G1 X-42.901 Y-37.092 E45.06650
G1 X-42.104 Y-37.994 E45.19519
G1 X-40.655 Y-39.541 E45.42170
G1 X-39.746 Y-40.455 E45.55954
G1 X-38.915 Y-41.255 E45.68281
G1 X-38.030 Y-42.071 E45.81150
G1 X-36.432 Y-43.463 E46.03800
G1 X-35.435 Y-44.280 E46.17584
G1 X-34.527 Y-44.992 E46.29911
G1 X-33.605 Y-45.685 E46.42238
G1 X-31.833 Y-46.937 E46.65431
G1 X-30.872 Y-47.574 E46.77758
G1 X-29.782 Y-48.264 E46.91543
G1 X-27.914 Y-49.368 E47.14735
G1 X-26.905 Y-49.925 E47.27062
G1 X-25.763 Y-50.524 E47.40846
G1 X-24.730 Y-51.038 E47.53173
G1 X-23.641 Y-51.551 E47.66043
G1 X-21.699 Y-52.398 E47.88692
G1 X-20.629 Y-52.829 E48.01019
G1 X-19.422 Y-53.284 E48.14804
G1 X-18.335 Y-53.668 E48.27131
G1 X-16.268 Y-54.330 E48.50323
G1 X-15.160 Y-54.650 E48.62650
G1 X-13.914 Y-54.980 E48.76435
G1 X-12.793 Y-55.252 E48.88761
G1 X-10.670 Y-55.701 E49.11954
G1 X-9.401 Y-55.929 E49.25739
G1 X-8.262 Y-56.109 E49.38066
G1 X-6.109 Y-56.384 E49.61258
G1 X-4.962 Y-56.496 E49.73585
G1 X-3.676 Y-56.595 E49.87369
G1 X-2.524 Y-56.658 E49.99696
G1 X-0.168 Y-56.713 E50.24890
G1 X2.087 Y-56.675 E50.48998 F1080.000
G1 X4.390 Y-56.544 E50.73650
G1 X6.685 Y-56.319 E50.98301
G1 X8.834 Y-56.022 E51.21495
G1 X10.106 Y-55.806 E51.35279
G1 X12.366 Y-55.349 E51.59931
G1 X14.475 Y-54.836 E51.83124
G1 X16.692 Y-54.202 E52.07775
G1 X17.920 Y-53.809 E52.21561
G1 X20.093 Y-53.036 E52.46212
G1 X22.233 Y-52.175 E52.70864
G1 X24.212 Y-51.286 E52.94056
G1 X26.277 Y-50.260 E53.18707
G1 X27.458 Y-49.624 E53.33036
G1 X29.409 Y-48.494 E53.57143
G1 X31.357 Y-47.258 E53.81796
G1 X33.141 Y-46.024 E54.04988
G1 X34.985 Y-44.638 E54.29640
G1 X36.030 Y-43.799 E54.43968
G1 X37.743 Y-42.332 E54.68076
G1 X39.433 Y-40.763 E54.92727
G1 X41.058 Y-39.126 E55.17380
G1 X42.525 Y-37.526 E55.40572
G1 X44.015 Y-35.767 E55.65223
G1 X44.817 Y-34.757 E55.79009
G1 X46.193 Y-32.906 E56.03660
G1 X47.418 Y-31.115 E56.26853
G1 X48.644 Y-29.161 E56.51504
G1 X49.789 Y-27.160 E56.76155
G1 X50.394 Y-26.020 E56.89941
G1 X51.410 Y-23.950 E57.14593
G1 X52.289 Y-21.966 E57.37786
G1 X53.138 Y-19.822 E57.62437
G1 X53.575 Y-18.609 E57.76222
G1 X54.248 Y-16.546 E57.99414
G1 X54.876 Y-14.327 E58.24066
G1 X55.187 Y-13.075 E58.37852
G1 X55.673 Y-10.821 E58.62503
G1 X56.067 Y-8.548 E58.87154
G1 X56.368 Y-6.262 E59.11806
G1 X56.567 Y-4.101 E59.34998
G1 X56.687 Y-1.798 E59.59650
G1 X56.713 Y0.508 E59.84301
G1 X56.687 Y1.798 E59.98087
G1 X56.567 Y4.101 E60.22738
G1 X56.353 Y6.397 E60.47390
G1 X56.067 Y8.548 E60.70582
G1 X55.673 Y10.821 E60.95233
G1 X55.187 Y13.075 E61.19885
G1 X54.876 Y14.326 E61.33670
G1 X54.288 Y16.415 E61.56863
G1 X53.575 Y18.609 E61.81514
G1 X52.775 Y20.771 E62.06166
G1 X52.289 Y21.966 E62.19951
G1 X51.410 Y23.950 E62.43144
G1 X50.394 Y26.020 E62.67795
G1 X49.789 Y27.160 E62.81581
G1 X48.644 Y29.161 E63.06232
G1 X47.493 Y31.000 E63.29424
G1 X46.193 Y32.906 E63.54076
G1 X44.817 Y34.756 E63.78727
G1 X43.367 Y36.550 E64.03379
G1 X41.845 Y38.283 E64.28030
G1 X40.964 Y39.224 E64.41816
G1 X39.433 Y40.762 E64.65008
G1 X37.743 Y42.332 E64.89659
G1 X35.991 Y43.831 E65.14311
G1 X34.985 Y44.638 E65.28097
G1 X33.252 Y45.944 E65.51290
G1 X31.357 Y47.258 E65.75941
G1 X30.274 Y47.959 E65.89727
G1 X28.299 Y49.150 E66.14378
G1 X26.398 Y50.196 E66.37570
G1 X24.336 Y51.228 E66.62221
G1 X22.233 Y52.175 E66.86873
G1 X21.041 Y52.667 E67.00659
G1 X18.882 Y53.479 E67.25309
G1 X16.692 Y54.202 E67.49961
G1 X14.607 Y54.801 E67.73154
G1 X12.367 Y55.349 E67.97805
G1 X10.106 Y55.806 E68.22457
G1 X8.834 Y56.022 E68.36242
G1 X6.685 Y56.319 E68.59434
G1 X4.390 Y56.544 E68.84086
G1 X3.103 Y56.629 E68.97872
G1 X0.798 Y56.708 E69.22523
G1 X-1.508 Y56.694 E69.47172
G1 X-3.812 Y56.586 E69.71826
G1 X-6.109 Y56.384 E69.96478
G1 X-8.262 Y56.109 E70.19669
G1 X-9.536 Y55.906 E70.33456
G1 X-11.801 Y55.472 E70.58107
G1 X-13.914 Y54.980 E70.81299
G1 X-16.138 Y54.369 E71.05951
G1 X-18.335 Y53.668 E71.30603
G1 X-20.502 Y52.878 E71.55254
G1 X-21.699 Y52.398 E71.69039
G1 X-23.811 Y51.473 E71.93690
G1 X-25.763 Y50.524 E72.16883
G1 X-27.795 Y49.435 E72.41535
G1 X-29.782 Y48.264 E72.66186
G1 X-31.720 Y47.013 E72.90837
G1 X-33.605 Y45.685 E73.15488
G1 X-34.635 Y44.909 E73.29274
G1 X-36.432 Y43.463 E73.53926
G1 X-38.169 Y41.946 E73.78577
G1 X-39.746 Y40.455 E74.01769
G1 X-41.358 Y38.806 E74.26421
G1 X-42.901 Y37.092 E74.51072
G1 X-43.734 Y36.107 E74.64857
G1 X-45.165 Y34.299 E74.89508
G1 X-46.444 Y32.546 E75.12702
G1 X-47.729 Y30.631 E75.37353
G1 X-48.413 Y29.538 E75.51139
G1 X-49.574 Y27.545 E75.75790
G1 X-50.592 Y25.628 E75.98983
G1 X-51.592 Y23.550 E76.23634
G1 X-52.134 Y22.324 E76.37963
G1 X-52.980 Y20.234 E76.62072
G1 X-53.759 Y18.063 E76.86722
G1 X-54.449 Y15.862 E77.11374
G1 X-55.016 Y13.768 E77.34567
G1 X-55.326 Y12.464 E77.48894
G1 X-55.778 Y10.254 E77.73003
G1 X-56.149 Y7.978 E77.97654
G1 X-56.413 Y5.824 E78.20847
G1 X-56.603 Y3.526 E78.45499
G1 X-56.682 Y1.789 E78.64076
G1 E76.64076 F2400.00000
G92 E0
G1 X-43.841 Y-19.959 F4800.000
G1 E2.00000 F2400.00000
G1 X-43.434 Y-20.829 E2.10274 F720.000
G1 X-42.543 Y-22.594 E2.31401
G1 X-42.059 Y-23.482 E2.42213
G1 X-41.091 Y-25.138 E2.62717
G1 X-40.035 Y-26.788 E2.83658
G1 X-38.912 Y-28.394 E3.04596
G1 X-37.720 Y-29.960 E3.25634
G1 X-37.116 Y-30.706 E3.35897
G1 X-35.796 Y-32.233 E3.57476
G1 X-34.485 Y-33.633 E3.77977
G1 X-33.807 Y-34.315 E3.88251
G1 X-32.377 Y-35.667 E4.09288
G1 X-30.901 Y-36.953 E4.30219
G1 X-29.332 Y-38.210 E4.51698
G1 X-27.788 Y-39.348 E4.72200
G1 X-26.998 Y-39.894 E4.82474
G1 X-25.345 Y-40.964 E5.03511
G1 X-23.651 Y-41.965 E5.24549
G1 X-22.810 Y-42.428 E5.34813
G1 X-21.012 Y-43.346 E5.56391
G1 X-19.270 Y-44.149 E5.76893
G1 X-18.385 Y-44.525 E5.87166
G1 X-16.542 Y-45.242 E6.08303
G1 X-15.637 Y-45.563 E6.18574
G1 X-13.762 Y-46.163 E6.39612
G1 X-11.865 Y-46.687 E6.60650
G1 X-10.931 Y-46.914 E6.70921
G1 X-9.006 Y-47.322 E6.91958
G1 X-7.074 Y-47.649 E7.12897
G1 X-5.122 Y-47.898 E7.33934
G1 X-4.166 Y-47.991 E7.44205
G1 X-2.203 Y-48.121 E7.65236
G1 X-0.194 Y-48.170 E7.86715
G1 X1.724 Y-48.141 E8.07216
G1 X2.684 Y-48.097 E8.17490 F720.000
G1 X4.647 Y-47.947 E8.38527
G1 X6.592 Y-47.718 E8.59466
G1 X8.536 Y-47.409 E8.80503
G1 X9.479 Y-47.230 E8.90767
G1 X11.450 Y-46.791 E9.12345
G1 X13.304 Y-46.298 E9.32847
G1 X14.225 Y-46.024 E9.43121
G1 X16.093 Y-45.404 E9.64158
G1 X17.934 Y-44.709 E9.85196
G1 X18.822 Y-44.343 E9.95467
G1 X20.618 Y-43.537 E10.16505
G1 X22.370 Y-42.663 E10.37436
G1 X24.130 Y-41.692 E10.58915
G1 X25.771 Y-40.699 E10.79416
G1 X27.389 Y-39.628 E11.00158
G1 X28.985 Y-38.476 E11.21196
G1 X30.525 Y-37.266 E11.42127
G1 X32.052 Y-35.961 E11.63606
G1 X33.459 Y-34.657 E11.84108
G1 X34.144 Y-33.982 E11.94381
G1 X35.503 Y-32.559 E12.15419
G1 X36.804 Y-31.082 E12.36457
G1 X38.025 Y-29.575 E12.57196
G1 X39.202 Y-27.996 E12.78234
G1 X40.308 Y-26.380 E12.99172
G1 X41.347 Y-24.719 E13.20111
G1 X42.322 Y-23.010 E13.41148
G1 X43.214 Y-21.287 E13.61888
G1 X44.048 Y-19.504 E13.82926
G1 X44.804 Y-17.697 E14.03864
G1 X45.487 Y-15.860 E14.24802
G1 X46.097 Y-13.989 E14.45840
G1 X46.367 Y-13.067 E14.56111
G1 X46.862 Y-11.162 E14.77149
G1 X47.277 Y-9.248 E14.98087
G1 X47.614 Y-7.318 E15.19025
G1 X47.873 Y-5.367 E15.40063
G1 X47.970 Y-4.411 E15.50334
G1 X48.110 Y-2.448 E15.71372
G1 X48.170 Y-0.480 E15.92409
G1 X48.151 Y1.460 E16.13149
G1 X48.051 Y3.425 E16.34187
G1 X47.872 Y5.376 E16.55125
G1 X47.614 Y7.318 E16.76063
G1 X47.275 Y9.257 E16.97101
G1 X46.864 Y11.153 E17.17841
G1 X46.369 Y13.058 E17.38878
G1 X45.800 Y14.932 E17.59817
G1 X45.152 Y16.791 E17.80854
G1 X44.808 Y17.688 E17.91125
G1 X44.048 Y19.504 E18.12163
G1 X43.218 Y21.278 E18.33101
G1 X42.318 Y23.018 E18.54040
G1 X41.342 Y24.727 E18.75077
G1 X40.841 Y25.547 E18.85348
G1 X39.763 Y27.194 E19.06386
G1 X38.619 Y28.795 E19.27424
G1 X38.037 Y29.560 E19.37695
G1 X36.798 Y31.089 E19.58733
G1 X35.497 Y32.566 E19.79770
G1 X34.840 Y33.268 E19.90041
G1 X33.452 Y34.663 E20.11079
G1 X32.015 Y35.994 E20.32017
G1 X30.525 Y37.266 E20.52956
G1 X28.985 Y38.476 E20.73894
G1 X27.389 Y39.628 E20.94932
G1 X25.771 Y40.699 E21.15671
G1 X24.087 Y41.718 E21.36709
G1 X22.371 Y42.662 E21.57647
G1 X20.618 Y43.537 E21.78586
G1 X18.822 Y44.343 E21.99623
G1 X17.021 Y45.065 E22.20363
G1 X15.166 Y45.722 E22.41401
G1 X13.286 Y46.303 E22.62438
G1 X12.360 Y46.559 E22.72709
G1 X10.447 Y47.025 E22.93747
G1 X8.518 Y47.413 E23.14785
G1 X7.570 Y47.573 E23.25056
G1 X5.621 Y47.842 E23.46093
G1 X3.671 Y48.031 E23.67032
G1 X1.715 Y48.141 E23.87970
G1 X-0.244 Y48.171 E24.08908
G1 X-2.211 Y48.121 E24.29946
G1 X-3.171 Y48.067 E24.40217
G1 X-5.131 Y47.897 E24.61255
G1 X-7.084 Y47.648 E24.82292
G1 X-8.033 Y47.497 E24.92563
G1 X-9.966 Y47.129 E25.13594
G1 X-11.922 Y46.672 E25.35073
G1 X-13.771 Y46.161 E25.55574
G1 X-14.689 Y45.877 E25.65848
G1 X-16.551 Y45.238 E25.86886
G1 X-18.384 Y44.525 E26.07914
G1 X-19.315 Y44.129 E26.18725
G1 X-21.057 Y43.325 E26.39229
G1 X-22.809 Y42.428 E26.60269
