;FLAVOR:Marlin
;TIME:5934
;Filament used: 3.48667m
;Layer height: 0.2
;MINX:-16.95
;MINY:-21.45
;MINZ:0.3
;MAXX:16.95
;MAXY:21.45
;MAXZ:38.9
;Generated with Cura_SteamEngine 4.13.1
M140 S65
M105
M190 S65
M104 S200
M105
M109 S200
M82 ;absolute extrusion mode
M190 S65 ; set bed temperature
M104 S190 ; set temperature
G28 ; home all axes
G1 Z100 F9000
M109 S190 ; wait for temperature to be reached
G21 ; set units to millimeters
G90 ; use absolute coordinates
M82 ; use absolute distances for extrusion
G92 E0

G1 Z0.300 F4800.000
G1 X0.000 Y70.000 F4800.000
G1 X40.000 Y50.000 E10.000 F1080.000

G1 Z5 F5000 ; lift nozzle
G1 X0 Y0
G28
G92 E0
G92 E0
G1 F750 E-6.5
;LAYER_COUNT:194
;LAYER:0
M107
G0 F3600 X-.644 Y-.332 Z0.3
;TYPE:SKIRT
G1 F750 E0
G1 F900 X-.626 Y0.529 E0.05156
G1 X-.465 Y1.382 E0.10353
G1 X-.17 Y2.18 E0.15446
G1 X0.265 Y2.937 E0.20673
G1 X0.81 Y3.599 E0.25807
G1 X1.46 Y4.163 E0.30959
G1 X2.197 Y4.611 E0.36122
G1 X3 Y4.931 E0.41297
G1 X3.81 Y5.105 E0.46257
G1 X15.463 Y5.105 E1.16022
G1 X15.77 Y5.145 E1.17875
G1 X16.056 Y5.262 E1.19725
G1 X16.599 Y5.743 E1.24068
G1 X16.787 Y5.988 E1.25917
G1 X16.907 Y6.273 E1.27768
G1 X16.95 Y6.592 E1.29695
G1 X16.95 Y19.963 E2.09745
G1 X16.91 Y20.27 E2.11599
G1 X16.793 Y20.556 E2.13449
G1 X16.312 Y21.099 E2.17792
G1 X16.067 Y21.287 E2.1964
G1 X15.782 Y21.407 E2.21492
G1 X15.463 Y21.45 E2.23419
G1 X-15.463 Y21.45 E4.08567
G1 X-15.77 Y21.41 E4.10421
G1 X-16.056 Y21.293 E4.12271
G1 X-16.599 Y20.812 E4.16614
G1 X-16.787 Y20.567 E4.18463
G1 X-16.907 Y20.282 E4.20314
G1 X-16.95 Y19.963 E4.22241
G1 X-16.95 Y-19.963 E6.61271
G1 X-16.91 Y-20.27 E6.63124
G1 X-16.793 Y-20.556 E6.64974
G1 X-16.312 Y-21.099 E6.69317
G1 X-16.067 Y-21.287 E6.71166
G1 X-15.782 Y-21.407 E6.73017
G1 X-15.463 Y-21.45 E6.74944
G1 X15.463 Y-21.45 E8.60093
G1 X15.77 Y-21.41 E8.61946
G1 X16.056 Y-21.293 E8.63796
G1 X16.599 Y-20.812 E8.68139
G1 X16.787 Y-20.567 E8.69988
G1 X16.907 Y-20.282 E8.71839
G1 X16.95 Y-19.963 E8.73767
G1 X16.95 Y-6.647 E9.53487
G1 X16.91 Y-6.34 E9.55341
G1 X16.793 Y-6.054 E9.57191
G1 X16.312 Y-5.511 E9.61533
G1 X16.067 Y-5.323 E9.63382
G1 X15.782 Y-5.203 E9.65234
G1 X15.463 Y-5.16 E9.67161
G1 X4.562 Y-5.16 E10.32423
G1 X3.639 Y-5.082 E10.37969
G1 X2.807 Y-4.869 E10.4311
G1 X2.016 Y-4.518 E10.48291
G1 X1.303 Y-4.044 E10.53417
G1 X0.672 Y-3.451 E10.58601
G1 X0.149 Y-2.765 E10.63765
G1 X-.25 Y-2.004 E10.6891
G1 X-.517 Y-1.18 E10.74095
G1 X-.644 Y-.332 E10.79229
G0 F3600 X-1.125 Y-.364
G1 F900 X-1.105 Y0.581 E10.84888
G1 X-.929 Y1.512 E10.9056
G1 X-.607 Y2.385 E10.96131
G1 X-.133 Y3.209 E11.01822
G1 X0.464 Y3.933 E11.0744
G1 X1.177 Y4.553 E11.13097
G1 X1.982 Y5.042 E11.18735
G1 X2.857 Y5.391 E11.24375
G1 X3.761 Y5.585 E11.29911
G1 X15.463 Y5.585 E11.99968
G1 X15.699 Y5.625 E12.01401
G1 X15.972 Y5.796 E12.0333
G1 X16.398 Y6.278 E12.07181
G1 X16.47 Y6.592 E12.0911
G1 X16.47 Y19.963 E12.8916
G1 X16.43 Y20.199 E12.90593
G1 X16.259 Y20.472 E12.92521
G1 X15.777 Y20.898 E12.96372
G1 X15.463 Y20.97 E12.98301
G1 X-15.463 Y20.97 E14.83449
G1 X-15.699 Y20.93 E14.84883
G1 X-15.972 Y20.759 E14.86811
G1 X-16.398 Y20.277 E14.90662
G1 X-16.47 Y19.963 E14.92591
G1 X-16.47 Y-19.963 E17.31621
G1 X-16.43 Y-20.199 E17.33054
G1 X-16.259 Y-20.472 E17.34982
G1 X-15.777 Y-20.898 E17.38834
G1 X-15.463 Y-20.97 E17.40762
G1 X15.463 Y-20.97 E19.25911
G1 X15.699 Y-20.93 E19.27344
G1 X15.972 Y-20.759 E19.29272
G1 X16.398 Y-20.277 E19.33124
G1 X16.47 Y-19.963 E19.35052
G1 X16.47 Y-6.647 E20.14773
G1 X16.43 Y-6.411 E20.16206
G1 X16.259 Y-6.138 E20.18134
G1 X15.777 Y-5.712 E20.21986
G1 X15.463 Y-5.64 E20.23914
G1 X4.533 Y-5.64 E20.8935
G1 X3.563 Y-5.558 E20.95178
G1 X2.647 Y-5.323 E21.0084
G1 X1.792 Y-4.943 E21.06441
G1 X1.001 Y-4.418 E21.12125
G1 X0.312 Y-3.771 E21.17783
G1 X-.257 Y-3.025 E21.234
G1 X-.695 Y-2.189 E21.29051
G1 X-.986 Y-1.291 E21.34702
G1 X-1.125 Y-.364 E21.40314
G0 F3600 X-1.606 Y-.396
G1 F900 X-1.584 Y0.626 E21.46434
G1 X-1.392 Y1.642 E21.52624
G1 X-1.043 Y2.589 E21.58666
G1 X-.53 Y3.482 E21.64832
G1 X0.123 Y4.274 E21.70977
G1 X0.889 Y4.939 E21.7705
G1 X1.768 Y5.473 E21.83208
G1 X2.716 Y5.851 E21.89318
G1 X3.711 Y6.065 E21.95411
G1 X15.463 Y6.065 E22.65768
G1 X15.633 Y6.135 E22.66869
G1 X15.92 Y6.422 E22.69299
G1 X15.99 Y6.592 E22.70399
G1 X15.99 Y19.963 E23.50449
G1 X15.92 Y20.133 E23.5155
G1 X15.633 Y20.42 E23.5398
G1 X15.463 Y20.49 E23.5508
G1 X-15.463 Y20.49 E25.40229
G1 X-15.633 Y20.42 E25.4133
G1 X-15.92 Y20.133 E25.4376
G1 X-15.99 Y19.963 E25.4486
G1 X-15.99 Y-19.963 E27.8389
G1 X-15.92 Y-20.133 E27.84991
G1 X-15.633 Y-20.42 E27.87421
G1 X-15.463 Y-20.49 E27.88521
G1 X15.463 Y-20.49 E29.7367
G1 X15.633 Y-20.42 E29.74771
G1 X15.92 Y-20.133 E29.77201
G1 X15.99 Y-19.963 E29.78301
G1 X15.99 Y-6.647 E30.58022
G1 X15.92 Y-6.477 E30.59122
G1 X15.633 Y-6.19 E30.61552
G1 X15.463 Y-6.12 E30.62653
G1 X4.516 Y-6.12 E31.28191
G1 X3.481 Y-6.033 E31.34409
G1 X2.486 Y-5.778 E31.40558
G1 X1.559 Y-5.366 E31.46632
G1 X0.702 Y-4.796 E31.52794
G1 X-0.045 Y-4.095 E31.58927
G1 X-.663 Y-3.285 E31.65026
G1 X-1.14 Y-2.373 E31.71188
G1 X-1.455 Y-1.402 E31.77299
G1 X-1.606 Y-.396 E31.83389
G1 F750 E25.33389
;MESH:HE Fan Duct.3mf
G0 F3600 X3.607 Y7.014
G0 X14.118 Y7.937
G0 X14.96 Y19.49
G1 F750 E31.83389
G0 F3600 X15.26 Y19.76
;TYPE:WALL-OUTER
G1 F900 X-15.26 Y19.76 E33.66107
G1 X-15.26 Y-19.76 E36.02707
G1 X15.26 Y-19.76 E37.85424
G1 X15.26 Y-6.85 E38.62714
G1 X4.49 Y-6.85 E39.27192
G1 X3.359 Y-6.754 E39.33988
G1 X2.249 Y-6.47 E39.40847
G1 X1.202 Y-6.004 E39.47708
G1 X0.248 Y-5.371 E39.54563
G1 X-.588 Y-4.587 E39.61424
G1 X-1.281 Y-3.675 E39.68282
G1 X-1.813 Y-2.66 E39.75142
G1 X-2.167 Y-1.571 E39.81998
G1 X-2.336 Y-.438 E39.88856
G1 X-2.314 Y0.707 E39.95712
G1 X-2.101 Y1.832 E40.02567
G1 X-1.703 Y2.906 E40.09424
G1 X-1.132 Y3.899 E40.16282
G1 X-.403 Y4.783 E40.23142
G1 X0.462 Y5.534 E40.3
G1 X1.44 Y6.129 E40.36853
G1 X2.505 Y6.553 E40.43716
G1 X3.63 Y6.795 E40.50605
G1 X15.26 Y6.795 E41.20232
G1 X15.26 Y19.76 E41.97851
G0 F3600 X15.06 Y19.76
G0 X14.78 Y19.28
;TYPE:WALL-INNER
G1 F900 X-14.78 Y19.28 E43.74822
G1 X-14.78 Y-19.28 E46.05674
G1 X14.78 Y-19.28 E47.82644
G1 X14.78 Y-7.33 E48.54187
G1 X4.47 Y-7.33 E49.15911
G1 X3.279 Y-7.229 E49.23067
G1 X2.091 Y-6.925 E49.30408
G1 X0.97 Y-6.426 E49.37754
G1 X-0.051 Y-5.749 E49.45089
G1 X-.946 Y-4.91 E49.52433
G1 X-1.687 Y-3.933 E49.59774
G1 X-2.257 Y-2.847 E49.67117
G1 X-2.636 Y-1.681 E49.74457
G1 X-2.817 Y-.469 E49.81794
G1 X-2.793 Y0.757 E49.89135
G1 X-2.565 Y1.961 E49.96471
G1 X-2.139 Y3.11 E50.03808
G1 X-1.528 Y4.173 E50.11148
G1 X-.748 Y5.119 E50.18488
G1 X0.178 Y5.923 E50.2583
G1 X1.225 Y6.56 E50.33167
G1 X2.365 Y7.014 E50.40514
G1 X3.579 Y7.275 E50.47948
G1 X14.78 Y7.275 E51.15006
G1 X14.78 Y19.28 E51.86878
G0 F3600 X14.3 Y18.8
G1 F900 X-14.3 Y18.8 E53.58101
G1 X-14.3 Y-18.8 E55.83206
G1 X14.3 Y-18.8 E57.54429
G1 X14.3 Y-7.81 E58.20224
G1 X4.45 Y-7.81 E58.79194
G1 X3.199 Y-7.704 E58.86711
G1 X1.933 Y-7.38 E58.94534
G1 X0.738 Y-6.848 E59.02365
G1 X-.35 Y-6.127 E59.1018
G1 X-1.304 Y-5.232 E59.18011
G1 X-2.094 Y-4.191 E59.25835
G1 X-2.701 Y-3.034 E59.33657
G1 X-3.105 Y-1.791 E59.41482
G1 X-3.298 Y-.5 E59.49297
G1 X-3.272 Y0.807 E59.57123
G1 X-3.029 Y2.09 E59.64941
G1 X-2.575 Y3.314 E59.72756
G1 X-1.924 Y4.447 E59.80579
G1 X-1.093 Y5.455 E59.884
G1 X-.106 Y6.312 E59.96226
G1 X1.01 Y6.991 E60.04047
G1 X2.225 Y7.475 E60.11877
G1 X3.528 Y7.755 E60.19856
G1 X14.3 Y7.755 E60.84346
G1 X14.3 Y18.8 E61.5047
G0 F3600 X13.83 Y18.33
;TYPE:SKIN
G1 F900 X-13.83 Y18.33 E63.16066
G1 X-13.83 Y-18.33 E65.35543
G1 X13.83 Y-18.33 E67.01138
G1 X13.83 Y-8.28 E67.61306
G1 X4.43 Y-8.28 E68.17582
G1 X3.12 Y-8.169 E68.25453
G1 X1.778 Y-7.825 E68.33747
G1 X0.511 Y-7.261 E68.4205
G1 X-.642 Y-6.497 E68.5033
G1 X-1.655 Y-5.547 E68.58645
G1 X-2.492 Y-4.444 E68.66934
G1 X-3.136 Y-3.218 E68.75225
G1 X-3.564 Y-1.899 E68.83527
G1 X-3.768 Y-.53 E68.91813
G1 X-3.742 Y0.856 E69.00113
G1 X-3.483 Y2.217 E69.08407
G1 X-3.002 Y3.514 E69.16689
G1 X-2.312 Y4.715 E69.24981
G1 X-1.43 Y5.784 E69.33278
G1 X-.384 Y6.693 E69.41574
G1 X0.799 Y7.414 E69.49869
G1 X2.088 Y7.926 E69.58172
G1 X3.479 Y8.225 E69.6669
G1 X13.83 Y8.225 E70.2866
G1 X13.83 Y18.33 E70.89156
G1 F750 E64.39156
G0 F3600 X14.19 Y18.33
G0 X-13.116 Y18.69
G1 F750 E70.89156
G0 F3600 X-13.116 Y18.109
G1 F900 X-13.61 Y17.615 E70.93339
G0 F3600 X-13.61 Y16.936
G1 F900 X-12.438 Y18.109 E71.03266
G0 F3600 X-11.759 Y18.109
G1 F900 X-13.61 Y16.257 E71.18942
G0 F3600 X-13.61 Y15.578
G1 F900 X-11.08 Y18.109 E71.40367
G0 F3600 X-10.401 Y18.109
G1 F900 X-13.61 Y14.9 E71.67536
G0 F3600 X-13.61 Y14.221
G1 F900 X-9.722 Y18.109 E72.00455
G0 F3600 X-9.043 Y18.109
G1 F900 X-13.61 Y13.542 E72.39122
G0 F3600 X-13.61 Y12.863
G1 F900 X-8.365 Y18.109 E72.83534
G0 F3600 X-7.686 Y18.109
G1 F900 X-13.61 Y12.184 E73.33694
G0 F3600 X-13.61 Y11.506
G1 F900 X-7.007 Y18.109 E73.896
G0 F3600 X-6.328 Y18.109
G1 F900 X-13.61 Y10.827 E74.51254
G0 F3600 X-13.61 Y10.148
G1 F900 X-5.649 Y18.109 E75.18657
G0 F3600 X-4.97 Y18.109
G1 F900 X-13.61 Y9.469 E75.91809
G0 F3600 X-13.61 Y8.79
G1 F900 X-4.292 Y18.109 E76.70705
G0 F3600 X-3.613 Y18.109
G1 F900 X-13.61 Y8.111 E77.5535
G0 F3600 X-13.61 Y7.433
G1 F900 X-2.934 Y18.109 E78.4574
G0 F3600 X-2.255 Y18.109
G1 F900 X-13.61 Y6.754 E79.41879
G0 F3600 X-13.61 Y6.075
G1 F900 X-1.576 Y18.109 E80.43767
G0 F3600 X-.898 Y18.109
G1 F900 X-13.61 Y5.396 E81.51399
G0 F3600 X-13.61 Y4.717
G1 F900 X-.219 Y18.109 E82.6478
G0 F3600 X0.459 Y18.109
G1 F900 X-13.61 Y4.038 E83.83906
G0 F3600 X-13.61 Y3.36
G1 F900 X1.138 Y18.109 E85.08776
G0 F3600 X1.817 Y18.109
G1 F900 X-13.61 Y2.681 E86.39396
G0 F3600 X-13.61 Y2.002
G1 F900 X2.496 Y18.109 E87.75764
G0 F3600 X3.174 Y18.109
G1 F900 X-13.61 Y1.323 E89.17876
G0 F3600 X-13.61 Y0.644
G1 F900 X3.853 Y18.109 E90.65738
G0 F3600 X4.532 Y18.109
G1 F900 X-13.61 Y-0.033 E92.1934
G0 F3600 X-13.61 Y-.712
G1 F900 X5.211 Y18.109 E93.78691
G0 F3600 X5.89 Y18.109
G1 F900 X-13.61 Y-1.391 E95.4379
G0 F3600 X-13.61 Y-2.07
G1 F900 X6.569 Y18.109 E97.14639
G0 F3600 X7.247 Y18.109
G1 F900 X-13.61 Y-2.749 E98.91232
G0 F3600 X-13.61 Y-3.428
G1 F900 X7.926 Y18.109 E100.73574
G0 F3600 X8.605 Y18.109
G1 F900 X-13.61 Y-4.106 E102.6166
G0 F3600 X-13.61 Y-4.785
G1 F900 X9.284 Y18.109 E104.55496
G0 F3600 X9.963 Y18.109
G1 F900 X-13.61 Y-5.464 E106.5508
G0 F3600 X-13.61 Y-6.143
G1 F900 X-1.861 Y5.605 E107.5455
G1 X-1.791 Y5.675
G0 F3600 X-1.147 Y6.319
G1 F900 X10.641 Y18.109 E108.54364
G0 F3600 X11.32 Y18.109
G1 F900 X0.904 Y7.692 E109.42557
G1 X0.834 Y7.622
G0 F3600 X1.035 Y7.121
G0 X2.193 Y7.582
G0 X2.027 Y8.136
G1 F900 X11.999 Y18.109 E110.2699
G0 F3600 X12.678 Y18.109
G1 F900 X2.892 Y8.323 E111.09845
G0 F3600 X3.693 Y8.444
G1 F900 X13.357 Y18.109 E111.91671
G0 F3600 X13.61 Y17.683
G1 F900 X4.372 Y8.444 E112.6989
G0 F3600 X5.05 Y8.444
G1 F900 X13.61 Y17.004 E113.42364
G0 F3600 X13.61 Y16.325
G1 F900 X5.729 Y8.444 E114.0909
G0 F3600 X6.408 Y8.444
G1 F900 X13.61 Y15.646 E114.70067
G0 F3600 X13.61 Y14.968
G1 F900 X7.087 Y8.444 E115.25299
G0 F3600 X7.766 Y8.444
G1 F900 X13.61 Y14.289 E115.74782
G0 F3600 X13.61 Y13.61
G1 F900 X8.444 Y8.444 E116.18521
G0 F3600 X9.123 Y8.444
G1 F900 X13.61 Y12.931 E116.56511
G0 F3600 X13.61 Y12.252
G1 F900 X9.802 Y8.444 E116.88752
G0 F3600 X10.481 Y8.444
G1 F900 X13.61 Y11.573 E117.15244
G0 F3600 X13.61 Y10.895
G1 F900 X11.16 Y8.444 E117.35992
G0 F3600 X11.839 Y8.444
G1 F900 X13.61 Y10.216 E117.5099
G0 F3600 X13.61 Y9.537
G1 F900 X12.517 Y8.444 E117.60244
G0 F3600 X13.196 Y8.444
G1 F900 X13.61 Y8.858 E117.6375
G1 F750 E111.1375
G0 F3600 X14.19 Y8.858
G0 X14.084 Y7.033
G0 X3.605 Y7.034
G0 X2.436 Y6.783
G0 X1.333 Y6.344
G0 X0.321 Y5.728
G0 X-.575 Y4.95
G0 X-1.329 Y4.035
G0 X-1.921 Y3.007
G0 X-2.332 Y1.896
G0 X-2.553 Y0.732
G0 X-2.575 Y-.453
G0 X-2.4 Y-1.626
G0 X-2.034 Y-2.753
G0 X-1.483 Y-3.804
G0 X-.766 Y-4.747
G0 X0.099 Y-5.559
G0 X1.086 Y-6.215
G0 X2.17 Y-6.697
G0 X3.101 Y-6.934
G0 X13.222 Y-7.92
G1 F750 E117.6375
G0 F3600 X13.222 Y-8.5
G1 F900 X3.613 Y-18.109 E118.45106
G0 F3600 X2.934 Y-18.109
G1 F900 X12.543 Y-8.5 E119.26462
G0 F3600 X11.864 Y-8.5
G1 F900 X2.255 Y-18.109 E120.07818
G0 F3600 X1.576 Y-18.109
G1 F900 X11.185 Y-8.5 E120.89174
G0 F3600 X10.506 Y-8.5
G1 F900 X0.898 Y-18.109 E121.70525
G0 F3600 X0.219 Y-18.109
G1 F900 X9.828 Y-8.5 E122.51881
G0 F3600 X9.149 Y-8.5
G1 F900 X-.459 Y-18.109 E123.33233
G0 F3600 X-1.138 Y-18.109
G1 F900 X8.47 Y-8.5 E124.14585
G0 F3600 X7.791 Y-8.5
G1 F900 X-1.817 Y-18.109 E124.95937
G0 F3600 X-2.496 Y-18.109
G1 F900 X7.112 Y-8.5 E125.77289
G0 F3600 X6.433 Y-8.5
G1 F900 X-3.174 Y-18.109 E126.58636
G0 F3600 X-3.853 Y-18.109
G1 F900 X5.755 Y-8.5 E127.39988
G0 F3600 X5.076 Y-8.5
G1 F900 X-4.532 Y-18.109 E128.2134
G0 F3600 X-5.211 Y-18.109
G1 F900 X4.399 Y-8.498 E129.02708
G0 F3600 X3.773 Y-8.444
G1 F900 X-5.89 Y-18.109 E129.8453
G0 F3600 X-6.569 Y-18.109
G1 F900 X3.148 Y-8.391 E130.66805
G0 F3600 X2.599 Y-8.261
G1 F900 X-7.247 Y-18.109 E131.50176
G0 F3600 X-7.926 Y-18.109
G1 F900 X2.059 Y-8.123 E132.3472
G0 F3600 X1.543 Y-7.959
G1 F900 X-8.605 Y-18.109 E133.20648
G0 F3600 X-9.284 Y-18.109
G1 F900 X1.073 Y-7.751 E134.08341
G0 F3600 X0.603 Y-7.542
G1 F900 X-9.963 Y-18.109 E134.97804
G0 F3600 X-10.641 Y-18.109
G1 F900 X0.168 Y-7.298 E135.89328
G0 F3600 X-.239 Y-7.027
G1 F900 X-11.32 Y-18.109 E136.83151
G0 F3600 X-11.999 Y-18.109
G1 F900 X-.647 Y-6.756 E137.79269
G0 F3600 X-1.016 Y-6.446
G1 F900 X-12.678 Y-18.109 E138.78011
G0 F3600 X-13.357 Y-18.109
G1 F900 X-1.366 Y-6.117 E139.79539
G0 F3600 X-1.716 Y-5.789
G1 F900 X-13.61 Y-17.683 E140.80241
G0 F3600 X-13.61 Y-17.004
G1 F900 X-2.025 Y-5.419 E141.78328
G0 F3600 X-2.318 Y-5.033
G1 F900 X-13.61 Y-16.325 E142.73933
G0 F3600 X-13.61 Y-15.646
G1 F900 X-2.612 Y-4.648 E143.67049
G0 F3600 X-2.858 Y-4.216
G1 F900 X-13.61 Y-14.968 E144.58083
G0 F3600 X-13.61 Y-14.289
G1 F900 X-3.092 Y-3.771 E145.47135
G0 F3600 X-3.326 Y-3.326
G1 F900 X-13.61 Y-13.61 E146.34206
G0 F3600 X-13.61 Y-12.931
G1 F900 X-3.496 Y-2.817 E147.19837
G0 F3600 X-3.662 Y-2.305
G1 F900 X-13.61 Y-12.252 E148.04059
G0 F3600 X-13.61 Y-11.573
G1 F900 X-3.804 Y-1.767 E148.87083
G0 F3600 X-3.891 Y-1.176
G1 F900 X-13.61 Y-10.895 E149.69371
G0 F3600 X-13.61 Y-10.216
G1 F900 X-3.979 Y-.585 E150.50913
G0 F3600 X-3.974 Y0.098
G1 F900 X-13.61 Y-9.537 E151.32493
G0 F3600 X-13.61 Y-8.858
G1 F900 X-3.962 Y0.789 E152.14175
G0 F3600 X-3.821 Y1.608
G1 F900 X-13.61 Y-8.179 E152.97047
G0 F3600 X-13.61 Y-7.5
G1 F900 X-3.613 Y2.496 E153.81684
G1 X-3.543 Y2.566
G0 F3600 X-3.039 Y2.38
G0 X-2.676 Y3.361
G0 X-3.213 Y3.575
G1 F900 X-13.61 Y-6.822 E154.69712
G1 X-13.68 Y-6.892
G1 F750 E148.19712
G0 F3600 X-14.19 Y-6.892
G0 X-14.118 Y-18.618
G0 X4.292 Y-18.69
G1 F750 E154.69712
G0 F3600 X4.292 Y-18.109
G1 F900 X13.61 Y-8.79 E155.48608
G0 F3600 X13.61 Y-9.469
G1 F900 X4.97 Y-18.109 E156.2176
G0 F3600 X5.649 Y-18.109
G1 F900 X13.61 Y-10.148 E156.89163
G0 F3600 X13.61 Y-10.827
G1 F900 X6.328 Y-18.109 E157.50817
G0 F3600 X7.007 Y-18.109
G1 F900 X13.61 Y-11.506 E158.06722
G0 F3600 X13.61 Y-12.184
G1 F900 X7.686 Y-18.109 E158.56883
G0 F3600 X8.365 Y-18.109
G1 F900 X13.61 Y-12.863 E159.01295
G0 F3600 X13.61 Y-13.542
G1 F900 X9.043 Y-18.109 E159.39962
G0 F3600 X9.722 Y-18.109
G1 F900 X13.61 Y-14.221 E159.7288
G0 F3600 X13.61 Y-14.9
G1 F900 X10.401 Y-18.109 E160.0005
G0 F3600 X11.08 Y-18.109
G1 F900 X13.61 Y-15.578 E160.21475
G0 F3600 X13.61 Y-16.257
G1 F900 X11.759 Y-18.109 E160.37151
G0 F3600 X12.438 Y-18.109
G1 F900 X13.61 Y-16.936 E160.47078
G0 F3600 X13.61 Y-17.615
G1 F900 X13.116 Y-18.109 E160.5126
G0 F3600 X13.116 Y-19.07
G1 F750 E154.0126
;MESH:NONMESH
G0 F600 X13.116 Y-19.07 Z0.5
G0 F3600 X14.118 Y-18.618
G0 X14.118 Y-7.992
G0 X3.32 Y-6.991
G0 X2.17 Y-6.697
G0 X1.086 Y-6.215
G0 X0.099 Y-5.559
G0 X-.766 Y-4.747
G0 X-1.483 Y-3.804
G0 X-2.034 Y-2.753
G0 X-2.4 Y-1.626
G0 X-2.575 Y-.453
G0 X-2.553 Y0.732
G0 X-2.332 Y1.896
G0 X-1.921 Y3.007
G0 X-1.329 Y4.035
G0 X-.575 Y4.95
G0 X0.321 Y5.728
G0 X1.333 Y6.344
G0 X2.436 Y6.783
G0 X3.605 Y7.034
G0 X14.384 Y7.034
G0 X14.99 Y19.49
G1 F750 E160.5126
G0 F3600 X15.3 Y19.8
;TIME_ELAPSED:193.357962
;LAYER:1
M106 S255
;TYPE:WALL-OUTER
;MESH:HE Fan Duct.3mf
