;FLAVOR:Marlin
;TIME:340
;Filament used: 0.177307m
;Layer height: 0.2
;MINX:-30.72
;MINY:-30.72
;MINZ:0.3
;MAXX:30.72
;MAXY:30.72
;MAXZ:0.5
;Generated with Cura_SteamEngine 4.13.1
M140 S65
M105
M190 S65
M104 S200
M105
M109 S200
M82 ;absolute extrusion mode
G21 ;metric values
G90 ;absolute positioning
M82 ;set extruder to absolute mode
M107 ;start with the fan off
G28 ;Home all axes (max endstops)
G1 Z30.0 F9000 ;move the platform down 15mm
G92 E0 ;zero the extruded length
G1 f700 x0 y70 Z0 E9 F500 ; start purge line
G1 f700 x40 y50 E12.5 ; finish purge line
G92 E0 ;zero the extruded length again
G1 F9000
;Put printing message on LCD screen
M117 Printing...
G92 E0
G92 E0
G1 F750 E-6.5
;LAYER_COUNT:2
;LAYER:0
M107
G0 F3600 X24.293 Y-30.72 Z0.3
;TYPE:SKIRT
G1 F750 E0
G1 X25.073 Y-30.709 E0.0467
G1 X25.747 Y-30.66 E0.08716
G1 X26.411 Y-30.531 E0.12766
G1 X27.055 Y-30.325 E0.16813
G1 X27.67 Y-30.044 E0.20862
G1 X28.248 Y-29.692 E0.24913
G1 X28.78 Y-29.275 E0.2896
G1 X29.259 Y-28.798 E0.33007
G1 X29.679 Y-28.268 E0.37055
G1 X30.033 Y-27.692 E0.41103
G1 X30.316 Y-27.078 E0.45151
G1 X30.525 Y-26.435 E0.49198
G1 X30.657 Y-25.772 E0.53246
G1 X30.709 Y-25.151 E0.56976
G1 X30.72 Y-24.67 E0.59857
G1 X30.72 Y24.335 E3.53241
G1 X30.711 Y25.062 E3.57594
G1 X30.662 Y25.736 E3.6164
G1 X30.535 Y26.4 E3.65687
G1 X30.33 Y27.045 E3.69739
G1 X30.05 Y27.66 E3.73784
G1 X29.7 Y28.239 E3.77835
G1 X29.284 Y28.772 E3.81883
G1 X28.807 Y29.252 E3.85934
G1 X28.278 Y29.672 E3.89978
G1 X27.703 Y30.027 E3.94024
G1 X27.089 Y30.312 E3.98076
G1 X26.447 Y30.523 E4.02122
G1 X25.784 Y30.656 E4.0617
G1 X25.151 Y30.709 E4.09973
G1 X24.67 Y30.72 E4.12854
G1 X-24.367 Y30.72 E7.0643
G1 X-25.065 Y30.711 E7.10609
G1 X-25.739 Y30.662 E7.14654
G1 X-26.403 Y30.534 E7.18703
G1 X-27.047 Y30.329 E7.22749
G1 X-27.663 Y30.049 E7.268
G1 X-28.241 Y29.698 E7.30848
G1 X-28.774 Y29.282 E7.34896
G1 X-29.254 Y28.805 E7.38948
G1 X-29.674 Y28.276 E7.42991
G1 X-30.029 Y27.7 E7.47042
G1 X-30.313 Y27.087 E7.51087
G1 X-30.523 Y26.444 E7.55136
G1 X-30.656 Y25.781 E7.59185
G1 X-30.709 Y25.146 E7.63
G1 X-30.72 Y24.658 E7.65922
G1 X-30.719 Y-24.403 E10.59642
G1 X-30.71 Y-25.068 E10.63623
G1 X-30.661 Y-25.743 E10.67675
G1 X-30.533 Y-26.407 E10.71723
G1 X-30.327 Y-27.051 E10.75771
G1 X-30.047 Y-27.666 E10.79817
G1 X-29.696 Y-28.244 E10.83865
G1 X-29.279 Y-28.776 E10.87912
G1 X-28.803 Y-29.256 E10.91959
G1 X-28.273 Y-29.676 E10.96008
G1 X-27.697 Y-30.031 E11.00059
G1 X-27.083 Y-30.315 E11.04109
G1 X-26.44 Y-30.524 E11.08156
G1 X-25.777 Y-30.657 E11.12205
G1 X-25.151 Y-30.709 E11.15965
G1 X-24.67 Y-30.72 E11.18846
G1 X24.293 Y-30.72 E14.11979
G0 F3600 X24.293 Y-30.24
G1 F750 X25.066 Y-30.229 E14.16607
G1 X25.711 Y-30.18 E14.2048
G1 X26.346 Y-30.052 E14.24358
G1 X26.959 Y-29.846 E14.28229
G1 X27.543 Y-29.567 E14.32104
G1 X28.088 Y-29.217 E14.35982
G1 X28.585 Y-28.803 E14.39854
G1 X29.028 Y-28.331 E14.4373
G1 X29.409 Y-27.808 E14.47604
G1 X29.722 Y-27.242 E14.51476
G1 X29.964 Y-26.642 E14.55349
G1 X30.13 Y-26.016 E14.59226
G1 X30.229 Y-25.137 E14.64522
G1 X30.24 Y-24.67 E14.67319
G1 X30.24 Y24.329 E17.60667
G1 X30.231 Y25.056 E17.6502
G1 X30.183 Y25.701 E17.68892
G1 X30.056 Y26.336 E17.72769
G1 X29.851 Y26.95 E17.76644
G1 X29.573 Y27.534 E17.80517
G1 X29.224 Y28.079 E17.84391
G1 X28.811 Y28.578 E17.88269
G1 X28.34 Y29.021 E17.9214
G1 X27.818 Y29.403 E17.96013
G1 X27.252 Y29.718 E17.9989
G1 X26.652 Y29.961 E18.03766
G1 X26.027 Y30.128 E18.07639
G1 X25.138 Y30.229 E18.12996
G1 X24.67 Y30.24 E18.15798
G1 X-24.361 Y30.24 E21.09338
G1 X-25.059 Y30.231 E21.13517
G1 X-25.704 Y30.182 E21.1739
G1 X-26.338 Y30.055 E21.21261
G1 X-26.952 Y29.85 E21.25136
G1 X-27.536 Y29.571 E21.29011
G1 X-28.081 Y29.223 E21.32882
G1 X-28.58 Y28.809 E21.36764
G1 X-29.023 Y28.338 E21.40635
G1 X-29.405 Y27.815 E21.44513
G1 X-29.719 Y27.25 E21.48382
G1 X-29.962 Y26.65 E21.52258
G1 X-30.128 Y26.024 E21.56135
G1 X-30.229 Y25.133 E21.61504
G1 X-30.24 Y24.658 E21.64348
G1 X-30.24 Y-24.397 E24.58032
G1 X-30.231 Y-25.062 E24.62013
G1 X-30.182 Y-25.707 E24.65886
G1 X-30.054 Y-26.342 E24.69764
G1 X-29.849 Y-26.955 E24.73634
G1 X-29.57 Y-27.539 E24.77509
G1 X-29.221 Y-28.084 E24.81383
G1 X-28.807 Y-28.582 E24.8526
G1 X-28.335 Y-29.025 E24.89136
G1 X-27.813 Y-29.406 E24.93005
G1 X-27.247 Y-29.721 E24.96883
G1 X-26.647 Y-29.963 E25.00756
G1 X-26.021 Y-30.129 E25.04633
G1 X-25.138 Y-30.229 E25.09953
G1 X-24.67 Y-30.24 E25.12756
G1 X24.293 Y-30.24 E28.05889
G1 F750 E21.55889
;MESH:test_square.stl
G0 F3600 X23.416 Y-23.416
G1 F750 E28.05889
G0 F3600 X22.74 Y-22.74
;TYPE:WALL-OUTER
G1 F750 X-15.16 Y-22.74 E30.3279
G1 X-15.283 Y-22.444 E30.34709
G1 X22.444 Y15.283 E33.5413
G1 X22.74 Y15.16 E33.56049
G1 X22.74 Y-22.74 E35.82949
G0 F3600 X22.54 Y-22.74
G1 F750 E29.32949
G0 F3600 X22.54 Y-23.04
G0 X-15.774 Y-22.969
G0 X-16.693 Y-22.969
G0 X-22.74 Y-23.04
G1 F750 E35.82949
G0 F3600 X-22.74 Y-22.74
G1 F750 X-22.74 Y-17.401 E36.14913
G1 X17.401 Y22.74 E39.54773
G1 X22.74 Y22.74 E39.86736
G1 X22.74 Y17.401 E40.187
G1 X-17.401 Y-22.74 E43.5856
G1 X-22.74 Y-22.74 E43.90523
G0 F3600 X-22.74 Y-22.54
G1 F750 E37.40523
G0 F3600 X-23.04 Y-22.54
G0 X-22.969 Y-16.693
G0 X-22.335 Y-16.052
G0 X-23.04 Y22.74
G1 F750 E43.90523
G0 F3600 X-22.74 Y22.74
G1 F750 X15.16 Y22.74 E46.17424
G1 X15.283 Y22.444 E46.19343
G1 X-22.444 Y-15.283 E49.38764
G1 X-22.74 Y-15.16 E49.40683
G1 X-22.74 Y22.74 E51.67584
G0 F3600 X-22.54 Y22.74
G1 F750 E45.17584
G0 F3600 X-22.54 Y23.04
G0 X-23.416 Y23.416
G0 X-24.46 Y24.49
G1 F750 E51.67584
G0 F3600 X-24.76 Y24.76
G1 F750 X-24.76 Y-24.76 E54.64052
G1 X24.76 Y-24.76 E57.60519
G1 X24.76 Y24.76 E60.56987
G1 X-24.76 Y24.76 E63.53454
G0 F3600 X-24.76 Y24.56
G0 X-24.28 Y24.28
;TYPE:WALL-INNER
G1 F750 X-24.28 Y-24.28 E66.44174
G1 X24.28 Y-24.28 E69.34895
G1 X24.28 Y24.28 E72.25615
G1 X-24.28 Y24.28 E75.16335
G1 F750 E68.66335
G0 F3600 X-23.22 Y24.07
G0 X-23.22 Y23.22
G1 F750 E75.16335
G1 X15.48 Y23.22 E77.48025
G1 X15.849 Y22.332 E77.53782
G1 X-22.332 Y-15.849 E80.77047
G1 X-23.22 Y-15.48 E80.82804
G1 X-23.22 Y23.22 E83.14494
G1 F750 E76.64494
G0 F3600 X-23.051 Y-15.741
G0 X-23.051 Y-16.774
G0 X-23.22 Y-23.22
G1 F750 E83.14494
G1 X-23.22 Y-17.202 E83.50523
G1 X-22.1 Y-16.082 E83.60006
G1 X16.081 Y22.099 E85.80905
G1 X17.202 Y23.22 E85.90396
G1 X23.22 Y23.22 E86.26425
G1 X23.22 Y17.202 E86.62454
G1 X22.1 Y16.082 E86.71937
G1 X-16.081 Y-22.099 E89.95202
G1 X-17.202 Y-23.22 E90.04693
G1 X-23.22 Y-23.22 E90.40721
G1 F750 E83.90721
G0 F3600 X-16.774 Y-23.051
G0 X-16.052 Y-22.335
G0 X23.22 Y-23.22
G1 F750 E90.40721
G1 X-15.48 Y-23.22 E92.72412
G1 X-15.849 Y-22.332 E92.78169
G1 X22.332 Y15.849 E94.99068
G1 X23.22 Y15.48 E95.04825
G1 X23.22 Y-23.22 E97.36515
G1 F750 E90.86515
G0 F3600 X-15.701 Y-23.145
G0 X-16.052 Y-22.335
G0 X-16.625 Y-22.904
G0 X-23.36 Y-23.36
G1 F750 E97.36515
G0 F3600 X-23.68 Y-23.68
;TYPE:SKIN
G1 F750 X-23.68 Y-17.012 E97.76436
G1 X-22.815 Y-16.146 E97.83763
G1 X-23.68 Y-15.787 E97.8937
G1 X-23.68 Y23.68 E100.25652
G1 X15.787 Y23.68 E102.61934
G1 X16.146 Y22.815 E102.67541
G1 X17.012 Y23.68 E102.74869
G1 X23.68 Y23.68 E103.14789
G1 X23.68 Y17.012 E103.54709
G1 X22.815 Y16.146 E103.62037
G1 X23.68 Y15.787 E103.67644
G1 X23.68 Y-23.68 E106.03926
G1 X-15.787 Y-23.68 E108.40208
G1 X-16.146 Y-22.815 E108.45815
G1 X-17.012 Y-23.68 E108.53143
G1 X-23.68 Y-23.68 E108.93063
G0 F3600 X-23.82 Y-23.82
G1 F750 X23.82 Y-23.82 E111.78275
G1 X23.82 Y23.82 E114.63488
G1 X-23.82 Y23.82 E117.487
G1 X-23.82 Y-23.82 E120.33912
G0 F3600 X-23.82 Y-24.17
G0 X-24.17 Y-16.513
G0 X-23.584 Y-16.513
;TYPE:SKIN
G1 F750 X-23.279 Y-16.208 E120.34988
G0 F3600 X-23.479 Y-16.125
G1 F750 X-23.584 Y-16.23 E120.35359
G1 F750 E113.85359
G0 F3600 X-24.17 Y-16.23
G0 X-24.098 Y-24.098
G0 X-16.513 Y-24.17
G1 F750 E120.35359
G0 F3600 X-16.513 Y-23.584
G1 F750 X-16.207 Y-23.278 E120.36438
G0 F3600 X-16.124 Y-23.478
G1 F750 X-16.23 Y-23.584 E120.36812
G1 F750 E113.86812
G0 F3600 X-16.23 Y-24.17
G0 X23.056 Y-24.07
G0 X23.056 Y15.667
G1 F750 E120.36812
G0 F3600 X23.279 Y16.208
G1 F750 X23.584 Y16.513 E120.37888
G0 F3600 X23.584 Y16.23
G1 F750 X23.479 Y16.125 E120.38259
G1 F750 E113.88259
G0 F3600 X23.255 Y15.585
G0 X22.335 Y16.052
G0 X22.976 Y17.303
G0 X22.968 Y22.968
G0 X17.303 Y22.976
G0 X16.052 Y22.335
G0 X15.669 Y23.054
G1 F750 E120.38259
G0 F3600 X16.207 Y23.278
G1 F750 X16.513 Y23.584 E120.39338
G0 F3600 X16.23 Y23.584
G1 F750 X16.124 Y23.478 E120.39712
G0 F3600 X15.235 Y23.42
G1 F750 E113.89712
;MESH:NONMESH
G0 F600 X15.235 Y23.42 Z0.5
G0 F3600 X15.235 Y23.33
G0 X15.558 Y22.39
G0 X-22.976 Y-17.303
G0 X-22.968 Y-22.968
G1 F750 E120.39712
G0 F3600 X-22.7 Y-22.7
;TIME_ELAPSED:187.623251
;LAYER:1
M106 S255
;TYPE:WALL-OUTER
;MESH:test_square.stl
G1 F750 X-22.7 Y-17.417 E120.57283
G1 X17.417 Y22.7 E122.45981
G1 X22.7 Y22.7 E122.63553
G1 X22.7 Y17.417 E122.81124
G1 X-17.417 Y-22.7 E124.69822
G1 X-22.7 Y-22.7 E124.87393
G0 F5400 X-22.7 Y-22.5
G1 F750 E118.37393
G0 F5400 X-23 Y-22.5
G0 X-22.936 Y-17.319
G0 X-3.209 Y2.909
G0 X-11.734 Y-4.853
G0 X-22.399 Y-15.511
G0 X-23 Y22.7
G1 F750 E124.87393
G0 F5400 X-22.7 Y22.7
G1 F750 X15.134 Y22.7 E126.1323
G1 X15.236 Y22.453 E126.14119
G1 X-22.453 Y-15.236 E127.91396
G1 X-22.7 Y-15.134 E127.92285
G1 X-22.7 Y22.7 E129.18121
G0 F5400 X-22.5 Y22.7
G1 F750 E122.68121
G0 F5400 X-22.5 Y23
G0 X-23.296 Y23.296
G0 X-23.296 Y24.19
G0 X-24.5 Y24.53
G1 F750 E129.18121
G0 F5400 X-24.8 Y24.8
G1 F750 X-24.8 Y-24.8 E130.83092
G1 X24.8 Y-24.8 E132.48062
G1 X24.8 Y24.8 E134.13032
G1 X-24.8 Y24.8 E135.78002
G0 F5400 X-24.8 Y24.6
G1 F750 E129.28002
G0 F5400 X-24.5 Y24.53
G0 X-24.19 Y-23
G0 X-15.933 Y-22.315
G0 X-15.29 Y-22.933
G0 X22.7 Y-23
G1 F750 E135.78002
G0 F5400 X22.7 Y-22.7
G1 F750 X-15.134 Y-22.7 E137.03839
G1 X-15.236 Y-22.453 E137.04728
G1 X22.453 Y15.236 E138.82005
G1 X22.7 Y15.134 E138.82894
G1 X22.7 Y-22.7 E140.0873
G0 F5400 X22.5 Y-22.7
G0 X23.1 Y-23.1
;TYPE:WALL-INNER
G1 F1125 X-15.402 Y-23.1 E141.36789
G1 X-15.708 Y-22.359 E141.39455
G1 X22.359 Y15.708 E143.1851
G1 X23.1 Y15.402 E143.21177
G1 X23.1 Y-23.1 E144.49235
G1 F750 E137.99235
G0 F5400 X-15.29 Y-22.933
G0 X-15.933 Y-22.315
G0 X-23.1 Y-23.1
G1 F750 E144.49235
G1 F1125 X-23.1 Y-17.251 E144.68689
G1 X17.251 Y23.1 E146.58488
G1 X23.1 Y23.1 E146.77942
G1 X23.1 Y17.251 E146.97395
G1 X-17.251 Y-23.1 E148.87194
G1 X-23.1 Y-23.1 E149.06648
G1 F750 E142.56648
G0 F5400 X-22.936 Y-17.319
G0 X-3.059 Y3.059
G0 X0.163 Y7.042
G0 X15.511 Y22.399
G0 X-23.1 Y23.1
G1 F750 E149.06648
G1 F1125 X15.402 Y23.1 E150.34706
G1 X15.708 Y22.359 E150.37373
G1 X-22.359 Y-15.708 E152.16428
G1 X-23.1 Y-15.402 E152.19095
G1 X-23.1 Y23.1 E153.47153
G1 F750 E146.97153
G0 F5400 X-23.296 Y24.19
G0 X-24.4 Y24.4
G1 F750 E153.47153
G1 F1125 X-24.4 Y-24.4 E155.09462
G1 X24.4 Y-24.4 E156.71772
G1 X24.4 Y24.4 E158.34081
G1 X-24.4 Y24.4 E159.96391
G0 F5400 X-24.01 Y24.01
;TYPE:SKIN
G1 F750 X-24.01 Y-24.01 E161.56106
G1 X24.01 Y-24.01 E163.15821
G1 X24.01 Y24.01 E164.75536
G1 X-24.01 Y24.01 E166.35251
G0 F5400 X-23.49 Y23.49
G1 F750 X15.663 Y23.49 E167.65475
G1 X16.08 Y22.481 E167.69106
G1 X17.089 Y23.49 E167.73852
G1 X23.49 Y23.49 E167.95142
G1 X23.49 Y17.089 E168.16432
G1 X22.481 Y16.08 E168.21178
G1 X23.49 Y15.663 E168.24809
G1 X23.49 Y-23.49 E169.55032
G1 X-15.663 Y-23.49 E170.85256
G1 X-16.08 Y-22.481 E170.88887
G1 X-17.089 Y-23.49 E170.93633
G1 X-23.49 Y-23.49 E171.14923
G1 X-23.49 Y-17.089 E171.36213
G1 X-22.481 Y-16.08 E171.40959
G1 X-23.49 Y-15.663 E171.4459
G1 X-23.49 Y23.49 E172.74813
G1 F750 E166.24813
G0 F5400 X-23.21 Y23.24
G0 X-23.294 Y-15.531
G0 X-24.19 Y-15.531
G0 X-24.29 Y-23.688
G1 F750 E172.74813
G0 F5400 X-23.829 Y-23.688
G1 F750 X-23.688 Y-23.829 E172.75476
G0 F5400 X-23.282 Y-23.668
G1 F750 X-23.122 Y-23.829 E172.76231
G0 F5400 X-22.717 Y-23.668
G1 F750 X-22.556 Y-23.829 E172.76989
G0 F5400 X-22.151 Y-23.668
G1 F750 X-21.991 Y-23.829 E172.77744
G0 F5400 X-21.585 Y-23.668
G1 F750 X-21.425 Y-23.829 E172.78499
G0 F5400 X-21.02 Y-23.668
G1 F750 X-20.859 Y-23.829 E172.79256
G0 F5400 X-20.454 Y-23.668
G1 F750 X-20.293 Y-23.829 E172.80013
G0 F5400 X-19.888 Y-23.668
G1 F750 X-19.728 Y-23.829 E172.80768
G0 F5400 X-19.323 Y-23.668
G1 F750 X-19.162 Y-23.829 E172.81525
G0 F5400 X-18.757 Y-23.668
G1 F750 X-18.596 Y-23.829 E172.82283
G0 F5400 X-18.191 Y-23.668
G1 F750 X-18.031 Y-23.829 E172.83038
G0 F5400 X-17.626 Y-23.668
G1 F750 X-17.465 Y-23.829 E172.83795
G0 F5400 X-17.06 Y-23.668
G1 F750 X-16.899 Y-23.829 E172.84552
G0 F5400 X-16.754 Y-23.409
G1 F750 X-16.334 Y-23.829 E172.86528
G0 F5400 X-15.768 Y-23.829
G1 F750 X-16.471 Y-23.126 E172.89834
G0 F5400 X-16.188 Y-22.843
G1 F750 X-16.081 Y-22.951 E172.9034
G0 F5400 X-15.656 Y-22.775
G0 X-15.362 Y-23.669
G1 F750 X-15.202 Y-23.829 E172.91093
G0 F5400 X-14.796 Y-23.669
G1 F750 X-14.637 Y-23.829 E172.91843
G0 F5400 X-14.231 Y-23.669
G1 F750 X-14.071 Y-23.829 E172.92596
G0 F5400 X-13.665 Y-23.669
G1 F750 X-13.505 Y-23.829 E172.93348
G0 F5400 X-13.099 Y-23.669
G1 F750 X-12.94 Y-23.829 E172.94098
G0 F5400 X-12.534 Y-23.669
G1 F750 X-12.374 Y-23.829 E172.94851
G0 F5400 X-11.968 Y-23.669
G1 F750 X-11.808 Y-23.829 E172.95604
G0 F5400 X-11.402 Y-23.669
G1 F750 X-11.242 Y-23.829 E172.96356
G0 F5400 X-10.837 Y-23.669
G1 F750 X-10.677 Y-23.829 E172.97109
G0 F5400 X-10.271 Y-23.669
G1 F750 X-10.111 Y-23.829 E172.97861
G0 F5400 X-9.705 Y-23.669
G1 F750 X-9.545 Y-23.829 E172.98614
G0 F5400 X-9.14 Y-23.669
G1 F750 X-8.98 Y-23.829 E172.99367
G0 F5400 X-8.574 Y-23.669
G1 F750 X-8.414 Y-23.829 E173.00119
G0 F5400 X-8.008 Y-23.669
G1 F750 X-7.848 Y-23.829 E173.00872
G0 F5400 X-7.443 Y-23.669
G1 F750 X-7.283 Y-23.829 E173.01624
G0 F5400 X-6.877 Y-23.669
G1 F750 X-6.717 Y-23.829 E173.02377
G0 F5400 X-6.311 Y-23.669
G1 F750 X-6.151 Y-23.829 E173.03129
G0 F5400 X-5.745 Y-23.669
G1 F750 X-5.586 Y-23.829 E173.0388
G0 F5400 X-5.18 Y-23.669
G1 F750 X-5.02 Y-23.829 E173.04632
G0 F5400 X-4.614 Y-23.669
G1 F750 X-4.454 Y-23.829 E173.05385
G0 F5400 X-4.048 Y-23.669
G1 F750 X-3.889 Y-23.829 E173.06135
G0 F5400 X-3.483 Y-23.669
G1 F750 X-3.323 Y-23.829 E173.06888
G0 F5400 X-2.917 Y-23.669
G1 F750 X-2.757 Y-23.829 E173.0764
G0 F5400 X-2.351 Y-23.669
G1 F750 X-2.192 Y-23.829 E173.08391
G0 F5400 X-1.786 Y-23.669
G1 F750 X-1.626 Y-23.829 E173.09143
G0 F5400 X-1.22 Y-23.669
G1 F750 X-1.06 Y-23.829 E173.09896
G0 F5400 X-.654 Y-23.669
G1 F750 X-.494 Y-23.829 E173.10648
G0 F5400 X-0.089 Y-23.669
G1 F750 X0.07 Y-23.829 E173.11399
G0 F5400 X0.476 Y-23.669
G1 F750 X0.636 Y-23.829 E173.12151
G0 F5400 X1.042 Y-23.669
G1 F750 X1.202 Y-23.829 E173.12904
G0 F5400 X1.607 Y-23.669
G1 F750 X1.767 Y-23.829 E173.13656
G0 F5400 X2.173 Y-23.669
G1 F750 X2.333 Y-23.829 E173.14409
G0 F5400 X2.739 Y-23.669
G1 F750 X2.899 Y-23.829 E173.15162
G0 F5400 X3.305 Y-23.669
G1 F750 X3.464 Y-23.829 E173.15912
G0 F5400 X3.87 Y-23.669
G1 F750 X4.03 Y-23.829 E173.16664
G0 F5400 X4.436 Y-23.669
G1 F750 X4.596 Y-23.829 E173.17417
G0 F5400 X5.002 Y-23.669
G1 F750 X5.161 Y-23.829 E173.18167
G0 F5400 X5.567 Y-23.669
G1 F750 X5.727 Y-23.829 E173.1892
G0 F5400 X6.133 Y-23.669
G1 F750 X6.293 Y-23.829 E173.19672
G0 F5400 X6.699 Y-23.669
G1 F750 X6.858 Y-23.829 E173.20423
G0 F5400 X7.264 Y-23.669
G1 F750 X7.424 Y-23.829 E173.21175
G0 F5400 X7.83 Y-23.669
G1 F750 X7.99 Y-23.829 E173.21928
G0 F5400 X8.396 Y-23.669
G1 F750 X8.555 Y-23.829 E173.22678
G0 F5400 X8.961 Y-23.669
G1 F750 X9.121 Y-23.829 E173.23431
G0 F5400 X9.527 Y-23.669
G1 F750 X9.687 Y-23.829 E173.24183
G0 F5400 X10.093 Y-23.669
G1 F750 X10.253 Y-23.829 E173.24936
G0 F5400 X10.658 Y-23.669
G1 F750 X10.818 Y-23.829 E173.25688
G0 F5400 X11.224 Y-23.669
G1 F750 X11.384 Y-23.829 E173.26441
G0 F5400 X11.79 Y-23.669
G1 F750 X11.95 Y-23.829 E173.27194
G0 F5400 X12.355 Y-23.669
G1 F750 X12.515 Y-23.829 E173.27946
G0 F5400 X12.921 Y-23.669
G1 F750 X13.081 Y-23.829 E173.28699
G0 F5400 X13.487 Y-23.669
G1 F750 X13.647 Y-23.829 E173.29451
G0 F5400 X14.053 Y-23.669
G1 F750 X14.212 Y-23.829 E173.30202
G0 F5400 X14.618 Y-23.669
G1 F750 X14.778 Y-23.829 E173.30954
G0 F5400 X15.184 Y-23.669
G1 F750 X15.344 Y-23.829 E173.31707
G0 F5400 X15.75 Y-23.669
