; generated by Slic3r 1.2.9 on 2018-03-24 at 20:37:35

; external perimeters extrusion width = 0.40mm
; perimeters extrusion width = 0.67mm
; infill extrusion width = 0.67mm
; solid infill extrusion width = 0.67mm
; top infill extrusion width = 0.67mm

M107
M190 S65 ; set bed temperature
M104 S190 ; set temperature
G28 ; home all axes
G1 Z5 F5000 ; lift nozzle

M109 S190 ; wait for temperature to be reached
G21 ; set units to millimeters
G90 ; use absolute coordinates
M82 ; use absolute distances for extrusion
G92 E0
G1 Z0.400 F4800.000
G1 E-2.00000 F2400.00000
G92 E0
G1 X-54.816 Y-16.095 F4800.000
G1 E2.00000 F2400.00000
G1 X-50.596 Y-30.467 E3.60105 F1080.000
G1 X-49.506 Y-32.767 E3.87302
G1 X-48.115 Y-34.327 E4.09645
G1 X-25.924 Y-53.555 E7.23498
G1 X-23.765 Y-54.901 E7.50695
G1 X-21.751 Y-55.461 E7.73038
G1 X7.313 Y-59.640 E10.86892
G1 X9.857 Y-59.604 E11.14089
G1 X11.854 Y-58.987 E11.36432 F1080.000
G1 X38.563 Y-46.789 E14.50285
G1 X40.684 Y-45.384 E14.77482
G1 X42.031 Y-43.785 E14.99825
G1 X57.905 Y-19.083 E18.13678
G1 X58.930 Y-16.754 E18.40875
G1 X59.198 Y-14.681 E18.63218
G1 X59.198 Y14.681 E21.77072
G1 X58.800 Y17.194 E22.04269
G1 X57.905 Y19.083 E22.26612
G1 X42.031 Y43.785 E25.40465
G1 X40.338 Y45.684 E25.67662
G1 X38.563 Y46.789 E25.90005
G1 X11.854 Y58.987 E29.03858
G1 X9.403 Y59.669 E29.31055
G1 X7.313 Y59.640 E29.53398
G1 X-21.751 Y55.461 E32.67252
G1 X-24.182 Y54.710 E32.94448
G1 X-25.924 Y53.555 E33.16792
G1 X-48.115 Y34.327 E36.30645
G1 X-49.754 Y32.381 E36.57842
G1 X-50.596 Y30.467 E36.80185
G1 X-58.868 Y2.294 E39.94038
G1 X-59.195 Y-0.229 E40.21235
G1 X-58.868 Y-2.294 E40.43578
G1 X-54.833 Y-16.038 E41.96685
G1 X-54.130 Y-15.894 F4800.000
G1 X-49.910 Y-30.266 E43.56790 F1080.000
G1 X-48.854 Y-32.454 E43.82759
G1 X-47.648 Y-33.787 E44.01979
G1 X-25.457 Y-53.016 E47.15833
G1 X-23.385 Y-54.285 E47.41802
G1 X-21.649 Y-54.754 E47.61022
G1 X7.414 Y-58.933 E50.74875
G1 X9.843 Y-58.881 E51.00844
G1 X11.557 Y-58.337 E51.20064 F1080.000
G1 X38.267 Y-46.140 E54.33917
G1 X40.282 Y-44.783 E54.59886
G1 X41.430 Y-43.399 E54.79106
G1 X57.305 Y-18.697 E57.92960
G1 X58.266 Y-16.466 E58.18929
G1 X58.484 Y-14.681 E58.38149
G1 X58.484 Y14.681 E61.52002
G1 X58.086 Y17.078 E61.77971
G1 X57.305 Y18.697 E61.97191
G1 X41.430 Y43.399 E65.11044
G1 X39.800 Y45.200 E65.37013
G1 X38.267 Y46.140 E65.56233
G1 X11.557 Y58.337 E68.70087
G1 X9.212 Y58.972 E68.96056
G1 X7.414 Y58.933 E69.15276
G1 X-21.649 Y54.754 E72.29129
G1 X-23.965 Y54.020 E72.55098
G1 X-25.457 Y53.016 E72.74318
G1 X-47.648 Y33.787 E75.88171
G1 X-49.199 Y31.917 E76.14140
G1 X-49.910 Y30.266 E76.33360
G1 X-58.183 Y2.093 E79.47214
G1 X-58.477 Y-0.319 E79.73183
G1 X-58.183 Y-2.093 E79.92403
G1 X-54.147 Y-15.837 E81.45510
G1 X-53.445 Y-15.693 F4800.000
G1 X-49.225 Y-30.065 E83.05615 F1080.000
G1 X-48.203 Y-32.135 E83.30295
G1 X-47.180 Y-33.247 E83.46450
G1 X-24.989 Y-52.476 E86.60304
G1 X-23.010 Y-53.665 E86.84984
G1 X-21.548 Y-54.048 E87.01139
G1 X7.516 Y-58.226 E90.14993
G1 X9.824 Y-58.157 E90.39673
G1 X11.261 Y-57.688 E90.55828 F1080.000
G1 X37.970 Y-45.490 E93.69682
G1 X39.874 Y-44.184 E93.94362
G1 X40.829 Y-43.013 E94.10517
G1 X56.704 Y-18.311 E97.24370
G1 X57.599 Y-16.183 E97.49051
G1 X57.770 Y-14.681 E97.65206
G1 X57.770 Y14.681 E100.79059
G1 X57.373 Y16.956 E101.03740
G1 X56.704 Y18.311 E101.19895
G1 X40.829 Y43.013 E104.33748
G1 X39.265 Y44.712 E104.58428
G1 X37.970 Y45.490 E104.74584
G1 X11.261 Y57.688 E107.88437
G1 X9.027 Y58.272 E108.13117
G1 X7.516 Y58.226 E108.29273
G1 X-21.548 Y54.048 E111.43126
G1 X-23.743 Y53.331 E111.67806
G1 X-24.989 Y52.476 E111.83962
G1 X-47.180 Y33.247 E114.97815
G1 X-48.639 Y31.458 E115.22495
G1 X-49.225 Y30.065 E115.38650
G1 X-57.498 Y1.892 E118.52504
G1 X-57.757 Y-0.403 E118.77184
G1 X-57.498 Y-1.892 E118.93339
G1 X-53.462 Y-15.635 E120.46446
G1 E118.46446 F2400.00000
G92 E0
G1 X-41.380 Y-27.272 F4800.000
G1 E2.00000 F2400.00000
G1 X-19.899 Y-45.885 E5.03810 F360.000
G1 X-18.667 Y-46.062 E5.17117
G1 X8.234 Y-49.930 E8.07620 F360.000
G1 X34.089 Y-38.123 E11.11430
G1 X49.455 Y-14.212 E14.15240
G1 X49.455 Y14.212 E17.19050
G1 X34.089 Y38.123 E20.22861
G1 X8.234 Y49.930 E23.26671
G1 X-19.899 Y45.885 E26.30481
G1 X-41.380 Y27.272 E29.34291
G1 X-49.388 Y0.000 E32.38101
G1 X-41.397 Y-27.214 E35.41270
G1 X-41.529 Y-27.643 F4800.000
G1 X-42.532 Y-27.610 F4800.000
G1 X-42.432 Y-27.948 E35.45036 F360.000
G1 X-20.419 Y-47.022 E38.56379
G1 X8.412 Y-51.168 E41.67721
G1 X33.946 Y-39.507 E44.67765
G1 X34.908 Y-39.068 E44.79064 F360.000
G1 X50.655 Y-14.564 E47.90406
G1 X50.655 Y14.564 E51.01749
G1 X34.908 Y39.068 E54.13091
G1 X8.412 Y51.168 E57.24434
G1 X-20.419 Y47.022 E60.35777
G1 X-42.432 Y27.948 E63.47119
G1 X-50.639 Y-0.000 E66.58462
G1 X-42.548 Y-27.552 E69.65397
G1 X-42.189 Y-27.693 F4800.000
G1 X-41.956 Y-27.441 F4800.000
G1 X-41.902 Y-27.607 E69.69358 F360.000
G1 X-41.852 Y-27.657 E69.70945
G1 X-20.157 Y-46.449 E76.21418
G1 X8.253 Y-50.539 E82.71891
G1 X8.323 Y-50.544 E82.73478
G1 X8.388 Y-50.519 E82.75065
G1 X34.495 Y-38.591 E89.25538
G1 X50.017 Y-14.448 E95.76011
G1 X50.050 Y-14.386 E95.77598
G1 X50.055 Y-14.316 E95.79185
G1 X50.050 Y14.386 E102.29658
G1 X34.495 Y38.591 E108.81714
G1 X8.388 Y50.519 E115.32187
G1 X8.323 Y50.544 E115.33774
G1 X8.253 Y50.539 E115.35361
G1 X-20.157 Y46.449 E121.85834
G1 X-41.852 Y27.656 E128.36307
G1 X-41.902 Y27.607 E128.37894
G1 X-41.926 Y27.541 E128.39482
G1 X-50.008 Y-0.000 E134.89954
G1 X-41.973 Y-27.383 E141.36692 F360.000
M104 S185 ; set temperature
M140 S60 ; wait for bed temperature to be reached
G1 Z0.600 F4800.000
G1 X-41.661 Y-27.354 F4800.000
G1 X-41.637 Y-27.437 E141.37096 F2400.000
G1 X-20.026 Y-46.162 E142.71550
G1 X-17.035 Y-46.592 E142.85761
G1 X8.278 Y-50.232 E144.06005 F2400.000
G1 X34.289 Y-38.353 E145.40459
G1 X49.748 Y-14.297 E146.74914
G1 X49.748 Y14.297 E148.09368
G1 X34.289 Y38.353 E149.43823
G1 X8.278 Y50.232 E150.78277
G1 X-20.026 Y46.162 E152.12732
G1 X-41.637 Y27.437 E153.47187
G1 X-49.693 Y0.000 E154.81641
G1 X-41.678 Y-27.297 E156.15409
G1 X-41.205 Y-27.159 F4800.000
G1 X-19.813 Y-45.695 E156.91048 F1200.000
G1 X-16.965 Y-46.105 E156.98737
G1 X8.205 Y-49.724 E157.66687 F1200.000
G1 X33.952 Y-37.965 E158.42325
G1 X49.255 Y-14.153 E159.17964
G1 X49.255 Y14.153 E159.93603
G1 X33.952 Y37.965 E160.69241
G1 X8.205 Y49.724 E161.44880
G1 X-19.813 Y45.695 E162.20519
G1 X-41.205 Y27.159 E162.96157
G1 X-49.179 Y0.000 E163.71796
G1 X-41.222 Y-27.101 E164.47274
G1 X-41.353 Y-27.530 F4800.000
G1 X-42.267 Y-27.471 F4800.000
G1 X-42.176 Y-27.783 E164.48803 F2400.000
G1 X-20.292 Y-46.745 E165.84955
G1 X8.369 Y-50.866 E167.21107
G1 X32.222 Y-39.972 E168.44408
G1 X34.708 Y-38.837 E168.57258 F2400.000
G1 X50.363 Y-14.478 E169.93410
G1 X50.363 Y14.478 E171.29561
G1 X34.708 Y38.837 E172.65713
G1 X8.369 Y50.866 E174.01865
G1 X-20.292 Y46.745 E175.38016
G1 X-42.176 Y27.783 E176.74168
G1 X-50.333 Y0.000 E178.10320
G1 X-42.284 Y-27.413 E179.44660
G1 X-42.740 Y-27.610 F4800.000
G1 X-42.608 Y-28.061 E179.45916 F1200.000
G1 X-20.506 Y-47.212 E180.24065
G1 X8.442 Y-51.374 E181.02215
G1 X32.427 Y-40.421 E181.72675
G1 X35.044 Y-39.225 E181.80364 F1200.000
G1 X50.855 Y-14.623 E182.58514
G1 X50.855 Y14.623 E183.36663
G1 X35.044 Y39.225 E184.14813
G1 X8.442 Y51.374 E184.92962
G1 X-20.506 Y47.212 E185.71112
G1 X-42.608 Y28.061 E186.49261
G1 X-50.847 Y0.000 E187.27411
G1 X-42.757 Y-27.552 E188.04144
G1 X-42.351 Y-27.704 F4800.000
G1 Z0.800 F4800.000
G1 X-41.678 Y-27.298 F4800.000
G1 X-41.637 Y-27.437 E188.04825 F2400.000
G1 X-20.026 Y-46.162 E189.39279
G1 X-15.919 Y-46.753 E189.58791
G1 X8.278 Y-50.232 E190.73734 F2400.000
G1 X34.289 Y-38.353 E192.08188
G1 X49.748 Y-14.297 E193.42643
G1 X49.748 Y14.297 E194.77097
G1 X34.289 Y38.353 E196.11552
G1 X8.278 Y50.232 E197.46007
G1 X-20.026 Y46.162 E198.80461
G1 X-41.637 Y27.437 E200.14916
G1 X-49.693 Y0.000 E201.49370
G1 X-41.694 Y-27.240 E202.82862
G1 X-41.205 Y-27.159 F4800.000
G1 X-19.813 Y-45.695 E203.58501 F1200.000
G1 X-15.849 Y-46.265 E203.69203
G1 X8.205 Y-49.724 E204.34140 F1200.000
G1 X33.952 Y-37.965 E205.09778
G1 X49.255 Y-14.153 E205.85417
G1 X49.255 Y14.153 E206.61056
G1 X33.952 Y37.965 E207.36694
G1 X8.205 Y49.724 E208.12333
G1 X-19.813 Y45.695 E208.87972
G1 X-41.205 Y27.159 E209.63610
G1 X-49.179 Y0.000 E210.39249
G1 X-41.222 Y-27.101 E211.14727
G1 X-41.353 Y-27.530 F4800.000
G1 X-41.930 Y-27.996 F4800.000
G1 X-20.292 Y-46.745 E212.49350 F2400.000
G1 X8.369 Y-50.866 E213.85502
G1 X31.154 Y-40.460 E215.03281
G1 X34.708 Y-38.837 E215.21654 F2400.000
G1 X50.363 Y-14.478 E216.57805
G1 X50.363 Y14.478 E217.93957
G1 X34.708 Y38.837 E219.30108
G1 X8.369 Y50.866 E220.66260
G1 X-20.292 Y46.745 E222.02412
G1 X-42.176 Y27.783 E223.38563
G1 X-50.333 Y0.000 E224.74715
G1 X-42.176 Y-27.783 E226.10867
G1 X-41.975 Y-27.957 E226.12113
G1 X-42.253 Y-28.368 F4800.000
G1 X-20.506 Y-47.212 E226.89007 F1200.000
G1 X8.442 Y-51.374 E227.67157
G1 X31.358 Y-40.909 E228.34478
G1 X35.044 Y-39.225 E228.45306 F1200.000
G1 X50.855 Y-14.623 E229.23456
G1 X50.855 Y14.623 E230.01605
G1 X35.044 Y39.225 E230.79755
G1 X8.442 Y51.374 E231.57904
G1 X-20.506 Y47.212 E232.36054
G1 X-42.608 Y28.061 E233.14203
G1 X-50.847 Y0.000 E233.92353
G1 X-42.608 Y-28.061 E234.70502
G1 X-42.298 Y-28.329 E234.71597
G1 X-41.875 Y-28.237 F4800.000
M106 S124.95
G1 Z1.000 F4800.000
G1 X-41.527 Y-27.531 F4800.000
G1 X-20.026 Y-46.162 E236.05372 F2400.000
G1 X8.278 Y-50.232 E237.39826
G1 X34.289 Y-38.353 E238.74281
G1 X49.748 Y-14.297 E240.08735
G1 X49.748 Y14.297 E241.43190
G1 X34.289 Y38.353 E242.77644
G1 X8.278 Y50.232 E244.12099
G1 X-20.026 Y46.162 E245.46554
G1 X-41.637 Y27.437 E246.81008
G1 X-49.693 Y0.000 E248.15463
G1 X-41.637 Y-27.437 E249.49917
G1 X-41.573 Y-27.492 E249.50315 F2400.000
G1 X-41.205 Y-27.159 F4800.000
G1 X-19.813 Y-45.695 E250.25954 F1200.000
G1 X8.205 Y-49.724 E251.01593
G1 X33.952 Y-37.965 E251.77231
G1 X49.255 Y-14.153 E252.52870
G1 X49.255 Y14.153 E253.28509
G1 X33.952 Y37.965 E254.04147
G1 X8.205 Y49.724 E254.79786
G1 X-19.813 Y45.695 E255.55425
G1 X-41.205 Y27.159 E256.31063
G1 X-49.179 Y0.000 E257.06702
G1 X-41.222 Y-27.101 E257.82180
G1 X-41.353 Y-27.530 F4800.000
G1 X-42.267 Y-27.471 F4800.000
G1 X-42.176 Y-27.783 E257.83709 F2400.000
G1 X-20.292 Y-46.745 E259.19861
G1 X8.369 Y-50.866 E260.56012
G1 X30.085 Y-40.948 E261.68269
G1 X34.708 Y-38.837 E261.92164 F2400.000
G1 X50.363 Y-14.478 E263.28316
G1 X50.363 Y14.478 E264.64467
G1 X34.708 Y38.837 E266.00619
G1 X8.369 Y50.866 E267.36771
G1 X-20.292 Y46.745 E268.72922
G1 X-42.176 Y27.783 E270.09074
G1 X-50.333 Y0.000 E271.45225
G1 X-42.284 Y-27.413 E272.79566
G1 X-42.740 Y-27.610 F4800.000
G1 X-42.608 Y-28.061 E272.80822 F1200.000
G1 X-20.506 Y-47.212 E273.58971
G1 X8.442 Y-51.374 E274.37121
G1 X30.290 Y-41.396 E275.01304
G1 X35.044 Y-39.225 E275.15270 F1200.000
G1 X50.855 Y-14.623 E275.93420
G1 X50.855 Y14.623 E276.71569
G1 X35.044 Y39.225 E277.49719
G1 X8.442 Y51.374 E278.27868
G1 X-20.506 Y47.212 E279.06018
G1 X-42.608 Y28.061 E279.84167
G1 X-50.847 Y0.000 E280.62317
G1 X-42.757 Y-27.552 E281.39050
G1 X-42.351 Y-27.704 F4800.000
M107
G1 Z1.200 F4800.000
G1 X-41.678 Y-27.298 F4800.000
G1 X-41.637 Y-27.437 E281.39731 F2400.000
G1 X-20.026 Y-46.162 E282.74185
G1 X-13.687 Y-47.074 E283.04301
G1 X8.278 Y-50.232 E284.08640 F2400.000
G1 X34.289 Y-38.353 E285.43094
G1 X49.748 Y-14.297 E286.77549
G1 X49.748 Y14.297 E288.12003
G1 X34.289 Y38.353 E289.46458
G1 X8.278 Y50.232 E290.80912
G1 X-20.026 Y46.162 E292.15367
G1 X-41.637 Y27.437 E293.49821
G1 X-49.693 Y-0.000 E294.84276
G1 X-41.694 Y-27.240 E296.17768
G1 X-41.205 Y-27.159 F4800.000
G1 X-19.813 Y-45.695 E296.93407 F1200.000
G1 X-13.616 Y-46.586 E297.10135
G1 X8.205 Y-49.724 E297.69046 F1200.000
G1 X33.952 Y-37.965 E298.44684
G1 X49.255 Y-14.153 E299.20323
G1 X49.255 Y14.153 E299.95962
G1 X33.952 Y37.965 E300.71600
G1 X8.205 Y49.724 E301.47239
G1 X-19.813 Y45.695 E302.22878
G1 X-41.205 Y27.159 E302.98516
G1 X-49.179 Y-0.000 E303.74155
G1 X-41.222 Y-27.101 E304.49633
G1 X-41.353 Y-27.530 F4800.000
G1 X-41.930 Y-27.996 F4800.000
G1 X-20.292 Y-46.745 E305.84256 F2400.000
G1 X8.369 Y-50.866 E307.20408
G1 X29.017 Y-41.436 E308.27142
G1 X34.708 Y-38.837 E308.56559 F2400.000
G1 X50.363 Y-14.478 E309.92711
G1 X50.363 Y14.478 E311.28863
G1 X34.708 Y38.837 E312.65014
G1 X8.369 Y50.866 E314.01166
G1 X-20.292 Y46.745 E315.37318
G1 X-42.176 Y27.783 E316.73469
G1 X-50.333 Y-0.000 E318.09621
G1 X-42.176 Y-27.783 E319.45772
G1 X-41.975 Y-27.957 E319.47019
G1 X-42.253 Y-28.368 F4800.000
G1 X-20.506 Y-47.212 E320.23913 F1200.000
G1 X8.442 Y-51.374 E321.02063
G1 X29.222 Y-41.884 E321.63107
G1 X35.044 Y-39.225 E321.80212 F1200.000
G1 X50.855 Y-14.623 E322.58362
G1 X50.855 Y14.623 E323.36511
G1 X35.044 Y39.225 E324.14661
G1 X8.442 Y51.374 E324.92810
G1 X-20.506 Y47.212 E325.70960
G1 X-42.608 Y28.061 E326.49109
G1 X-50.847 Y-0.000 E327.27259
G1 X-42.608 Y-28.061 E328.05408
G1 X-42.298 Y-28.329 E328.06503
G1 X-41.875 Y-28.237 F4800.000
G1 E326.06503 F2400.00000
G92 E0
G1 X24.750 Y4.340 F4800.000
G1 E2.00000 F2400.00000
M106 S255
G1 X25.100 Y3.926 E2.02549 F900.000
G1 X25.296 Y3.740 E2.03821
G1 X25.524 Y3.580 E2.05129
G1 X25.782 Y3.464 E2.06459
G1 X26.104 Y3.384 E2.08020
M107
M106 S255
G1 X26.610 Y3.311 E2.10423 F900.000
G1 X27.129 Y3.385 E2.12892
G1 X27.376 Y3.447 E2.14090
G1 X27.615 Y3.543 E2.15299
G1 X27.837 Y3.675 E2.16516
G1 X28.040 Y3.834 E2.17725
G1 X28.421 Y4.198 E2.20204
G1 X28.783 Y4.924 E2.24018
G1 X28.916 Y5.269 E2.25756
G1 X29.017 Y5.639 E2.27562
G1 X29.083 Y6.038 E2.29461
G1 X29.117 Y6.440 E2.31362
G1 X29.132 Y7.242 E2.35133
G1 X29.106 Y7.963 E2.38525
G1 X29.018 Y8.681 E2.41924
G1 X28.830 Y9.345 E2.45171
G1 X28.550 Y10.040 E2.48693
G1 X28.306 Y10.357 E2.50575
G1 X28.054 Y10.630 E2.52323
G1 X27.815 Y10.817 E2.53747
G1 X27.589 Y10.933 E2.54941
G1 X27.137 Y11.056 E2.57146
G1 X26.621 Y11.122 E2.59592
G1 X25.661 Y10.743 E2.64446
G1 X25.237 Y10.514 E2.66709
G1 X24.909 Y10.268 E2.68639
G1 X24.697 Y10.043 E2.70094
G1 X24.544 Y9.819 E2.71370
G1 X24.338 Y9.351 E2.73770
G1 X24.219 Y8.844 E2.76219
G1 X24.158 Y8.306 E2.78766
G1 X24.132 Y7.189 E2.84022
G1 X24.156 Y6.450 E2.87498
G1 X24.247 Y5.719 E2.90958
G1 X24.335 Y5.368 E2.92662
G1 X24.449 Y5.039 E2.94301
G1 X24.726 Y4.395 E2.97595
M107
G1 X24.086 Y4.635 F4800.000
M106 S255
G1 X23.863 Y5.227 E3.00573 F900.000
G1 X23.761 Y5.628 E3.02517
G1 X23.664 Y6.411 E3.06227
G1 X23.639 Y7.186 E3.09874
G1 X23.666 Y8.339 E3.15296
G1 X23.732 Y8.929 E3.18085
G1 X23.821 Y9.305 E3.19902
G1 X23.484 Y9.408 E3.21559
G1 X23.317 Y8.972 E3.23757
G1 X23.216 Y8.576 E3.25677
G1 X23.150 Y8.153 E3.27690
G1 X23.078 Y7.246 E3.31970
G1 X23.145 Y6.335 E3.36264
G1 X23.207 Y5.906 E3.38302
G1 X23.302 Y5.502 E3.40255
G1 X23.438 Y5.121 E3.42157
G1 X23.613 Y4.746 E3.44102
G1 X23.767 Y4.476 E3.45564
G1 X24.033 Y4.608 E3.46959
M107
G1 E1.46959 F2400.00000
G92 E0
G1 X29.640 Y4.697 F4800.000
G1 E2.00000 F2400.00000
M106 S255
G1 X29.823 Y5.066 E2.01939 F900.000
G1 X29.965 Y5.446 E2.03843
G1 X30.064 Y5.854 E2.05817
G1 X30.128 Y6.289 E2.07887
G1 X30.193 Y7.225 E2.12296
G1 X30.126 Y8.137 E2.16597
G1 X30.063 Y8.563 E2.18623
G1 X29.966 Y8.964 E2.20562
G1 X29.828 Y9.340 E2.22446
G1 X29.651 Y9.710 E2.24375
G1 X29.460 Y10.034 E2.26144
G1 X29.146 Y9.880 E2.27790
G1 X29.297 Y9.505 E2.29691
G1 X29.503 Y8.778 E2.33241
G1 X29.598 Y8.002 E2.36919
G1 X29.625 Y7.247 E2.40473
G1 X29.609 Y6.415 E2.44383
G1 X29.573 Y5.977 E2.46453
G1 X29.499 Y5.534 E2.48564
G1 X29.385 Y5.115 E2.50607
G1 X29.198 Y4.631 E2.53043
G1 X29.507 Y4.479 E2.54663
G1 X29.609 Y4.646 E2.55583
M107
G1 X30.060 Y4.439 F4800.000
M106 S255
G1 X30.276 Y4.870 E2.57848 F900.000
G1 X30.437 Y5.301 E2.60010
G1 X30.548 Y5.760 E2.62229
G1 X30.618 Y6.236 E2.64495
G1 X30.687 Y7.226 E2.69158
G1 X30.616 Y8.191 E2.73709
G1 X30.547 Y8.657 E2.75925
G1 X30.438 Y9.106 E2.78098
G1 X30.283 Y9.532 E2.80229
G1 X30.086 Y9.942 E2.82367
G1 X29.597 Y10.775 E2.86908
G1 X28.975 Y11.380 E2.90989
G1 X28.654 Y11.631 E2.92907
G1 X28.312 Y11.830 E2.94765
G1 X27.939 Y11.969 E2.96637
G1 X27.536 Y12.062 E2.98582
G1 X26.676 Y12.166 E3.02655
