; generated by Slic3r 1.2.9 on 2018-03-26 at 21:35:21

; external perimeters extrusion width = 0.40mm
; perimeters extrusion width = 0.67mm
; infill extrusion width = 0.67mm
; solid infill extrusion width = 0.67mm
; top infill extrusion width = 0.67mm

M107
M190 S65 ; set bed temperature
M104 S190 ; set temperature
G28 ; home all axes
G1 Z5 F5000 ; lift nozzle

M109 S190 ; wait for temperature to be reached
G21 ; set units to millimeters
G90 ; use absolute coordinates
M82 ; use absolute distances for extrusion
G92 E0
G1 Z0.400 F4800.000
G1 E-2.00000 F2400.00000
G92 E0
G1 X37.780 Y-37.780 F4800.000
G1 E2.00000 F2400.00000
G1 X51.253 Y-24.306 E4.03664 F1080.000
G1 X52.666 Y-22.331 E4.29633
G1 X53.428 Y-19.054 E4.65593
G1 X53.428 Y19.054 E8.72920
G1 X53.031 Y21.451 E8.98889
G1 X51.253 Y24.306 E9.34849
G1 X24.306 Y51.253 E13.42177
G1 X22.331 Y52.666 E13.68146
G1 X19.054 Y53.428 E14.04106
G1 X-19.054 Y53.428 E18.11433
G1 X-21.451 Y53.031 E18.37402
G1 X-24.306 Y51.253 E18.73362
G1 X-51.253 Y24.306 E22.80690
G1 X-52.666 Y22.331 E23.06659
G1 X-53.428 Y19.054 E23.42619
G1 X-53.428 Y-19.054 E27.49947
G1 X-53.031 Y-21.451 E27.75916
G1 X-51.253 Y-24.306 E28.11876
G1 X-24.306 Y-51.253 E32.19203
G1 X-22.331 Y-52.666 E32.45172
G1 X-19.054 Y-53.428 E32.81132
G1 X19.054 Y-53.428 E36.88460
G1 X21.451 Y-53.031 E37.14429
G1 X24.306 Y-51.253 E37.50389 F1080.000
G1 X37.737 Y-37.822 E39.53411
G1 X37.275 Y-37.275 F4800.000
G1 X50.748 Y-23.801 E41.57075 F1080.000
G1 X52.075 Y-21.912 E41.81755
G1 X52.714 Y-19.054 E42.13063
G1 X52.714 Y19.054 E46.20391
G1 X52.317 Y21.328 E46.45071
G1 X50.748 Y23.801 E46.76379
G1 X23.801 Y50.748 E50.83707
G1 X21.912 Y52.075 E51.08387
G1 X19.054 Y52.714 E51.39695
G1 X-19.054 Y52.714 E55.47023
G1 X-21.328 Y52.317 E55.71703
G1 X-23.801 Y50.748 E56.03011
G1 X-50.748 Y23.801 E60.10339
G1 X-52.075 Y21.912 E60.35019
G1 X-52.714 Y19.054 E60.66327
G1 X-52.714 Y-19.054 E64.73655
G1 X-52.317 Y-21.328 E64.98335
G1 X-50.748 Y-23.801 E65.29643
G1 X-23.801 Y-50.748 E69.36971
G1 X-21.912 Y-52.075 E69.61651
G1 X-19.054 Y-52.714 E69.92959
G1 X19.054 Y-52.714 E74.00287
G1 X21.328 Y-52.317 E74.24967
G1 X23.801 Y-50.748 E74.56275 F1080.000
G1 X37.232 Y-37.317 E76.59298
G1 E74.59298 F2400.00000
G92 E0
G1 X-8.725 Y-44.172 F4800.000
G1 E2.00000 F2400.00000
G1 X18.297 Y-44.172 E4.88834 F720.000
G1 X44.172 Y-18.297 E8.79972
G1 X44.172 Y18.297 E12.71110 F720.000
G1 X18.297 Y44.172 E16.62248
G1 X-18.297 Y44.172 E20.53386
G1 X-44.172 Y18.297 E24.44524
G1 X-44.172 Y-18.297 E28.35661
G1 X-18.297 Y-44.172 E32.26799
G1 X-8.785 Y-44.172 E33.28462
G1 X-8.725 Y-44.886 F4800.000
G1 X18.592 Y-44.886 E36.20458 F720.000
G1 X44.886 Y-18.592 E40.17919
G1 X44.886 Y18.592 E44.15381 F720.000
G1 X18.592 Y44.886 E48.12843
G1 X-18.592 Y44.886 E52.10304
G1 X-44.886 Y18.592 E56.07766
G1 X-44.886 Y-18.592 E60.05228
G1 X-18.592 Y-44.886 E64.02690
G1 X-8.785 Y-44.886 E65.07514
G1 X-8.725 Y-45.600 F4800.000
G1 X18.888 Y-45.600 E68.02672 F360.000
G1 X45.600 Y-18.888 E72.06457
G1 X45.600 Y18.888 E76.10243 F360.000
G1 X18.888 Y45.600 E80.14029
G1 X-18.888 Y45.600 E84.17814
G1 X-45.600 Y18.888 E88.21600
G1 X-45.600 Y-18.888 E92.25385
G1 X-18.888 Y-45.600 E96.29171
G1 X-8.785 Y-45.600 E97.37157
G1 X-8.525 Y-45.254 F4800.000
G1 X43.736 Y-17.874 F4800.000
G1 X17.874 Y-43.736 E101.28113 F360.000
G1 X16.864 Y-43.736 E101.38909
G1 X43.736 Y-16.864 E105.45133
G1 X43.736 Y-15.854 E105.55929
G1 X15.854 Y-43.736 E109.77421
G1 X14.844 Y-43.736 E109.88217
G1 X43.736 Y-14.844 E114.24977
G1 X43.736 Y-13.834 E114.35772
G1 X13.834 Y-43.736 E118.87800
G1 X12.824 Y-43.736 E118.98596
G1 X43.736 Y-12.824 E123.65891
G1 X43.736 Y-11.814 E123.76687
G1 X11.814 Y-43.736 E128.59250
G1 X10.804 Y-43.736 E128.70046
G1 X43.736 Y-10.804 E133.67877
G1 X43.736 Y-9.794 E133.78673
G1 X9.794 Y-43.736 E138.91771
G1 X8.784 Y-43.736 E139.02567
G1 X43.736 Y-8.784 E144.30933
G1 X43.736 Y-7.774 E144.41729
G1 X7.774 Y-43.736 E149.85363
G1 X6.764 Y-43.736 E149.96159
G1 X43.736 Y-6.764 E155.55061
G1 X43.736 Y-5.754 E155.65857
G1 X5.754 Y-43.736 E161.40027
G1 X4.744 Y-43.736 E161.50823
G1 X43.736 Y-4.744 E167.40260
G1 X43.736 Y-3.734 E167.51056
G1 X3.734 Y-43.736 E173.55762
G1 X2.724 Y-43.736 E173.66558
G1 X43.736 Y-2.724 E179.86531
G1 X43.736 Y-1.714 E179.97327
G1 X1.714 Y-43.736 E186.32567
G1 X0.704 Y-43.736 E186.43363
G1 X43.736 Y-0.704 E192.93872
G1 X43.736 Y0.306 E193.04668
G1 X-0.306 Y-43.736 E199.70444
G1 X-1.316 Y-43.736 E199.81240
G1 X43.736 Y1.316 E206.62284
G1 X43.736 Y2.326 E206.73080
G1 X-2.326 Y-43.736 E213.69392
G1 X-3.336 Y-43.736 E213.80188
G1 X43.736 Y3.336 E220.91768
G1 X43.736 Y4.346 E221.02564
G1 X-4.346 Y-43.736 E228.29411
G1 X-5.356 Y-43.736 E228.40207
G1 X43.736 Y5.356 E235.82323
G1 X43.736 Y6.366 E235.93119
G1 X-6.366 Y-43.736 E243.50502
G1 X-7.376 Y-43.736 E243.61298
G1 X43.736 Y7.376 E251.33949
G1 X43.736 Y8.386 E251.44745
G1 X-8.386 Y-43.736 E259.32663
G1 X-9.396 Y-43.736 E259.43459
G1 X43.736 Y9.396 E267.46646
G1 X43.736 Y10.406 E267.57442
G1 X-10.406 Y-43.736 E275.75896
G1 X-11.416 Y-43.736 E275.86692
G1 X43.736 Y11.416 E284.20414
G1 X43.736 Y12.426 E284.31210
G1 X-12.426 Y-43.736 E292.80200
G1 X-13.436 Y-43.736 E292.90996
G1 X43.736 Y13.436 E301.55253
G1 X43.736 Y14.446 E301.66049
G1 X-14.446 Y-43.736 E310.45574
G1 X-15.456 Y-43.736 E310.56370
G1 X43.736 Y15.456 E319.51164
G1 X43.736 Y16.466 E319.61959
G1 X-16.466 Y-43.736 E328.72020
G1 X-17.476 Y-43.736 E328.82816
G1 X43.736 Y17.476 E338.08145
G1 X43.581 Y18.331 E338.17434
G1 X-18.331 Y-43.581 E347.53349
G1 X-18.836 Y-43.076 E347.60983
G1 X43.076 Y18.836 E356.96898
G1 X42.571 Y19.341 E357.04532
G1 X-19.341 Y-42.571 E366.40446
G1 X-19.846 Y-42.066 E366.48080
G1 X42.066 Y19.846 E375.83995
G1 X41.561 Y20.351 E375.91629
G1 X-20.351 Y-41.561 E385.27544
G1 X-20.856 Y-41.056 E385.35177
G1 X41.056 Y20.856 E394.71092
G1 X40.551 Y21.361 E394.78726
G1 X-21.361 Y-40.551 E404.14641
G1 X-21.866 Y-40.046 E404.22275
G1 X40.046 Y21.866 E413.58189
G1 X39.541 Y22.371 E413.65823
G1 X-22.371 Y-39.541 E423.01738
G1 X-22.876 Y-39.036 E423.09372
G1 X39.036 Y22.876 E432.45287
G1 X38.531 Y23.381 E432.52920
G1 X-23.381 Y-38.531 E441.88835
G1 X-23.886 Y-38.026 E441.96469
G1 X38.026 Y23.886 E451.32384
G1 X37.521 Y24.391 E451.40018
G1 X-24.391 Y-37.521 E460.75932
G1 X-24.896 Y-37.016 E460.83566
G1 X37.016 Y24.896 E470.19481
G1 X36.511 Y25.401 E470.27115
G1 X-25.401 Y-36.511 E479.63030
G1 X-25.906 Y-36.006 E479.70663
G1 X36.006 Y25.906 E489.06578
G1 X35.501 Y26.411 E489.14212
G1 X-26.411 Y-35.501 E498.50127
G1 X-26.916 Y-34.996 E498.57761
G1 X34.996 Y26.916 E507.93675
G1 X34.491 Y27.421 E508.01309
G1 X-27.421 Y-34.491 E517.37224
G1 X-27.926 Y-33.986 E517.44858
G1 X33.986 Y27.926 E526.80773
G1 X33.481 Y28.431 E526.88406
G1 X-28.431 Y-33.481 E536.24321
G1 X-28.936 Y-32.976 E536.31955
G1 X32.976 Y28.936 E545.67870
G1 X32.471 Y29.441 E545.75504
G1 X-29.441 Y-32.471 E555.11418
G1 X-29.946 Y-31.966 E555.19052
G1 X31.966 Y29.946 E564.54967
G1 X31.461 Y30.451 E564.62601
G1 X-30.451 Y-31.461 E573.98516
G1 X-30.956 Y-30.956 E574.06149
G1 X30.956 Y30.956 E583.42064
G1 X30.451 Y31.461 E583.49698
G1 X-31.461 Y-30.451 E592.85613
G1 X-31.966 Y-29.946 E592.93247
G1 X29.946 Y31.966 E602.29161
G1 X29.441 Y32.471 E602.36795
G1 X-32.471 Y-29.441 E611.72710
G1 X-32.976 Y-28.936 E611.80344
G1 X28.936 Y32.976 E621.16259
G1 X28.431 Y33.481 E621.23892
G1 X-33.481 Y-28.431 E630.59807
G1 X-33.986 Y-27.926 E630.67441
G1 X27.926 Y33.986 E640.03356
G1 X27.421 Y34.491 E640.10990
G1 X-34.491 Y-27.421 E649.46904
G1 X-34.996 Y-26.916 E649.54538
G1 X26.916 Y34.996 E658.90453
G1 X26.411 Y35.501 E658.98087
G1 X-35.501 Y-26.411 E668.34002
G1 X-36.006 Y-25.906 E668.41635
G1 X25.906 Y36.006 E677.77550
G1 X25.401 Y36.511 E677.85184
G1 X-36.511 Y-25.401 E687.21099
G1 X-37.016 Y-24.896 E687.28733
G1 X24.896 Y37.016 E696.64647
G1 X24.391 Y37.521 E696.72281
G1 X-37.521 Y-24.391 E706.08196
G1 X-38.026 Y-23.886 E706.15830
G1 X23.886 Y38.026 E715.51745
G1 X23.381 Y38.531 E715.59378
G1 X-38.531 Y-23.381 E724.95293
G1 X-39.036 Y-22.876 E725.02927
G1 X22.876 Y39.036 E734.38842
G1 X22.371 Y39.541 E734.46476
G1 X-39.541 Y-22.371 E743.82390
G1 X-40.046 Y-21.866 E743.90024
G1 X21.866 Y40.046 E753.25939
G1 X21.361 Y40.551 E753.33573
G1 X-40.551 Y-21.361 E762.69488
G1 X-41.056 Y-20.856 E762.77121
G1 X20.856 Y41.056 E772.13036
G1 X20.351 Y41.561 E772.20670
G1 X-41.561 Y-20.351 E781.56585
G1 X-42.066 Y-19.846 E781.64219
G1 X19.846 Y42.066 E791.00133
G1 X19.341 Y42.571 E791.07767
G1 X-42.571 Y-19.341 E800.43682
G1 X-43.076 Y-18.836 E800.51316
G1 X18.836 Y43.076 E809.87231
G1 X18.331 Y43.581 E809.94864
G1 X-43.581 Y-18.331 E819.30779
G1 X-43.736 Y-17.476 E819.40069
G1 X17.476 Y43.736 E828.65397
G1 X16.466 Y43.736 E828.76193
G1 X-43.736 Y-16.466 E837.86253
G1 X-43.736 Y-15.456 E837.97049
G1 X15.456 Y43.736 E846.91841
G1 X14.446 Y43.736 E847.02637
G1 X-43.736 Y-14.446 E855.82162
G1 X-43.736 Y-13.436 E855.92958
G1 X13.436 Y43.736 E864.57215
G1 X12.426 Y43.736 E864.68011
G1 X-43.736 Y-12.426 E873.17000
G1 X-43.736 Y-11.416 E873.27796
G1 X11.416 Y43.736 E881.61517
G1 X10.406 Y43.736 E881.72313
G1 X-43.736 Y-10.406 E889.90767
G1 X-43.736 Y-9.396 E890.01563
G1 X9.396 Y43.736 E898.04749
G1 X8.386 Y43.736 E898.15544
G1 X-43.736 Y-8.386 E906.03462
G1 X-43.736 Y-7.376 E906.14258
G1 X7.376 Y43.736 E913.86909
G1 X6.366 Y43.736 E913.97705
G1 X-43.736 Y-6.366 E921.55087
G1 X-43.736 Y-5.356 E921.65883
G1 X5.356 Y43.736 E929.07998
G1 X4.346 Y43.736 E929.18794
G1 X-43.736 Y-4.346 E936.45640
G1 X-43.736 Y-3.336 E936.56436
G1 X3.336 Y43.736 E943.68015
G1 X2.326 Y43.736 E943.78811
G1 X-43.736 Y-2.326 E950.75123
G1 X-43.736 Y-1.316 E950.85919
G1 X1.316 Y43.736 E957.66962
G1 X0.306 Y43.736 E957.77758
G1 X-43.736 Y-0.306 E964.43534
G1 X-43.736 Y0.704 E964.54330
G1 X-0.704 Y43.736 E971.04838
G1 X-1.714 Y43.736 E971.15634
G1 X-43.736 Y1.714 E977.50874
G1 X-43.736 Y2.724 E977.61670
G1 X-2.724 Y43.736 E983.81642
G1 X-3.734 Y43.736 E983.92438
G1 X-43.736 Y3.734 E989.97143
G1 X-43.736 Y4.744 E990.07939
G1 X-4.744 Y43.736 E995.97375
G1 X-5.754 Y43.736 E996.08171
G1 X-43.736 Y5.754 E1001.82340
G1 X-43.736 Y6.764 E1001.93136
G1 X-6.764 Y43.736 E1007.52037
G1 X-7.774 Y43.736 E1007.62833
G1 X-43.736 Y7.774 E1013.06467
G1 X-43.736 Y8.784 E1013.17263
G1 X-8.784 Y43.736 E1018.45628
G1 X-9.794 Y43.736 E1018.56424
G1 X-43.736 Y9.794 E1023.69522
G1 X-43.736 Y10.804 E1023.80318
G1 X-10.804 Y43.736 E1028.78148
G1 X-11.814 Y43.736 E1028.88944
G1 X-43.736 Y11.814 E1033.71507
G1 X-43.736 Y12.824 E1033.82303
G1 X-12.824 Y43.736 E1038.49597
G1 X-13.834 Y43.736 E1038.60393
G1 X-43.736 Y13.834 E1043.12420
G1 X-43.736 Y14.844 E1043.23216
G1 X-14.844 Y43.736 E1047.59975
G1 X-15.854 Y43.736 E1047.70771
G1 X-43.736 Y15.854 E1051.92262
G1 X-43.736 Y16.864 E1052.03058
G1 X-16.864 Y43.736 E1056.09281
G1 X-17.874 Y43.736 E1056.20077
G1 X-43.736 Y17.874 E1060.11033
M104 S185 ; set temperature
M140 S60 ; wait for bed temperature to be reached
G1 Z0.600 F4800.000
G1 X-8.725 Y-44.679 F4800.000
G1 X18.507 Y-44.679 E1061.39079 F2400.000
G1 X44.679 Y-18.507 E1063.13117
G1 X44.679 Y18.507 E1064.87155 F2400.000
G1 X18.507 Y44.679 E1066.61193
G1 X-18.507 Y44.679 E1068.35231
G1 X-44.679 Y18.507 E1070.09269
G1 X-44.679 Y-18.507 E1071.83307
G1 X-18.507 Y-44.679 E1073.57345
G1 X-8.785 Y-44.679 E1074.03054
G1 X-8.725 Y-45.307 F4800.000
G1 X18.767 Y-45.307 E1075.32324 F2400.000
G1 X45.307 Y-18.767 E1077.08810
G1 X45.307 Y18.767 E1078.85295 F2400.000
G1 X18.767 Y45.307 E1080.61781
G1 X-18.767 Y45.307 E1082.38266
G1 X-45.307 Y18.767 E1084.14752
G1 X-45.307 Y-18.767 E1085.91237
G1 X-18.767 Y-45.307 E1087.67723
G1 X-8.785 Y-45.307 E1088.14656
G1 X-8.725 Y-45.800 F4800.000
G1 X18.971 Y-45.800 E1088.88667 F1200.000
G1 X45.800 Y-18.971 E1089.90056
G1 X45.800 Y18.971 E1090.91445 F1200.000
G1 X18.971 Y45.800 E1091.92834
G1 X-18.971 Y45.800 E1092.94223
G1 X-45.800 Y18.971 E1093.95612
G1 X-45.800 Y-18.971 E1094.97001
G1 X-18.971 Y-45.800 E1095.98391
G1 X-8.785 Y-45.800 E1096.25608
G1 X-8.525 Y-45.454 F4800.000
G1 X-18.132 Y-44.298 F4800.000
G1 X-44.298 Y-18.132 E1098.00248 F1200.000
G1 X-44.298 Y-17.240 E1098.04457
G1 X-17.240 Y-44.298 E1099.85048
G1 X-16.349 Y-44.298 E1099.89257
G1 X-44.298 Y-16.349 E1101.75802
G1 X-44.298 Y-15.457 E1101.80011
G1 X-15.457 Y-44.298 E1103.72507
G1 X-14.565 Y-44.298 E1103.76717
G1 X-44.298 Y-14.565 E1105.75166
G1 X-44.298 Y-13.673 E1105.79375
G1 X-13.673 Y-44.298 E1107.83777
G1 X-12.781 Y-44.298 E1107.87986
G1 X-44.298 Y-12.781 E1109.98340
G1 X-44.298 Y-11.889 E1110.02549
G1 X-11.889 Y-44.298 E1112.18856
G1 X-10.997 Y-44.298 E1112.23065
G1 X-44.298 Y-10.997 E1114.45325
G1 X-44.298 Y-10.105 E1114.49534
G1 X-10.105 Y-44.298 E1116.77746
G1 X-9.214 Y-44.298 E1116.81955
G1 X-44.298 Y-9.214 E1119.16120
G1 X-44.298 Y-8.322 E1119.20329
G1 X-8.322 Y-44.298 E1121.60446
G1 X-7.430 Y-44.298 E1121.64655
G1 X-44.298 Y-7.430 E1124.10725
G1 X-44.298 Y-6.538 E1124.14934
G1 X-6.538 Y-44.298 E1126.66956
G1 X-5.646 Y-44.298 E1126.71165
G1 X-44.298 Y-5.646 E1129.29140
G1 X-44.298 Y-4.754 E1129.33349
G1 X-4.754 Y-44.298 E1131.97276
G1 X-3.862 Y-44.298 E1132.01485
G1 X-44.298 Y-3.862 E1134.71365
G1 X-44.298 Y-2.971 E1134.75574
G1 X-2.971 Y-44.298 E1137.51407
G1 X-2.079 Y-44.298 E1137.55616
G1 X-44.298 Y-2.079 E1140.37401
G1 X-44.298 Y-1.187 E1140.41610
G1 X-1.187 Y-44.298 E1143.29347
G1 X-0.295 Y-44.298 E1143.33556
G1 X-44.298 Y-0.295 E1146.27247
G1 X-44.298 Y0.597 E1146.31456
G1 X0.597 Y-44.298 E1149.31098
G1 X1.489 Y-44.298 E1149.35307
G1 X-44.298 Y1.489 E1152.40902
G1 X-44.298 Y2.381 E1152.45112
G1 X2.381 Y-44.298 E1155.56659
G1 X3.272 Y-44.298 E1155.60868
G1 X-44.298 Y3.272 E1158.78369
G1 X-44.298 Y4.164 E1158.82578
G1 X4.164 Y-44.298 E1162.06030
G1 X5.056 Y-44.298 E1162.10240
G1 X-44.298 Y5.056 E1165.39645
G1 X-44.298 Y5.948 E1165.43854
G1 X5.948 Y-44.298 E1168.79212
G1 X6.840 Y-44.298 E1168.83421
G1 X-44.298 Y6.840 E1172.24731
G1 X-44.298 Y7.732 E1172.28941
G1 X7.732 Y-44.298 E1175.76204
G1 X8.624 Y-44.298 E1175.80413
G1 X-44.298 Y8.624 E1179.33628
G1 X-44.298 Y9.515 E1179.37837
G1 X9.515 Y-44.298 E1182.97005
G1 X10.407 Y-44.298 E1183.01214
G1 X-44.298 Y10.407 E1186.66335
G1 X-44.298 Y11.299 E1186.70544
G1 X11.299 Y-44.298 E1190.41617
G1 X12.191 Y-44.298 E1190.45826
G1 X-44.298 Y12.191 E1194.22852
G1 X-44.298 Y13.083 E1194.27061
G1 X13.083 Y-44.298 E1198.10040
G1 X13.975 Y-44.298 E1198.14249
G1 X-44.298 Y13.975 E1202.03179
G1 X-44.298 Y14.867 E1202.07389
G1 X14.867 Y-44.298 E1206.02272
G1 X15.759 Y-44.298 E1206.06481
G1 X-44.298 Y15.759 E1210.07317
G1 X-44.298 Y16.650 E1210.11526
G1 X16.650 Y-44.298 E1214.18315
G1 X17.542 Y-44.298 E1214.22524
G1 X-44.298 Y17.542 E1218.35265
G1 X-44.281 Y18.416 E1218.39391
G1 X18.416 Y-44.281 E1222.57848
G1 X18.862 Y-43.835 E1222.60825
G1 X-43.835 Y18.862 E1226.79282
G1 X-43.389 Y19.308 E1226.82258
G1 X19.308 Y-43.389 E1231.00715
G1 X19.754 Y-42.943 E1231.03691
G1 X-42.943 Y19.754 E1235.22149
G1 X-42.497 Y20.200 E1235.25125
G1 X20.200 Y-42.497 E1239.43582
G1 X20.646 Y-42.051 E1239.46558
G1 X-42.051 Y20.646 E1243.65016
G1 X-41.605 Y21.092 E1243.67992
G1 X21.092 Y-41.605 E1247.86449
G1 X21.538 Y-41.159 E1247.89425
G1 X-41.159 Y21.538 E1252.07883
G1 X-40.713 Y21.984 E1252.10859
G1 X21.984 Y-40.713 E1256.29316
G1 X22.430 Y-40.267 E1256.32292
G1 X-40.267 Y22.430 E1260.50750
G1 X-39.821 Y22.876 E1260.53726
G1 X22.876 Y-39.821 E1264.72183
G1 X23.322 Y-39.375 E1264.75159
G1 X-39.375 Y23.322 E1268.93617
G1 X-38.929 Y23.768 E1268.96593
G1 X23.768 Y-38.929 E1273.15050
G1 X24.214 Y-38.483 E1273.18026
G1 X-38.483 Y24.214 E1277.36484
G1 X-38.037 Y24.659 E1277.39460
G1 X24.659 Y-38.037 E1281.57917
G1 X25.105 Y-37.592 E1281.60893
G1 X-37.592 Y25.105 E1285.79351
G1 X-37.146 Y25.551 E1285.82327
G1 X25.551 Y-37.146 E1290.00784
G1 X25.997 Y-36.700 E1290.03760
G1 X-36.700 Y25.997 E1294.22218
G1 X-36.254 Y26.443 E1294.25194
G1 X26.443 Y-36.254 E1298.43651
G1 X26.889 Y-35.808 E1298.46627
G1 X-35.808 Y26.889 E1302.65085
G1 X-35.362 Y27.335 E1302.68061
G1 X27.335 Y-35.362 E1306.86518
G1 X27.781 Y-34.916 E1306.89494
G1 X-34.916 Y27.781 E1311.07952
