;FLAVOR:Marlin
;TIME:1614
;Filament used: 0.898246m
;Layer height: 0.2
;MINX:-25.45
;MINY:-25.45
;MINZ:0.3
;MAXX:25.45
;MAXY:25.449
;MAXZ:2.9
;Generated with Cura_SteamEngine 4.13.1
M140 S60
M105
M190 S60
M104 S200
M105
M109 S200
M82 ;absolute extrusion mode
G21 ;metric values
G90 ;absolute positioning
M82 ;set extruder to absolute mode
M107 ;start with the fan off
G28 ;Home all axes (max endstops)
G1 Z30.0 F9000 ;move the platform down 15mm
G92 E0 ;zero the extruded length
G1 f700 x0 y70 Z0 E9 F500 ; start purge line
G1 f700 x40 y50 E12.5 ; finish purge line
G92 E0 ;zero the extruded length again
G1 F9000
;Put printing message on LCD screen
M117 Printing...
G92 E0
G92 E0
G1 F750 E-6.5
;LAYER_COUNT:14
;LAYER:0
M107
G0 F3600 X19.143 Y-25.45 Z0.3
;TYPE:SKIRT
G1 F750 E0
G1 F900 X19.921 Y-25.439 E0.03882
G1 X20.588 Y-25.39 E0.07218
G1 X21.245 Y-25.261 E0.10559
G1 X21.881 Y-25.055 E0.13894
G1 X22.489 Y-24.774 E0.17236
G1 X23.058 Y-24.424 E0.20569
G1 X23.582 Y-24.007 E0.2391
G1 X24.052 Y-23.531 E0.27247
G1 X24.462 Y-23.003 E0.30582
G1 X24.807 Y-22.429 E0.33923
G1 X25.08 Y-21.818 E0.37262
G1 X25.278 Y-21.179 E0.40599
G1 X25.399 Y-20.521 E0.43937
G1 X25.439 Y-19.997 E0.46559
G1 X25.45 Y-19.52 E0.4894
G1 X25.448 Y19.191 E2.4207
G1 X25.438 Y19.916 E2.45687
G1 X25.389 Y20.583 E2.49024
G1 X25.261 Y21.24 E2.52363
G1 X25.055 Y21.877 E2.55703
G1 X24.775 Y22.484 E2.59038
G1 X24.424 Y23.054 E2.62378
G1 X24.008 Y23.578 E2.65716
G1 X23.532 Y24.048 E2.69053
G1 X23.004 Y24.459 E2.72391
G1 X22.431 Y24.803 E2.75725
G1 X21.82 Y25.077 E2.79066
G1 X21.181 Y25.276 E2.82405
G1 X20.523 Y25.397 E2.85743
G1 X20.022 Y25.436 E2.8825
G1 X19.533 Y25.449 E2.90691
G1 X-19.224 Y25.449 E4.8405
G1 X-19.905 Y25.439 E4.87448
G1 X-20.572 Y25.39 E4.90785
G1 X-21.229 Y25.261 E4.94125
G1 X-21.865 Y25.054 E4.97462
G1 X-22.473 Y24.774 E5.00801
G1 X-23.042 Y24.422 E5.04139
G1 X-23.566 Y24.006 E5.07477
G1 X-24.003 Y23.566 E5.10571
G1 X-24.42 Y23.043 E5.13908
G1 X-24.772 Y22.474 E5.17246
G1 X-25.053 Y21.867 E5.20583
G1 X-25.26 Y21.231 E5.2392
G1 X-25.39 Y20.574 E5.27262
G1 X-25.439 Y19.977 E5.3025
G1 X-25.45 Y19.5 E5.3263
G1 X-25.449 Y-19.252 E7.25965
G1 X-25.44 Y-19.917 E7.29283
G1 X-25.391 Y-20.584 E7.3262
G1 X-25.263 Y-21.241 E7.35959
G1 X-25.058 Y-21.877 E7.39293
G1 X-24.778 Y-22.485 E7.42632
G1 X-24.427 Y-23.055 E7.45972
G1 X-24.011 Y-23.579 E7.4931
G1 X-23.536 Y-24.049 E7.52644
G1 X-23.007 Y-24.46 E7.55986
G1 X-22.434 Y-24.805 E7.59323
G1 X-21.823 Y-25.078 E7.62661
G1 X-21.185 Y-25.277 E7.65996
G1 X-20.527 Y-25.399 E7.69334
G1 X-19.998 Y-25.439 E7.71981
G1 X-19.52 Y-25.45 E7.74367
G1 X19.143 Y-25.45 E9.67257
G0 F3600 X19.143 Y-25.05
G1 F900 X19.915 Y-25.039 E9.71109
G1 X20.558 Y-24.99 E9.74326
G1 X21.19 Y-24.862 E9.77543
G1 X21.801 Y-24.656 E9.8076
G1 X22.382 Y-24.377 E9.83976
G1 X22.924 Y-24.028 E9.87192
G1 X23.418 Y-23.614 E9.90407
G1 X23.858 Y-23.142 E9.93627
G1 X24.236 Y-22.62 E9.96842
G1 X24.546 Y-22.055 E10.00057
G1 X24.784 Y-21.456 E10.03273
G1 X24.946 Y-20.832 E10.06489
G1 X25.039 Y-19.986 E10.10735
G1 X25.05 Y-19.52 E10.13061
G1 X25.049 Y19.186 E12.06166
G1 X25.039 Y19.911 E12.09783
G1 X24.99 Y20.554 E12.13001
G1 X24.862 Y21.185 E12.16213
G1 X24.656 Y21.797 E12.19434
G1 X24.377 Y22.378 E12.2265
G1 X24.028 Y22.92 E12.25866
G1 X23.615 Y23.414 E12.29079
G1 X23.143 Y23.854 E12.32298
G1 X22.621 Y24.232 E12.35513
G1 X22.056 Y24.543 E12.38731
G1 X21.457 Y24.781 E12.41946
G1 X20.833 Y24.943 E12.45163
G1 X20.009 Y25.036 E12.493
G1 X19.533 Y25.049 E12.51676
G1 X-19.218 Y25.049 E14.45005
G1 X-19.899 Y25.039 E14.48403
G1 X-20.542 Y24.99 E14.5162
G1 X-21.174 Y24.861 E14.54838
G1 X-21.785 Y24.656 E14.58054
G1 X-22.366 Y24.376 E14.61271
G1 X-22.907 Y24.027 E14.64483
G1 X-23.402 Y23.613 E14.67703
G1 X-23.706 Y23.299 E14.69883
G1 X-24.107 Y22.794 E14.731
G1 X-24.442 Y22.243 E14.76317
G1 X-24.706 Y21.655 E14.79533
G1 X-24.896 Y21.039 E14.82749
G1 X-25.008 Y20.404 E14.85966
G1 X-25.048 Y19.646 E14.89753
G1 X-25.05 Y19.5 E14.90481
G1 X-25.05 Y-19.246 E16.83786
G1 X-25.041 Y-19.911 E16.87104
G1 X-24.992 Y-20.554 E16.90321
G1 X-24.864 Y-21.186 E16.93538
G1 X-24.659 Y-21.797 E16.96754
G1 X-24.38 Y-22.378 E16.99969
G1 X-24.031 Y-22.921 E17.03189
G1 X-23.618 Y-23.415 E17.06402
G1 X-23.147 Y-23.855 E17.09618
G1 X-22.624 Y-24.233 E17.12837
G1 X-22.06 Y-24.544 E17.1605
G1 X-21.461 Y-24.782 E17.19266
G1 X-20.837 Y-24.945 E17.22484
G1 X-19.987 Y-25.039 E17.2675
G1 X-19.52 Y-25.05 E17.29081
G1 X19.143 Y-25.05 E19.21971
G1 F750 E12.71971
;MESH:test_pyramid.stl
G0 F3600 X19.143 Y-19.23
G0 X-19.18 Y19.18
G1 F750 E19.21971
G0 F3600 X-19.65 Y19.65
;TYPE:WALL-OUTER
G1 F900 X-19.65 Y-19.65 E21.1804
G1 X19.65 Y-19.65 E23.14108
G1 X19.649 Y19.649 E25.10172
G1 X-19.65 Y19.65 E27.06235
G0 F3600 X-19.65 Y19.45
G0 X-19.25 Y19.25
;TYPE:WALL-INNER
G1 F900 X-19.25 Y-19.25 E28.98312
G1 X19.25 Y-19.25 E30.9039
G1 X19.249 Y19.249 E32.82462
G1 X-19.25 Y19.25 E34.74534
G0 F3600 X-18.86 Y18.86
;TYPE:SKIN
G1 F900 X-18.86 Y-18.86 E36.6272
G1 X18.86 Y-18.86 E38.50906
G1 X18.859 Y18.859 E40.39087
G1 X-18.86 Y18.86 E42.27268
G0 F3600 X-18.09 Y18.678
G1 F900 X-18.679 Y18.089 E42.31423
G0 F3600 X-18.679 Y17.524
G1 F900 X-17.524 Y18.678 E42.39569
G0 F3600 X-16.959 Y18.678
G1 F900 X-18.679 Y16.958 E42.51704
G0 F3600 X-18.679 Y16.392
G1 F900 X-16.393 Y18.678 E42.67833
G0 F3600 X-15.827 Y18.678
G1 F900 X-18.679 Y15.827 E42.87952
G0 F3600 X-18.679 Y15.261
G1 F900 X-15.262 Y18.678 E43.12061
G0 F3600 X-14.696 Y18.678
G1 F900 X-18.679 Y14.695 E43.40163
G0 F3600 X-18.679 Y14.13
G1 F900 X-14.13 Y18.678 E43.72255
G0 F3600 X-13.565 Y18.678
G1 F900 X-18.679 Y13.564 E44.08337
G0 F3600 X-18.679 Y12.998
G1 F900 X-12.999 Y18.678 E44.48413
G0 F3600 X-12.433 Y18.678
G1 F900 X-18.679 Y12.433 E44.92478
G0 F3600 X-18.679 Y11.867
G1 F900 X-11.868 Y18.678 E45.40534
G0 F3600 X-11.302 Y18.678
G1 F900 X-18.679 Y11.301 E45.92582
G0 F3600 X-18.679 Y10.736
G1 F900 X-10.736 Y18.678 E46.48621
G0 F3600 X-10.171 Y18.678
G1 F900 X-18.679 Y10.17 E47.08649
G0 F3600 X-18.679 Y9.604
G1 F900 X-9.605 Y18.678 E47.72671
G0 F3600 X-9.039 Y18.678
G1 F900 X-18.679 Y9.038 E48.40687
G0 F3600 X-18.679 Y8.473
G1 F900 X-8.473 Y18.678 E49.12692
G0 F3600 X-7.908 Y18.678
G1 F900 X-18.679 Y7.907 E49.88687
G0 F3600 X-18.679 Y7.341
G1 F900 X-7.342 Y18.678 E50.68676
G0 F3600 X-6.776 Y18.678
G1 F900 X-18.679 Y6.776 E51.52655
G0 F3600 X-18.679 Y6.21
G1 F900 X-6.211 Y18.678 E52.40623
G0 F3600 X-5.645 Y18.678
G1 F900 X-18.679 Y5.644 E53.32585
G0 F3600 X-18.679 Y5.079
G1 F900 X-5.079 Y18.678 E54.28537
G0 F3600 X-4.514 Y18.678
G1 F900 X-18.679 Y4.513 E55.28479
G0 F3600 X-18.679 Y3.947
G1 F900 X-3.948 Y18.678 E56.32414
G0 F3600 X-3.382 Y18.678
G1 F900 X-18.679 Y3.382 E57.40339
G0 F3600 X-18.679 Y2.816
G1 F900 X-2.817 Y18.678 E58.52254
G0 F3600 X-2.251 Y18.678
G1 F900 X-18.679 Y2.25 E59.68162
G0 F3600 X-18.679 Y1.685
G1 F900 X-1.685 Y18.678 E60.8806
G0 F3600 X-1.12 Y18.678
G1 F900 X-18.679 Y1.119 E62.11949
G0 F3600 X-18.679 Y0.553
G1 F900 X-.554 Y18.678 E63.3983
G0 F3600 X0.011 Y18.678
G1 F900 X-18.679 Y-0.012 E64.71698
G0 F3600 X-18.679 Y-.577
G1 F900 X0.576 Y18.678 E66.07553
G0 F3600 X1.142 Y18.678
G1 F900 X-18.679 Y-1.143 E67.47401
G0 F3600 X-18.679 Y-1.709
G1 F900 X1.708 Y18.678 E68.91242
G0 F3600 X2.274 Y18.678
G1 F900 X-18.679 Y-2.274 E70.39073
G0 F3600 X-18.679 Y-2.84
G1 F900 X2.839 Y18.678 E71.90894
G0 F3600 X3.405 Y18.678
G1 F900 X-18.679 Y-3.406 E73.46709
G0 F3600 X-18.679 Y-3.971
G1 F900 X3.971 Y18.678 E75.06513
G0 F3600 X4.536 Y18.678
G1 F900 X-18.679 Y-4.537 E76.70308
G0 F3600 X-18.679 Y-5.103
G1 F900 X5.102 Y18.678 E78.38095
G0 F3600 X5.668 Y18.678
G1 F900 X-18.679 Y-5.668 E80.09873
G0 F3600 X-18.679 Y-6.234
G1 F900 X6.233 Y18.678 E81.85641
G0 F3600 X6.799 Y18.678
G1 F900 X-18.679 Y-6.8 E83.65402
G0 F3600 X-18.679 Y-7.365
G1 F900 X7.365 Y18.678 E85.49153
G0 F3600 X7.93 Y18.678
G1 F900 X-18.679 Y-7.931 E87.36894
G0 F3600 X-18.679 Y-8.497
G1 F900 X8.496 Y18.678 E89.28628
G0 F3600 X9.062 Y18.678
G1 F900 X-18.679 Y-9.062 E91.24352
G0 F3600 X-18.679 Y-9.628
G1 F900 X9.627 Y18.678 E93.24066
G0 F3600 X10.193 Y18.678
G1 F900 X-18.679 Y-10.194 E95.27774
G0 F3600 X-18.679 Y-10.76
G1 F900 X10.759 Y18.678 E97.35475
G0 F3600 X11.325 Y18.678
G1 F900 X-18.679 Y-11.325 E99.47166
G0 F3600 X-18.679 Y-11.891
G1 F900 X11.89 Y18.678 E101.62847
G0 F3600 X12.456 Y18.678
G1 F900 X-18.679 Y-12.457 E103.82521
G0 F3600 X-18.679 Y-13.022
G1 F900 X13.022 Y18.678 E106.06185
G0 F3600 X13.587 Y18.678
G1 F900 X-18.679 Y-13.588 E108.33839
G0 F3600 X-18.679 Y-14.154
G1 F900 X14.153 Y18.678 E110.65486
G0 F3600 X14.719 Y18.678
G1 F900 X-18.679 Y-14.719 E113.01124
G0 F3600 X-18.679 Y-15.285
G1 F900 X15.284 Y18.678 E115.40751
G0 F3600 X15.85 Y18.678
G1 F900 X-18.679 Y-15.851 E117.84372
G0 F3600 X-18.679 Y-16.416
G1 F900 X16.416 Y18.678 E120.31983
G0 F3600 X16.981 Y18.678
G1 F900 X-18.679 Y-16.982 E122.83583
G0 F3600 X-18.679 Y-17.548
G1 F900 X17.547 Y18.678 E125.39177
G0 F3600 X18.113 Y18.678
G1 F900 X-18.679 Y-18.113 E127.98761
G0 F3600 X-18.679 Y-18.679
G1 F900 X18.678 Y18.678 E130.62335
G0 F3600 X18.679 Y18.113
G1 F900 X-18.113 Y-18.679 E133.21922
G0 F3600 X-17.548 Y-18.679
G1 F900 X18.679 Y17.548 E135.77523
G0 F3600 X18.679 Y16.982
G1 F900 X-16.982 Y-18.679 E138.29131
G0 F3600 X-16.416 Y-18.679
G1 F900 X18.679 Y16.416 E140.76745
G0 F3600 X18.679 Y15.851
G1 F900 X-15.851 Y-18.679 E143.20373
G0 F3600 X-15.285 Y-18.679
G1 F900 X18.679 Y15.285 E145.60007
G0 F3600 X18.679 Y14.719
G1 F900 X-14.719 Y-18.679 E147.95648
G0 F3600 X-14.154 Y-18.679
G1 F900 X18.679 Y14.154 E150.27303
G0 F3600 X18.679 Y13.588
G1 F900 X-13.588 Y-18.679 E152.54964
G0 F3600 X-13.022 Y-18.679
G1 F900 X18.679 Y13.022 E154.78632
G0 F3600 X18.679 Y12.457
G1 F900 X-12.457 Y-18.679 E156.98313
G0 F3600 X-11.891 Y-18.679
G1 F900 X18.679 Y11.891 E159.14001
G0 F3600 X18.679 Y11.325
G1 F900 X-11.325 Y-18.679 E161.25695
G0 F3600 X-10.76 Y-18.679
G1 F900 X18.679 Y10.76 E163.33403
G0 F3600 X18.679 Y10.194
G1 F900 X-10.194 Y-18.679 E165.37118
G0 F3600 X-9.628 Y-18.679
G1 F900 X18.679 Y9.628 E167.36839
G0 F3600 X18.679 Y9.062
G1 F900 X-9.062 Y-18.679 E169.32567
G0 F3600 X-8.497 Y-18.679
G1 F900 X18.679 Y8.497 E171.24308
G0 F3600 X18.679 Y7.931
G1 F900 X-7.931 Y-18.679 E173.12056
G0 F3600 X-7.365 Y-18.679
G1 F900 X18.679 Y7.365 E174.9581
G0 F3600 X18.679 Y6.8
G1 F900 X-6.8 Y-18.679 E176.75579
G0 F3600 X-6.234 Y-18.679
G1 F900 X18.679 Y6.234 E178.51353
G0 F3600 X18.679 Y5.668
G1 F900 X-5.668 Y-18.679 E180.23134
G0 F3600 X-5.103 Y-18.679
G1 F900 X18.679 Y5.103 E181.90929
G0 F3600 X18.679 Y4.537
G1 F900 X-4.537 Y-18.679 E183.54731
G0 F3600 X-3.971 Y-18.679
G1 F900 X18.679 Y3.971 E185.14539
G0 F3600 X18.679 Y3.406
G1 F900 X-3.406 Y-18.679 E186.7036
G0 F3600 X-2.84 Y-18.679
G1 F900 X18.679 Y2.84 E188.22189
G0 F3600 X18.679 Y2.274
G1 F900 X-2.274 Y-18.679 E189.70023
G0 F3600 X-1.709 Y-18.679
G1 F900 X18.679 Y1.709 E191.13872
G0 F3600 X18.679 Y1.143
G1 F900 X-1.143 Y-18.679 E192.53727
G0 F3600 X-.577 Y-18.679
G1 F900 X18.679 Y0.577 E193.89588
G0 F3600 X18.679 Y0.012
G1 F900 X-0.012 Y-18.679 E195.21463
G0 F3600 X0.553 Y-18.679
G1 F900 X18.679 Y-.553 E196.49352
G0 F3600 X18.679 Y-1.119
G1 F900 X1.119 Y-18.679 E197.73247
G0 F3600 X1.685 Y-18.679
G1 F900 X18.679 Y-1.685 E198.93149
G0 F3600 X18.679 Y-2.25
G1 F900 X2.25 Y-18.679 E200.09064
G0 F3600 X2.816 Y-18.679
G1 F900 X18.679 Y-2.816 E201.20986
G0 F3600 X18.679 Y-3.382
G1 F900 X3.382 Y-18.679 E202.28915
G0 F3600 X3.947 Y-18.679
G1 F900 X18.679 Y-3.947 E203.32857
G0 F3600 X18.679 Y-4.513
G1 F900 X4.513 Y-18.679 E204.32806
G0 F3600 X5.079 Y-18.679
G1 F900 X18.679 Y-5.079 E205.28761
G0 F3600 X18.679 Y-5.644
G1 F900 X5.644 Y-18.679 E206.2073
G0 F3600 X6.21 Y-18.679
G1 F900 X18.679 Y-6.21 E207.08706
G0 F3600 X18.679 Y-6.776
G1 F900 X6.776 Y-18.679 E207.92688
G0 F3600 X7.341 Y-18.679
G1 F900 X18.679 Y-7.341 E208.72684
G0 F3600 X18.679 Y-7.907
G1 F900 X7.907 Y-18.679 E209.48686
G0 F3600 X8.473 Y-18.679
G1 F900 X18.679 Y-8.473 E210.20695
G0 F3600 X18.679 Y-9.038
G1 F900 X9.038 Y-18.679 E210.88717
G0 F3600 X9.604 Y-18.679
G1 F900 X18.679 Y-9.604 E211.52746
G0 F3600 X18.679 Y-10.17
G1 F900 X10.17 Y-18.679 E212.12782
G0 F3600 X10.736 Y-18.679
G1 F900 X18.679 Y-10.736 E212.68824
G0 F3600 X18.679 Y-11.301
G1 F900 X11.301 Y-18.679 E213.2088
G0 F3600 X11.867 Y-18.679
G1 F900 X18.679 Y-11.867 E213.68942
G0 F3600 X18.679 Y-12.433
G1 F900 X12.433 Y-18.679 E214.13011
G0 F3600 X12.998 Y-18.679
G1 F900 X18.679 Y-12.998 E214.53094
G0 F3600 X18.679 Y-13.564
G1 F900 X13.564 Y-18.679 E214.89183
G0 F3600 X14.13 Y-18.679
G1 F900 X18.679 Y-14.13 E215.21278
G0 F3600 X18.679 Y-14.695
G1 F900 X14.695 Y-18.679 E215.49388
G0 F3600 X15.261 Y-18.679
G1 F900 X18.679 Y-15.261 E215.73503
G0 F3600 X18.679 Y-15.827
G1 F900 X15.827 Y-18.679 E215.93626
G0 F3600 X16.392 Y-18.679
G1 F900 X18.679 Y-16.392 E216.09762
G0 F3600 X18.679 Y-16.958
G1 F900 X16.958 Y-18.679 E216.21904
G0 F3600 X17.524 Y-18.679
G1 F900 X18.679 Y-17.524 E216.30054
G0 F3600 X18.679 Y-18.089
G1 F900 X18.089 Y-18.679 E216.34216
G1 X18.019 Y-18.749
;MESH:NONMESH
G0 F600 X18.019 Y-18.749 Z0.5
G0 F3600 X-19.18 Y19.18
G0 X-19.4 Y19.4
;TIME_ELAPSED:298.330177
;LAYER:1
M106 S255
;TYPE:WALL-OUTER
;MESH:test_pyramid.stl
G1 F900 X-19.4 Y-19.4 E217.63266
G1 X19.4 Y-19.4 E218.92315
G1 X19.399 Y19.399 E220.21361
G1 X-19.4 Y19.4 E221.50407
G0 F5400 X-19.4 Y19.2
G0 X-19 Y19
;TYPE:WALL-INNER
G1 F1350 X-19 Y-19 E222.76796
G1 X19 Y-19 E224.03184
G1 X18.999 Y18.999 E225.29569
G1 X-19 Y19 E226.55954
G0 F5400 X-18.61 Y18.61
;TYPE:SKIN
G1 F900 X-18.61 Y-18.61 E227.79749
G1 X18.61 Y-18.61 E229.03543
G1 X18.609 Y18.609 E230.27334
G1 X-18.61 Y18.61 E231.51125
G0 F5400 X18.428 Y18.34
G1 F900 X18.34 Y18.429 E231.51541
G0 F5400 X17.774 Y18.429
G1 F900 X18.428 Y17.775 E231.54617
G0 F5400 X18.428 Y17.209
G1 F900 X17.208 Y18.429 E231.60356
G0 F5400 X16.643 Y18.429
G1 F900 X18.428 Y16.643 E231.68754
G0 F5400 X18.428 Y16.078
G1 F900 X16.077 Y18.429 E231.79812
G0 F5400 X15.511 Y18.429
G1 F900 X18.428 Y15.512 E231.93533
G0 F5400 X18.428 Y14.946
G1 F900 X14.946 Y18.429 E232.09914
G0 F5400 X14.38 Y18.429
G1 F900 X18.428 Y14.381 E232.28954
G0 F5400 X18.428 Y13.815
G1 F900 X13.814 Y18.429 E232.50657
G0 F5400 X13.249 Y18.429
G1 F900 X18.428 Y13.249 E232.7502
G0 F5400 X18.428 Y12.684
G1 F900 X12.683 Y18.429 E233.02043
G0 F5400 X12.117 Y18.429
G1 F900 X18.428 Y12.118 E233.31728
G0 F5400 X18.428 Y11.552
G1 F900 X11.552 Y18.429 E233.64073
G0 F5400 X10.986 Y18.429
G1 F900 X18.428 Y10.987 E233.99078
G0 F5400 X18.428 Y10.421
G1 F900 X10.42 Y18.429 E234.36745
G0 F5400 X9.854 Y18.429
G1 F900 X18.428 Y9.855 E234.77074
G0 F5400 X18.428 Y9.289
G1 F900 X9.289 Y18.429 E235.20064
G0 F5400 X8.723 Y18.429
G1 F900 X18.428 Y8.724 E235.65713
G0 F5400 X18.428 Y8.158
G1 F900 X8.157 Y18.429 E236.14025
G0 F5400 X7.592 Y18.429
G1 F900 X18.428 Y7.592 E236.64996
G0 F5400 X18.428 Y7.027
G1 F900 X7.026 Y18.429 E237.18628
G0 F5400 X6.46 Y18.429
G1 F900 X18.428 Y6.461 E237.74921
G0 F5400 X18.428 Y5.895
G1 F900 X5.895 Y18.429 E238.33875
G0 F5400 X5.329 Y18.429
G1 F900 X18.428 Y5.33 E238.95489
G0 F5400 X18.428 Y4.764
G1 F900 X4.763 Y18.429 E239.59765
G0 F5400 X4.198 Y18.429
G1 F900 X18.428 Y4.198 E240.26701
G0 F5400 X18.428 Y3.633
G1 F900 X3.632 Y18.429 E240.96297
G0 F5400 X3.066 Y18.429
G1 F900 X18.428 Y3.067 E241.68555
G0 F5400 X18.428 Y2.501
G1 F900 X2.501 Y18.429 E242.43473
G0 F5400 X1.935 Y18.429
G1 F900 X18.428 Y1.936 E243.21051
G0 F5400 X18.428 Y1.37
G1 F900 X1.369 Y18.429 E244.01291
G0 F5400 X0.803 Y18.429
G1 F900 X18.428 Y0.804 E244.84194
G0 F5400 X18.428 Y0.239
G1 F900 X0.238 Y18.429 E245.69754
G0 F5400 X-.327 Y18.429
G1 F900 X18.428 Y-.326 E246.57972
G0 F5400 X18.428 Y-.892
G1 F900 X-.893 Y18.429 E247.48852
G0 F5400 X-1.458 Y18.429
G1 F900 X18.428 Y-1.458 E248.42392
G0 F5400 X18.428 Y-2.023
G1 F900 X-2.024 Y18.429 E249.38592
G0 F5400 X-2.59 Y18.429
G1 F900 X18.428 Y-2.589 E250.37454
G0 F5400 X18.428 Y-3.155
G1 F900 X-3.155 Y18.429 E251.38976
G0 F5400 X-3.721 Y18.429
G1 F900 X18.428 Y-3.72 E252.43158
G0 F5400 X18.428 Y-4.286
G1 F900 X-4.287 Y18.429 E253.50003
G0 F5400 X-4.852 Y18.429
