;FLAVOR:Marlin
;TIME:201
;Filament used: 0.137185m
;Layer height: 0.2
;MINX:-27
;MINY:-27
;MINZ:0.3
;MAXX:27
;MAXY:27
;MAXZ:0.3
;Generated with Cura_SteamEngine 4.13.1
M140 S60
M105
M190 S60
M104 S200
M105
M109 S200
M82 ;absolute extrusion mode
G21 ;metric values
G90 ;absolute positioning
M82 ;set extruder to absolute mode
M107 ;start with the fan off
G28 ;Home all axes (max endstops)
G1 Z30.0 F9000 ;move the platform down 15mm
G92 E0 ;zero the extruded length
G1 f700 x0 y70 Z0 E9 F500 ; start purge line
G1 f700 x40 y50 E12.5 ; finish purge line
G92 E0 ;zero the extruded length again
G1 F9000
;Put printing message on LCD screen
M117 Printing...
G92 E0
G92 E0
G1 F750 E-6.5
;LAYER_COUNT:1
;LAYER:0
M107
G0 F3600 X27 Y-25.2 Z0.3
;TYPE:SKIRT
G1 F750 E0
G1 F900 X27 Y25.2 E2.51447
G1 X26.96 Y25.577 E2.53338
G1 X26.842 Y25.937 E2.55228
G1 X26.652 Y26.264 E2.57115
G1 X26.397 Y26.545 E2.59008
G1 X26.088 Y26.765 E2.609
G1 X25.741 Y26.917 E2.6279
G1 X25.2 Y27 E2.65521
G1 X-25.2 Y27 E5.16968
G1 X-25.577 Y26.96 E5.18859
G1 X-25.937 Y26.842 E5.20749
G1 X-26.264 Y26.652 E5.22636
G1 X-26.545 Y26.397 E5.24529
G1 X-26.765 Y26.088 E5.26422
G1 X-26.917 Y25.741 E5.28312
G1 X-27 Y25.2 E5.31042
G1 X-27 Y-25.2 E7.82489
G1 X-26.96 Y-25.577 E7.8438
G1 X-26.842 Y-25.937 E7.8627
G1 X-26.652 Y-26.264 E7.88157
G1 X-26.397 Y-26.545 E7.9005
G1 X-26.088 Y-26.765 E7.91943
G1 X-25.741 Y-26.917 E7.93833
G1 X-25.2 Y-27 E7.96563
G1 X25.2 Y-27 E10.4801
G1 X25.577 Y-26.96 E10.49901
G1 X25.937 Y-26.842 E10.51791
G1 X26.264 Y-26.652 E10.53678
G1 X26.545 Y-26.397 E10.55571
G1 X26.765 Y-26.088 E10.57464
G1 X26.917 Y-25.741 E10.59354
G1 X27 Y-25.2 E10.62084
G0 F3600 X26.6 Y-25.2
G1 F900 X26.6 Y25.2 E13.13531
G1 X26.56 Y25.532 E13.15199
G1 X26.443 Y25.844 E13.16862
G1 X26.255 Y26.121 E13.18532
G1 X26.007 Y26.344 E13.20196
G1 X25.713 Y26.503 E13.21863
G1 X25.2 Y26.6 E13.24468
G1 X-25.2 Y26.6 E15.75915
G1 X-25.532 Y26.56 E15.77583
G1 X-25.844 Y26.443 E15.79245
G1 X-26.121 Y26.255 E15.80916
G1 X-26.344 Y26.007 E15.8258
G1 X-26.503 Y25.713 E15.84247
G1 X-26.6 Y25.2 E15.86852
G1 X-26.6 Y-25.2 E18.38298
G1 X-26.56 Y-25.532 E18.39967
G1 X-26.443 Y-25.844 E18.41629
G1 X-26.255 Y-26.121 E18.43299
G1 X-26.007 Y-26.344 E18.44963
G1 X-25.713 Y-26.503 E18.46631
G1 X-25.2 Y-26.6 E18.49236
G1 X25.2 Y-26.6 E21.00682
G1 X25.532 Y-26.56 E21.0235
G1 X25.844 Y-26.443 E21.04013
G1 X26.121 Y-26.255 E21.05683
G1 X26.344 Y-26.007 E21.07347
G1 X26.503 Y-25.713 E21.09015
G1 X26.6 Y-25.2 E21.11619
G0 F3600 X26.2 Y-25.2
G1 F900 X26.2 Y25.2 E23.63066
G1 X26.16 Y25.479 E23.64472
G1 X26.044 Y25.736 E23.65879
G1 X25.861 Y25.951 E23.67287
G1 X25.625 Y26.105 E23.68693
G1 X25.2 Y26.2 E23.70866
G1 X-25.2 Y26.2 E26.22313
G1 X-25.479 Y26.16 E26.23719
G1 X-25.736 Y26.044 E26.25125
G1 X-25.951 Y25.861 E26.26534
G1 X-26.105 Y25.625 E26.2794
G1 X-26.2 Y25.2 E26.30113
G1 X-26.2 Y-25.2 E28.81559
G1 X-26.16 Y-25.479 E28.82965
G1 X-26.044 Y-25.736 E28.84372
G1 X-25.861 Y-25.951 E28.85781
G1 X-25.625 Y-26.105 E28.87187
G1 X-25.2 Y-26.2 E28.89359
G1 X25.2 Y-26.2 E31.40806
G1 X25.479 Y-26.16 E31.42212
G1 X25.736 Y-26.044 E31.43619
G1 X25.951 Y-25.861 E31.45027
G1 X26.105 Y-25.625 E31.46433
G1 X26.2 Y-25.2 E31.48606
G0 F3600 X25.8 Y-25.2
G1 F900 X25.8 Y25.2 E34.00053
G1 X25.76 Y25.415 E34.01144
G1 X25.647 Y25.601 E34.02229
G1 X25.474 Y25.734 E34.03318
G1 X25.2 Y25.8 E34.04724
G1 X-25.2 Y25.8 E36.56171
G1 X-25.415 Y25.76 E36.57262
G1 X-25.601 Y25.647 E36.58348
G1 X-25.734 Y25.474 E36.59436
G1 X-25.8 Y25.2 E36.60842
G1 X-25.8 Y-25.2 E39.12289
G1 X-25.76 Y-25.415 E39.1338
G1 X-25.647 Y-25.601 E39.14466
G1 X-25.474 Y-25.734 E39.15555
G1 X-25.2 Y-25.8 E39.16961
G1 X25.2 Y-25.8 E41.68407
G1 X25.415 Y-25.76 E41.69498
G1 X25.601 Y-25.647 E41.70584
G1 X25.734 Y-25.474 E41.71673
G1 X25.8 Y-25.2 E41.73079
G0 F3600 X25.4 Y-25.2
G1 F900 X25.4 Y25.2 E44.24525
G1 X25.361 Y25.319 E44.2515
G1 X25.2 Y25.4 E44.26049
G1 X-25.2 Y25.4 E46.77496
G1 X-25.319 Y25.361 E46.78121
G1 X-25.4 Y25.2 E46.7902
G1 X-25.4 Y-25.2 E49.30467
G1 X-25.361 Y-25.319 E49.31091
G1 X-25.2 Y-25.4 E49.3199
G1 X25.2 Y-25.4 E51.83437
G1 X25.319 Y-25.361 E51.84062
G1 X25.4 Y-25.2 E51.84961
G1 F750 E45.34961
;MESH:test_square.stl
G0 F3600 X24.386 Y-24.386
G0 X22.7 Y-23.2
G1 F750 E51.84961
G0 F3600 X22.7 Y-22.7
;TYPE:WALL-OUTER
G1 F900 X-15.134 Y-22.7 E53.73716
G1 X-15.236 Y-22.453 E53.75049
G1 X22.453 Y15.236 E56.40965
G1 X22.7 Y15.134 E56.42298
G1 X22.7 Y-22.7 E58.31053
G0 F3600 X22.5 Y-22.7
G0 X22.5 Y-23.2
G0 X-22.7 Y-23.2
G0 X-22.7 Y-22.7
G1 F900 X-22.7 Y-17.417 E58.5741
G1 X17.417 Y22.7 E61.40457
G1 X22.7 Y22.7 E61.66814
G1 X22.7 Y17.417 E61.93171
G1 X-17.417 Y-22.7 E64.76218
G1 X-22.7 Y-22.7 E65.02575
G0 F3600 X-22.7 Y-22.5
G0 X-23.2 Y-22.5
G0 X-23.2 Y22.7
G0 X-22.7 Y22.7
G1 F900 X15.134 Y22.7 E66.9133
G1 X15.236 Y22.453 E66.92663
G1 X-22.453 Y-15.236 E69.58579
G1 X-22.7 Y-15.134 E69.59912
G1 X-22.7 Y22.7 E71.48667
G0 F3600 X-22.5 Y22.7
G0 X-22.5 Y23.2
G0 X-24.33 Y24.33
G0 X-24.8 Y24.8
G1 F900 X-24.8 Y-24.8 E73.96122
G1 X24.8 Y-24.8 E76.43578
G1 X24.8 Y24.8 E78.91033
G1 X-24.8 Y24.8 E81.38489
G0 F3600 X-24.8 Y24.6
G0 X-24.4 Y24.4
;TYPE:WALL-INNER
G1 F900 X-24.4 Y-24.4 E83.81953
G1 X24.4 Y-24.4 E86.25417
G1 X24.4 Y24.4 E88.68881
G1 X-24.4 Y24.4 E91.12345
G0 F3600 X-24.33 Y24.33
G0 X-23.17 Y23.17
G0 X-23.1 Y23.1
G1 F900 X15.402 Y23.1 E93.04433
G1 X15.708 Y22.359 E93.08432
G1 X-22.359 Y-15.708 E95.77016
G1 X-23.1 Y-15.402 E95.81015
G1 X-23.1 Y23.1 E97.73102
G0 F3600 X-23.17 Y23.17
G0 X-23.17 Y-23.17
G0 X-23.1 Y-23.1
G1 F900 X-23.1 Y-17.251 E98.02283
G1 X17.251 Y23.1 E100.86981
G1 X23.1 Y23.1 E101.16162
G1 X23.1 Y17.251 E101.45343
G1 X-17.251 Y-23.1 E104.30041
G1 X-23.1 Y-23.1 E104.59222
G0 F3600 X-23.17 Y-23.17
G0 X23.17 Y-23.17
G0 X23.1 Y-23.1
G1 F900 X-15.402 Y-23.1 E106.51309
G1 X-15.708 Y-22.359 E106.55309
G1 X22.359 Y15.708 E109.23892
G1 X23.1 Y15.402 E109.27892
G1 X23.1 Y-23.1 E111.19979
G0 F3600 X23.49 Y-23.49
;TYPE:SKIN
G1 F900 X-15.663 Y-23.49 E113.15314
G1 X-16.08 Y-22.481 E113.20761
G1 X-17.089 Y-23.49 E113.2788
G1 X-23.49 Y-23.49 E113.59815
G1 X-23.49 Y-17.089 E113.91749
G1 X-22.481 Y-16.08 E113.98868
G1 X-23.49 Y-15.663 E114.04315
G1 X-23.49 Y23.49 E115.9965
G1 X15.663 Y23.49 E117.94986
G1 X16.08 Y22.481 E118.00432
G1 X17.089 Y23.49 E118.07551
G1 X23.49 Y23.49 E118.39486
G1 X23.49 Y17.089 E118.71421
G1 X22.481 Y16.08 E118.7854
G1 X23.49 Y15.663 E118.83987
G1 X23.49 Y-23.49 E120.79322
G0 F3600 X24.01 Y-24.01
G1 F900 X24.01 Y24.01 E123.18895
G1 X-24.01 Y24.01 E125.58467
G1 X-24.01 Y-24.01 E127.9804
G1 X24.01 Y-24.01 E130.37613
G0 F3600 X23.688 Y-23.829
G1 F900 X23.829 Y-23.688 E130.38608
G0 F3600 X23.669 Y-23.282
G1 F900 X23.829 Y-23.122 E130.39737
G0 F3600 X23.669 Y-22.716
G1 F900 X23.829 Y-22.556 E130.40866
G0 F3600 X23.669 Y-22.15
G1 F900 X23.829 Y-21.991 E130.41991
G0 F3600 X23.669 Y-21.585
G1 F900 X23.829 Y-21.425 E130.4312
G0 F3600 X23.669 Y-21.019
G1 F900 X23.829 Y-20.859 E130.44249
G0 F3600 X23.669 Y-20.453
G1 F900 X23.829 Y-20.293 E130.45378
G0 F3600 X23.669 Y-19.888
G1 F900 X23.829 Y-19.728 E130.46506
G0 F3600 X23.669 Y-19.322
G1 F900 X23.829 Y-19.162 E130.47635
G0 F3600 X23.669 Y-18.756
G1 F900 X23.829 Y-18.596 E130.48764
G0 F3600 X23.669 Y-18.191
G1 F900 X23.829 Y-18.031 E130.49893
G0 F3600 X23.669 Y-17.625
G1 F900 X23.829 Y-17.465 E130.51022
G0 F3600 X23.669 Y-17.059
G1 F900 X23.829 Y-16.899 E130.52151
G0 F3600 X23.669 Y-16.493
G1 F900 X23.829 Y-16.334 E130.53276
G0 F3600 X23.669 Y-15.928
G1 F900 X23.829 Y-15.768 E130.54405
G0 F3600 X23.669 Y-15.362
G1 F900 X23.829 Y-15.202 E130.55534
G0 F3600 X23.669 Y-14.796
G1 F900 X23.829 Y-14.637 E130.56659
G0 F3600 X23.669 Y-14.231
G1 F900 X23.829 Y-14.071 E130.57788
G0 F3600 X23.669 Y-13.665
G1 F900 X23.829 Y-13.505 E130.58917
G0 F3600 X23.669 Y-13.099
G1 F900 X23.829 Y-12.94 E130.60043
G0 F3600 X23.669 Y-12.534
G1 F900 X23.829 Y-12.374 E130.61171
G0 F3600 X23.669 Y-11.968
G1 F900 X23.829 Y-11.808 E130.623
G0 F3600 X23.669 Y-11.402
G1 F900 X23.829 Y-11.242 E130.63429
G0 F3600 X23.669 Y-10.837
G1 F900 X23.829 Y-10.677 E130.64558
G0 F3600 X23.669 Y-10.271
G1 F900 X23.829 Y-10.111 E130.65687
G0 F3600 X23.669 Y-9.705
G1 F900 X23.829 Y-9.545 E130.66816
G0 F3600 X23.669 Y-9.14
G1 F900 X23.829 Y-8.98 E130.67945
G0 F3600 X23.669 Y-8.574
G1 F900 X23.829 Y-8.414 E130.69074
G0 F3600 X23.669 Y-8.008
G1 F900 X23.829 Y-7.848 E130.70203
G0 F3600 X23.669 Y-7.443
G1 F900 X23.829 Y-7.283 E130.71331
G0 F3600 X23.669 Y-6.877
G1 F900 X23.829 Y-6.717 E130.7246
G0 F3600 X23.669 Y-6.311
G1 F900 X23.829 Y-6.151 E130.73589
G0 F3600 X23.669 Y-5.745
G1 F900 X23.829 Y-5.586 E130.74715
G0 F3600 X23.669 Y-5.18
G1 F900 X23.829 Y-5.02 E130.75843
G0 F3600 X23.669 Y-4.614
G1 F900 X23.829 Y-4.454 E130.76972
G0 F3600 X23.669 Y-4.048
G1 F900 X23.829 Y-3.889 E130.78098
G0 F3600 X23.669 Y-3.483
G1 F900 X23.829 Y-3.323 E130.79227
G0 F3600 X23.669 Y-2.917
G1 F900 X23.829 Y-2.757 E130.80355
G0 F3600 X23.669 Y-2.351
G1 F900 X23.829 Y-2.192 E130.81481
G0 F3600 X23.669 Y-1.786
G1 F900 X23.829 Y-1.626 E130.8261
G0 F3600 X23.669 Y-1.22
G1 F900 X23.829 Y-1.06 E130.83739
G0 F3600 X23.669 Y-.654
G1 F900 X23.829 Y-.494 E130.84867
G0 F3600 X23.669 Y-0.089
G1 F900 X23.829 Y0.07 E130.85993
G0 F3600 X23.669 Y0.476
G1 F900 X23.829 Y0.636 E130.87122
G0 F3600 X23.669 Y1.042
G1 F900 X23.829 Y1.202 E130.88251
G0 F3600 X23.669 Y1.607
G1 F900 X23.829 Y1.767 E130.89379
G0 F3600 X23.669 Y2.173
G1 F900 X23.829 Y2.333 E130.90508
G0 F3600 X23.669 Y2.739
G1 F900 X23.829 Y2.899 E130.91637
G0 F3600 X23.669 Y3.305
G1 F900 X23.829 Y3.464 E130.92763
G0 F3600 X23.669 Y3.87
G1 F900 X23.829 Y4.03 E130.93892
G0 F3600 X23.669 Y4.436
G1 F900 X23.829 Y4.596 E130.9502
G0 F3600 X23.669 Y5.002
G1 F900 X23.829 Y5.161 E130.96146
G0 F3600 X23.669 Y5.567
G1 F900 X23.829 Y5.727 E130.97275
G0 F3600 X23.669 Y6.133
G1 F900 X23.829 Y6.293 E130.98404
G0 F3600 X23.669 Y6.699
G1 F900 X23.829 Y6.858 E130.99529
G0 F3600 X23.669 Y7.264
G1 F900 X23.829 Y7.424 E131.00658
G0 F3600 X23.669 Y7.83
G1 F900 X23.829 Y7.99 E131.01787
G0 F3600 X23.669 Y8.396
G1 F900 X23.829 Y8.555 E131.02912
G0 F3600 X23.669 Y8.961
G1 F900 X23.829 Y9.121 E131.04041
G0 F3600 X23.669 Y9.527
G1 F900 X23.829 Y9.687 E131.0517
G0 F3600 X23.669 Y10.093
G1 F900 X23.829 Y10.253 E131.06299
G0 F3600 X23.669 Y10.658
G1 F900 X23.829 Y10.818 E131.07428
G0 F3600 X23.669 Y11.224
G1 F900 X23.829 Y11.384 E131.08556
G0 F3600 X23.669 Y11.79
G1 F900 X23.829 Y11.95 E131.09685
G0 F3600 X23.669 Y12.355
G1 F900 X23.829 Y12.515 E131.10814
G0 F3600 X23.669 Y12.921
G1 F900 X23.829 Y13.081 E131.11943
G0 F3600 X23.669 Y13.487
G1 F900 X23.829 Y13.647 E131.13072
G0 F3600 X23.669 Y14.053
G1 F900 X23.829 Y14.212 E131.14197
G0 F3600 X23.669 Y14.618
G1 F900 X23.829 Y14.778 E131.15326
G0 F3600 X23.669 Y15.184
G1 F900 X23.829 Y15.344 E131.16455
G0 F3600 X23.669 Y15.75
G1 F900 X23.829 Y15.909 E131.17581
G0 F3600 X23.293 Y15.939
G1 F900 X23.829 Y16.475 E131.21362
G0 F3600 X23.829 Y17.041
G1 F900 X22.893 Y16.105 E131.27966
G1 X22.823 Y16.035
G0 F3600 X23.668 Y17.446
G1 F900 X23.829 Y17.606 E131.29099
G0 F3600 X23.668 Y18.012
G1 F900 X23.829 Y18.172 E131.30231
G0 F3600 X23.668 Y18.577
G1 F900 X23.829 Y18.738 E131.31367
G0 F3600 X23.668 Y19.143
G1 F900 X23.829 Y19.304 E131.32503
G0 F3600 X23.668 Y19.709
G1 F900 X23.829 Y19.869 E131.33635
G0 F3600 X23.668 Y20.274
G1 F900 X23.829 Y20.435 E131.34771
G0 F3600 X23.668 Y20.84
G1 F900 X23.829 Y21.001 E131.35907
G0 F3600 X23.668 Y21.406
G1 F900 X23.829 Y21.566 E131.3704
G0 F3600 X23.668 Y21.971
G1 F900 X23.829 Y22.132 E131.38176
G0 F3600 X23.668 Y22.537
G1 F900 X23.829 Y22.698 E131.39312
G0 F3600 X23.668 Y23.103
G1 F900 X23.829 Y23.263 E131.40444
G0 F3600 X23.669 Y23.669
G1 F900 X23.829 Y23.829 E131.41573
G0 F3600 X23.263 Y23.829
G1 F900 X23.104 Y23.669 E131.42698
G0 F3600 X22.698 Y23.829
G1 F900 X22.538 Y23.669 E131.43827
G0 F3600 X22.132 Y23.829
G1 F900 X21.972 Y23.669 E131.44956
G0 F3600 X21.566 Y23.829
G1 F900 X21.406 Y23.669 E131.46085
G0 F3600 X21.001 Y23.829
G1 F900 X20.841 Y23.669 E131.47214
G0 F3600 X20.435 Y23.829
G1 F900 X20.275 Y23.669 E131.48343
G0 F3600 X19.869 Y23.829
G1 F900 X19.709 Y23.669 E131.49472
G0 F3600 X19.304 Y23.829
G1 F900 X19.144 Y23.669 E131.506
G0 F3600 X18.738 Y23.829
G1 F900 X18.578 Y23.669 E131.51729
G0 F3600 X18.172 Y23.829
G1 F900 X18.012 Y23.669 E131.52858
G0 F3600 X17.606 Y23.829
G1 F900 X17.447 Y23.669 E131.53984
G0 F3600 X17.041 Y23.829
G1 F900 X16.104 Y22.892 E131.60595
G0 F3600 X15.938 Y23.292
G1 F900 X16.475 Y23.829 E131.64383
G0 F3600 X15.909 Y23.829
G1 F900 X15.75 Y23.669 E131.65509
G0 F3600 X15.344 Y23.829
G1 F900 X15.184 Y23.669 E131.66638
G0 F3600 X14.778 Y23.829
G1 F900 X14.618 Y23.669 E131.67767
G0 F3600 X14.212 Y23.829
G1 F900 X14.053 Y23.669 E131.68892
G0 F3600 X13.647 Y23.829
G1 F900 X13.487 Y23.669 E131.70021
G0 F3600 X13.081 Y23.829
G1 F900 X12.921 Y23.669 E131.7115
G0 F3600 X12.515 Y23.829
G1 F900 X12.355 Y23.669 E131.72279
G0 F3600 X11.95 Y23.829
G1 F900 X11.79 Y23.669 E131.73408
G0 F3600 X11.384 Y23.829
G1 F900 X11.224 Y23.669 E131.74536
G0 F3600 X10.818 Y23.829
G1 F900 X10.658 Y23.669 E131.75665
G0 F3600 X10.253 Y23.829
G1 F900 X10.093 Y23.669 E131.76794
G0 F3600 X9.687 Y23.829
G1 F900 X9.527 Y23.669 E131.77923
G0 F3600 X9.121 Y23.829
G1 F900 X8.961 Y23.669 E131.79052
G0 F3600 X8.555 Y23.829
G1 F900 X8.396 Y23.669 E131.80177
G0 F3600 X7.99 Y23.829
G1 F900 X7.83 Y23.669 E131.81306
G0 F3600 X7.424 Y23.829
G1 F900 X7.264 Y23.669 E131.82435
G0 F3600 X6.858 Y23.829
G1 F900 X6.699 Y23.669 E131.8356
G0 F3600 X6.293 Y23.829
G1 F900 X6.133 Y23.669 E131.84689
G0 F3600 X5.727 Y23.829
G1 F900 X5.567 Y23.669 E131.85818
G0 F3600 X5.161 Y23.829
G1 F900 X5.002 Y23.669 E131.86944
G0 F3600 X4.596 Y23.829
G1 F900 X4.436 Y23.669 E131.88072
G0 F3600 X4.03 Y23.829
G1 F900 X3.87 Y23.669 E131.89201
G0 F3600 X3.464 Y23.829
G1 F900 X3.305 Y23.669 E131.90327
G0 F3600 X2.899 Y23.829
G1 F900 X2.739 Y23.669 E131.91456
G0 F3600 X2.333 Y23.829
G1 F900 X2.173 Y23.669 E131.92585
G0 F3600 X1.767 Y23.829
G1 F900 X1.607 Y23.669 E131.93713
G0 F3600 X1.202 Y23.829
G1 F900 X1.042 Y23.669 E131.94842
G0 F3600 X0.636 Y23.829
G1 F900 X0.476 Y23.669 E131.95971
G0 F3600 X0.07 Y23.829
G1 F900 X-0.089 Y23.669 E131.97097
G0 F3600 X-.494 Y23.829
G1 F900 X-.654 Y23.669 E131.98225
G0 F3600 X-1.06 Y23.829
G1 F900 X-1.22 Y23.669 E131.99354
G0 F3600 X-1.626 Y23.829
G1 F900 X-1.786 Y23.669 E132.00483
G0 F3600 X-2.192 Y23.829
G1 F900 X-2.351 Y23.669 E132.01609
G0 F3600 X-2.757 Y23.829
G1 F900 X-2.917 Y23.669 E132.02737
G0 F3600 X-3.323 Y23.829
G1 F900 X-3.483 Y23.669 E132.03866
G0 F3600 X-3.889 Y23.829
G1 F900 X-4.048 Y23.669 E132.04992
G0 F3600 X-4.454 Y23.829
G1 F900 X-4.614 Y23.669 E132.06121
G0 F3600 X-5.02 Y23.829
G1 F900 X-5.18 Y23.669 E132.07249
G0 F3600 X-5.586 Y23.829
G1 F900 X-5.745 Y23.669 E132.08375
G0 F3600 X-6.151 Y23.829
G1 F900 X-6.311 Y23.669 E132.09504
G0 F3600 X-6.717 Y23.829
G1 F900 X-6.877 Y23.669 E132.10633
G0 F3600 X-7.283 Y23.829
G1 F900 X-7.443 Y23.669 E132.11761
G0 F3600 X-7.848 Y23.829
G1 F900 X-8.008 Y23.669 E132.1289
G0 F3600 X-8.414 Y23.829
G1 F900 X-8.574 Y23.669 E132.14019
G0 F3600 X-8.98 Y23.829
G1 F900 X-9.14 Y23.669 E132.15148
G0 F3600 X-9.545 Y23.829
G1 F900 X-9.705 Y23.669 E132.16277
G0 F3600 X-10.111 Y23.829
G1 F900 X-10.271 Y23.669 E132.17406
G0 F3600 X-10.677 Y23.829
G1 F900 X-10.837 Y23.669 E132.18535
G0 F3600 X-11.242 Y23.829
G1 F900 X-11.402 Y23.669 E132.19664
G0 F3600 X-11.808 Y23.829
G1 F900 X-11.968 Y23.669 E132.20793
G0 F3600 X-12.374 Y23.829
G1 F900 X-12.534 Y23.669 E132.21921
G0 F3600 X-12.94 Y23.829
G1 F900 X-13.099 Y23.669 E132.23047
G0 F3600 X-13.505 Y23.829
G1 F900 X-13.665 Y23.669 E132.24176
G0 F3600 X-14.071 Y23.829
G1 F900 X-14.231 Y23.669 E132.25305
G0 F3600 X-14.637 Y23.829
G1 F900 X-14.796 Y23.669 E132.2643
G0 F3600 X-15.202 Y23.829
G1 F900 X-15.362 Y23.669 E132.27559
G0 F3600 X-15.768 Y23.829
G1 F900 X-15.928 Y23.669 E132.28688
G0 F3600 X-16.334 Y23.829
G1 F900 X-16.493 Y23.669 E132.29813
G0 F3600 X-16.899 Y23.829
G1 F900 X-17.059 Y23.669 E132.30942
G0 F3600 X-17.465 Y23.829
G1 F900 X-17.625 Y23.669 E132.32071
G0 F3600 X-18.031 Y23.829
