;FLAVOR:Marlin
;TIME:3458
;Filament used: 1.97328m
;Layer height: 0.2
;MINX:-21.309
;MINY:-11.889
;MINZ:0.3
;MAXX:21.491
;MAXY:30.911
;MAXZ:28.1
;Generated with Cura_SteamEngine 4.13.1
M140 S65
M105
M190 S65
M104 S200
M105
M109 S200
M82 ;absolute extrusion mode
M190 S65 ; set bed temperature
M104 S190 ; set temperature
G28 ; home all axes
G1 Z100 F9000
M109 S190 ; wait for temperature to be reached
G21 ; set units to millimeters
G90 ; use absolute coordinates
M82 ; use absolute distances for extrusion
G92 E0

G1 Z0.300 F4800.000
G1 X0.000 Y70.000 F4800.000
G1 X40.000 Y50.000 E10.000 F1080.000

G1 Z5 F5000 ; lift nozzle
G1 X0 Y0
G28
G92 E0
G92 E0
G1 F750 E-6.5
;LAYER_COUNT:140
;LAYER:0
M107
G0 F3600 X-16.919 Y-11.889 Z0.3
;TYPE:SKIRT
G1 F750 E0
G1 F1050 X17.101 Y-11.889 E2.03672
G1 X17.235 Y-11.881 E2.04475
G1 X17.936 Y-11.802 E2.08699
G1 X18.198 Y-11.743 E2.10307
G1 X18.875 Y-11.506 E2.14601
G1 X19.117 Y-11.39 E2.16208
G1 X19.726 Y-11.008 E2.20511
G1 X19.936 Y-10.84 E2.22121
G1 X20.44 Y-10.337 E2.26384
G1 X20.608 Y-10.126 E2.27999
G1 X20.991 Y-9.516 E2.32311
G1 X21.107 Y-9.275 E2.33912
G1 X21.345 Y-8.596 E2.3822
G1 X21.406 Y-8.332 E2.39842
G1 X21.484 Y-7.634 E2.44047
G1 X21.491 Y-7.501 E2.44844
G1 X21.491 Y26.521 E4.48528
G1 X21.484 Y26.654 E4.49325
G1 X21.406 Y27.353 E4.53536
G1 X21.345 Y27.617 E4.55158
G1 X21.107 Y28.296 E4.59466
G1 X20.992 Y28.537 E4.61065
G1 X20.61 Y29.146 E4.65368
G1 X20.442 Y29.357 E4.66983
G1 X19.938 Y29.861 E4.7125
G1 X19.727 Y30.028 E4.72861
G1 X19.117 Y30.411 E4.77174
G1 X18.874 Y30.528 E4.78788
G1 X18.197 Y30.764 E4.8308
G1 X17.938 Y30.823 E4.84671
G1 X17.237 Y30.903 E4.88895
G1 X17.101 Y30.911 E4.8971
G1 X-16.919 Y30.911 E6.93382
G1 X-17.055 Y30.903 E6.94198
G1 X-17.757 Y30.823 E6.98428
G1 X-18.016 Y30.764 E7.00018
G1 X-18.693 Y30.528 E7.0431
G1 X-18.936 Y30.411 E7.05925
G1 X-19.546 Y30.028 E7.10237
G1 X-19.757 Y29.86 E7.11852
G1 X-20.26 Y29.356 E7.16115
G1 X-20.428 Y29.146 E7.17725
G1 X-20.81 Y28.537 E7.22029
G1 X-20.925 Y28.296 E7.23627
G1 X-21.163 Y27.617 E7.27935
G1 X-21.224 Y27.353 E7.29557
G1 X-21.302 Y26.656 E7.33756
G1 X-21.309 Y26.523 E7.34553
G1 X-21.309 Y-7.499 E9.38237
G1 X-21.302 Y-7.632 E9.39034
G1 X-21.224 Y-8.332 E9.43251
G1 X-21.163 Y-8.596 E9.44873
G1 X-20.925 Y-9.275 E9.49181
G1 X-20.81 Y-9.516 E9.50779
G1 X-20.428 Y-10.125 E9.55083
G1 X-20.26 Y-10.336 E9.56698
G1 X-19.756 Y-10.84 E9.60965
G1 X-19.545 Y-11.008 E9.6258
G1 X-18.936 Y-11.39 E9.66884
G1 X-18.694 Y-11.506 E9.6849
G1 X-18.017 Y-11.743 E9.72785
G1 X-17.755 Y-11.802 E9.74393
G1 X-17.053 Y-11.881 E9.78622
G1 X-16.919 Y-11.889 E9.79426
G0 F3600 X-16.919 Y-11.409
G1 F1050 X17.101 Y-11.409 E11.83097
G1 X17.182 Y-11.404 E11.83583
G1 X17.883 Y-11.325 E11.87806
G1 X18.04 Y-11.29 E11.88769
G1 X18.717 Y-11.053 E11.93064
G1 X18.862 Y-10.983 E11.94028
G1 X19.471 Y-10.601 E11.98332
G1 X19.597 Y-10.501 E11.99295
G1 X20.101 Y-9.998 E12.03558
G1 X20.202 Y-9.871 E12.04529
G1 X20.585 Y-9.261 E12.08841
G1 X20.654 Y-9.116 E12.09803
G1 X20.892 Y-8.437 E12.1411
G1 X20.929 Y-8.279 E12.15082
G1 X21.007 Y-7.581 E12.19286
G1 X21.011 Y-7.501 E12.19766
G1 X21.011 Y26.521 E14.2345
G1 X21.007 Y26.601 E14.23929
G1 X20.929 Y27.3 E14.2814
G1 X20.892 Y27.458 E14.29111
G1 X20.654 Y28.137 E14.33419
G1 X20.585 Y28.282 E14.3438
G1 X20.203 Y28.891 E14.38684
G1 X20.102 Y29.017 E14.39651
G1 X19.598 Y29.521 E14.43918
G1 X19.472 Y29.622 E14.44885
G1 X18.862 Y30.005 E14.49197
G1 X18.716 Y30.075 E14.50166
G1 X18.039 Y30.311 E14.54459
G1 X17.884 Y30.346 E14.5541
G1 X17.183 Y30.426 E14.59634
G1 X17.101 Y30.431 E14.60126
G1 X-16.919 Y30.431 E16.63798
G1 X-17.001 Y30.426 E16.6429
G1 X-17.703 Y30.346 E16.68519
G1 X-17.858 Y30.311 E16.69471
G1 X-18.535 Y30.075 E16.73763
G1 X-18.681 Y30.005 E16.74732
G1 X-19.291 Y29.622 E16.79045
G1 X-19.418 Y29.521 E16.80016
G1 X-19.921 Y29.017 E16.84279
G1 X-20.021 Y28.891 E16.85242
G1 X-20.403 Y28.282 E16.89546
G1 X-20.472 Y28.137 E16.90507
G1 X-20.71 Y27.458 E16.94815
G1 X-20.747 Y27.3 E16.95786
G1 X-20.825 Y26.603 E16.99985
G1 X-20.829 Y26.523 E17.00465
G1 X-20.829 Y-7.499 E19.04148
G1 X-20.825 Y-7.579 E19.04628
G1 X-20.747 Y-8.279 E19.08845
G1 X-20.71 Y-8.437 E19.09816
G1 X-20.472 Y-9.116 E19.14124
G1 X-20.403 Y-9.261 E19.15085
G1 X-20.021 Y-9.87 E19.19389
G1 X-19.92 Y-9.996 E19.20356
G1 X-19.416 Y-10.5 E19.24623
G1 X-19.29 Y-10.601 E19.2559
G1 X-18.681 Y-10.983 E19.29894
G1 X-18.536 Y-11.053 E19.30858
G1 X-17.859 Y-11.29 E19.35152
G1 X-17.702 Y-11.325 E19.36115
G1 X-17 Y-11.404 E19.40344
G1 X-16.919 Y-11.409 E19.4083
G0 F3600 X-16.919 Y-10.929
G1 F1050 X17.101 Y-10.929 E21.44502
G1 X17.829 Y-10.848 E21.48887
G1 X17.881 Y-10.837 E21.49205
G1 X18.558 Y-10.6 E21.53499
G1 X18.607 Y-10.576 E21.53826
G1 X19.216 Y-10.194 E21.5813
G1 X19.258 Y-10.161 E21.5845
G1 X19.762 Y-9.658 E21.62713
G1 X19.795 Y-9.616 E21.63033
G1 X20.178 Y-9.006 E21.67345
G1 X20.201 Y-8.957 E21.67669
G1 X20.439 Y-8.278 E21.71976
G1 X20.452 Y-8.226 E21.72297
G1 X20.53 Y-7.528 E21.76502
G1 X20.531 Y26.521 E23.80347
G1 X20.53 Y26.548 E23.80509
G1 X20.452 Y27.247 E23.8472
G1 X20.439 Y27.299 E23.85041
G1 X20.201 Y27.978 E23.89348
G1 X20.178 Y28.027 E23.89672
G1 X19.796 Y28.636 E23.93976
G1 X19.763 Y28.678 E23.94296
G1 X19.259 Y29.182 E23.98563
G1 X19.217 Y29.215 E23.98883
G1 X18.607 Y29.598 E24.03195
G1 X18.558 Y29.622 E24.03522
G1 X17.881 Y29.858 E24.07814
G1 X17.829 Y29.869 E24.08132
G1 X17.101 Y29.951 E24.12518
G1 X-16.919 Y29.951 E26.1619
G1 X-17.648 Y29.869 E26.20582
G1 X-17.7 Y29.858 E26.209
G1 X-18.377 Y29.622 E26.25192
G1 X-18.426 Y29.598 E26.25519
G1 X-19.036 Y29.215 E26.29831
G1 X-19.078 Y29.182 E26.30151
G1 X-19.581 Y28.678 E26.34414
G1 X-19.614 Y28.636 E26.34734
G1 X-19.996 Y28.027 E26.39038
G1 X-20.019 Y27.978 E26.39362
G1 X-20.257 Y27.299 E26.43669
G1 X-20.27 Y27.247 E26.4399
G1 X-20.348 Y26.55 E26.48189
G1 X-20.349 Y-7.499 E28.52034
G1 X-20.348 Y-7.526 E28.52196
G1 X-20.27 Y-8.226 E28.56413
G1 X-20.257 Y-8.278 E28.56734
G1 X-20.019 Y-8.957 E28.61041
G1 X-19.996 Y-9.006 E28.61365
G1 X-19.614 Y-9.615 E28.65669
G1 X-19.581 Y-9.657 E28.65989
G1 X-19.077 Y-10.161 E28.70256
G1 X-19.035 Y-10.194 E28.70576
G1 X-18.426 Y-10.576 E28.7488
G1 X-18.377 Y-10.6 E28.75206
G1 X-17.7 Y-10.837 E28.79501
G1 X-17.648 Y-10.848 E28.79819
G1 X-16.919 Y-10.929 E28.8421
G1 F750 E22.3421
;MESH:fan_shroud_v2.stl
G0 F3600 X-16.1 Y-9.006
G0 X-14.553 Y-8.822
G0 X-13.367 Y-7.794
G0 X-12.925 Y-6.289
G0 X-13.185 Y-2.602
G0 X-14.379 Y-1.159
G0 X-15.42 Y0.422
G0 X-16.287 Y2.093
G0 X-16.978 Y3.859
G0 X-17.492 Y5.76
G0 X-17.788 Y7.625
G0 X-17.889 Y9.506
G0 X-17.781 Y11.468
G0 X-17.479 Y13.33
G0 X-16.959 Y15.215
G0 X-16.265 Y16.975
G0 X-15.393 Y18.649
G0 X-14.352 Y20.221
G0 X-13.098 Y21.73
G0 X-11.747 Y23.044
G0 X-10.197 Y24.254
G0 X-8.605 Y25.248
G0 X-6.901 Y26.076
G0 X-5.054 Y26.738
G0 X-3.22 Y27.183
G0 X-1.705 Y27.385
G0 X0.531 Y27.545
G1 F750 E28.8421
G0 F3600 X0.531 Y27.245
;TYPE:WALL-OUTER
G1 F1050 X0.601 Y27.243 E28.84629
G1 X2.456 Y27.093 E28.95771
G1 X4.287 Y26.747 E29.06927
G1 X4.354 Y26.73 E29.07341
G1 X6.074 Y26.211 E29.18097
G1 X6.139 Y26.188 E29.1851
G1 X7.854 Y25.463 E29.29657
G1 X9.483 Y24.56 E29.40807
G1 X9.542 Y24.522 E29.41228
G1 X11.013 Y23.489 E29.51989
G1 X11.068 Y23.446 E29.52407
G1 X12.468 Y22.22 E29.63548
G1 X13.733 Y20.851 E29.74707
G1 X13.776 Y20.797 E29.7512
G1 X14.849 Y19.355 E29.85881
G1 X14.887 Y19.297 E29.86296
G1 X15.832 Y17.693 E29.97442
G1 X16.601 Y15.997 E30.0859
G1 X16.626 Y15.933 E30.09002
G1 X17.209 Y14.165 E30.20147
G1 X17.6 Y12.358 E30.31216
G1 X17.609 Y12.302 E30.31555
G1 X17.806 Y10.462 E30.42634
G1 X17.808 Y8.611 E30.53716
G1 X17.801 Y8.511 E30.54316
G1 X17.611 Y6.721 E30.65092
G1 X17.592 Y6.623 E30.6569
G1 X17.212 Y4.863 E30.7647
G1 X17.191 Y4.794 E30.76901
G1 X16.627 Y3.091 E30.87642
G1 X16.602 Y3.023 E30.88075
G1 X15.86 Y1.386 E30.98836
G1 X15.827 Y1.32 E30.99277
G1 X14.881 Y-.285 E31.10431
G1 X14.84 Y-.345 E31.10866
G1 X13.769 Y-1.787 E31.2162
G1 X13.72 Y-1.844 E31.2207
G1 X12.503 Y-3.161 E31.32805
G1 X12.45 Y-3.214 E31.33254
G1 X11.046 Y-4.443 E31.44425
G1 X9.52 Y-5.516 E31.55593
G1 X9.455 Y-5.555 E31.56047
G1 X7.887 Y-6.423 E31.66777
G1 X7.819 Y-6.457 E31.67232
G1 X6.167 Y-7.154 E31.77966
G1 X6.096 Y-7.182 E31.78423
G1 X4.381 Y-7.698 E31.89145
G1 X4.311 Y-7.721 E31.89587
G1 X2.477 Y-8.067 E32.0076
G1 X2.4 Y-8.077 E32.01225
G1 X0.616 Y-8.22 E32.1194
G1 X0.539 Y-8.223 E32.12401
G1 X-1.326 Y-8.174 E32.2357
G1 X-3.176 Y-7.926 E32.34745
G1 X-3.252 Y-7.91 E32.3521
G1 X-4.992 Y-7.485 E32.45933
G1 X-5.065 Y-7.463 E32.4639
G1 X-6.752 Y-6.855 E32.57125
G1 X-6.823 Y-6.826 E32.57585
G1 X-8.497 Y-6.012 E32.68729
G1 X-8.561 Y-5.974 E32.69174
G1 X-10.082 Y-5.023 E32.79914
G1 X-10.144 Y-4.979 E32.80369
G1 X-11.553 Y-3.872 E32.91096
G1 X-11.611 Y-3.822 E32.91555
G1 X-12.896 Y-2.572 E33.02287
G1 X-12.993 Y-2.466 E33.03147
G1 X-14.138 Y-1.084 E33.13892
G1 X-14.182 Y-1.023 E33.14342
G1 X-15.173 Y0.473 E33.25085
G1 X-15.21 Y0.537 E33.25528
G1 X-16.069 Y2.192 E33.36691
G1 X-16.751 Y3.934 E33.47891
G1 X-17.243 Y5.735 E33.59068
G1 X-17.256 Y5.802 E33.59477
G1 X-17.542 Y7.576 E33.70235
G1 X-17.55 Y7.645 E33.70651
G1 X-17.649 Y9.506 E33.81808
G1 X-17.552 Y11.367 E33.92964
G1 X-17.544 Y11.435 E33.93374
G1 X-17.259 Y13.209 E34.04131
G1 X-17.246 Y13.276 E34.0454
G1 X-16.756 Y15.07 E34.15674
G1 X-16.734 Y15.133 E34.16073
G1 X-16.078 Y16.809 E34.26848
G1 X-16.05 Y16.871 E34.27255
G1 X-15.221 Y18.466 E34.38017
G1 X-15.188 Y18.525 E34.38422
G1 X-14.159 Y20.079 E34.4958
G1 X-12.972 Y21.513 E34.60725
G1 X-12.926 Y21.564 E34.61136
G1 X-11.589 Y22.863 E34.72296
G1 X-10.125 Y24.014 E34.83445
G1 X-10.067 Y24.053 E34.83864
G1 X-8.489 Y25.038 E34.95001
G1 X-6.808 Y25.855 E35.0619
G1 X-5.057 Y26.487 E35.17335
G1 X-4.991 Y26.507 E35.17748
G1 X-3.248 Y26.932 E35.28489
G1 X-3.179 Y26.947 E35.28911
G1 X-1.329 Y27.195 E35.40086
G1 X0.531 Y27.245 E35.51225
G0 F3600 X0.601 Y27.243
G0 X0.73 Y27.233
G0 X0.754 Y27.532
G0 X3.38 Y28.104
G0 X13.581 Y28.116
G0 X14.982 Y27.973
G0 X15.049 Y27.682
G1 F1050 X15.77 Y27.846 E35.55652
G1 X16.506 Y27.792 E35.6007
G1 X17.194 Y27.521 E35.64497
G1 X17.772 Y27.061 E35.6892
G1 X18.188 Y26.45 E35.73345
G1 X18.406 Y25.744 E35.77769
G1 X18.406 Y25.005 E35.82193
G1 X18.188 Y24.299 E35.86617
G1 X17.772 Y23.689 E35.91037
G1 X17.194 Y23.228 E35.95463
G1 X16.506 Y22.958 E35.99888
G1 X15.77 Y22.903 E36.04307
G1 X15.049 Y23.067 E36.08733
G1 X14.41 Y23.436 E36.13151
G1 X13.906 Y23.978 E36.17582
G1 X13.586 Y24.645 E36.22011
G1 X13.476 Y25.375 E36.26431
G1 X13.586 Y26.105 E36.3085
G1 X13.906 Y26.771 E36.35274
G1 X14.41 Y27.313 E36.39705
G1 X15.049 Y27.682 E36.44123
G0 F3600 X15.244 Y27.726
G1 F750 E29.94123
G0 F3600 X15.177 Y28.018
G0 X13.581 Y28.116
G0 X-13.357 Y28.114
G0 X-15.049 Y28.071
G1 F750 E36.44123
G0 F3600 X-15.158 Y27.792
G1 F1050 X-14.47 Y27.521 E36.48549
G1 X-13.892 Y27.061 E36.52972
G1 X-13.476 Y26.45 E36.57397
G1 X-13.258 Y25.744 E36.61821
G1 X-13.258 Y25.005 E36.66245
G1 X-13.476 Y24.299 E36.70669
G1 X-13.892 Y23.689 E36.75089
G1 X-14.47 Y23.228 E36.79515
G1 X-15.158 Y22.958 E36.8394
G1 X-15.894 Y22.903 E36.88359
G1 X-16.615 Y23.067 E36.92785
G1 X-17.254 Y23.436 E36.97203
G1 X-17.758 Y23.978 E37.01634
G1 X-18.078 Y24.645 E37.06063
G1 X-18.188 Y25.375 E37.10483
G1 X-18.078 Y26.105 E37.14902
G1 X-17.758 Y26.771 E37.19326
G1 X-17.254 Y27.313 E37.23757
G1 X-16.615 Y27.682 E37.28175
G1 X-15.894 Y27.846 E37.32601
G1 X-15.158 Y27.792 E37.3702
G0 F3600 X-14.972 Y27.719
G0 X-14.863 Y27.998
G0 X-16.881 Y28.972
G0 X-16.9 Y29.271
G1 F1050 X-17.52 Y29.2 E37.40756
G1 X-18.108 Y28.995 E37.44484
G1 X-18.628 Y28.668 E37.48161
G1 X-19.067 Y28.229 E37.51878
G1 X-19.394 Y27.709 E37.55556
G1 X-19.599 Y27.121 E37.59284
G1 X-19.669 Y26.502 E37.63013
G1 X-19.669 Y-7.471 E39.66404
G1 X-19.598 Y-8.104 E39.70217
G1 X-19.394 Y-8.688 E39.7392
G1 X-19.067 Y-9.208 E39.77598
G1 X-18.628 Y-9.647 E39.81315
G1 X-18.108 Y-9.974 E39.84992
G1 X-17.524 Y-10.178 E39.88696
G1 X-16.891 Y-10.249 E39.92509
G1 X17.082 Y-10.249 E41.959
G1 X17.701 Y-10.179 E41.99629
G1 X18.289 Y-9.974 E42.03357
G1 X18.809 Y-9.647 E42.07035
G1 X19.248 Y-9.208 E42.10752
G1 X19.576 Y-8.688 E42.14432
G1 X19.78 Y-8.104 E42.18136
G1 X19.851 Y-7.471 E42.21949
G1 X19.851 Y26.502 E44.2534
G1 X19.781 Y27.121 E44.29069
G1 X19.576 Y27.709 E44.32797
G1 X19.248 Y28.229 E44.36478
G1 X18.809 Y28.668 E44.40195
G1 X18.289 Y28.995 E44.43872
G1 X17.701 Y29.2 E44.476
G1 X17.082 Y29.271 E44.5133
G1 X-16.9 Y29.271 E46.54775
G0 F3600 X-17.098 Y29.249
G1 F750 E40.04775
G0 F3600 X-17.063 Y28.951
G0 X-18.309 Y26.176
G0 X-18.43 Y25.375
G0 X-18.309 Y24.575
G0 X-17.958 Y23.842
G0 X-15.98 Y21.762
G0 X-13.906 Y22.204
G0 X-16.509 Y18.479
G0 X-17.781 Y11.468
G0 X-17.889 Y9.506
G0 X-17.779 Y7.544
G0 X-17.476 Y5.681
G0 X-15.47 Y-1.158
G0 X-14.11 Y-2.943
G0 X-15.348 Y-3.473
G1 F750 E46.54775
G0 F3600 X-15.348 Y-3.773
G1 F1050 X-14.653 Y-3.976 E46.59109
G1 X-14.044 Y-4.368 E46.63445
G1 X-13.57 Y-4.915 E46.67779
G1 X-13.269 Y-5.573 E46.72111
G1 X-13.167 Y-6.289 E46.7644
G1 X-13.269 Y-7.005 E46.8077
G1 X-13.57 Y-7.664 E46.85108
G1 X-14.044 Y-8.211 E46.89441
G1 X-14.653 Y-8.602 E46.93774
G1 X-15.347 Y-8.806 E46.98104
G1 X-16.071 Y-8.806 E47.02439
G1 X-16.766 Y-8.602 E47.06775
G1 X-17.374 Y-8.211 E47.11103
G1 X-17.848 Y-7.664 E47.15436
G1 X-18.149 Y-7.005 E47.19773
G1 X-18.251 Y-6.289 E47.24103
G1 X-18.149 Y-5.573 E47.28433
G1 X-17.848 Y-4.915 E47.32765
G1 X-17.374 Y-4.368 E47.37098
G1 X-16.766 Y-3.976 E47.41429
G1 X-16.07 Y-3.773 E47.4577
G1 X-15.348 Y-3.773 E47.50092
G0 F3600 X-15.157 Y-3.829
G1 F750 E41.00092
G0 F3600 X-15.073 Y-3.54
G0 X-6.838 Y-7.079
G0 X-5.055 Y-7.716
G0 X-3.216 Y-8.162
G0 X-1.345 Y-8.413
G0 X0.63 Y-8.459
G0 X2.514 Y-8.304
G0 X4.416 Y-7.922
G0 X6.258 Y-7.376
G0 X7.998 Y-6.635
G0 X9.65 Y-5.717
G0 X10.525 Y-5.102
G0 X15.703 Y-3.526
G1 F750 E47.50092
G0 F3600 X15.77 Y-3.818
G1 F1050 X16.506 Y-3.872 E47.5451
G1 X17.194 Y-4.143 E47.58937
G1 X17.772 Y-4.603 E47.6336
G1 X18.188 Y-5.214 E47.67785
G1 X18.406 Y-5.92 E47.72209
G1 X18.406 Y-6.659 E47.76633
G1 X18.188 Y-7.365 E47.81057
G1 X17.772 Y-7.975 E47.85477
G1 X17.194 Y-8.436 E47.89903
G1 X16.506 Y-8.706 E47.94328
G1 X15.77 Y-8.761 E47.98747
G1 X15.049 Y-8.597 E48.03173
G1 X14.41 Y-8.228 E48.07591
G1 X13.906 Y-7.686 E48.12022
G1 X13.586 Y-7.019 E48.16451
G1 X13.476 Y-6.289 E48.20871
G1 X13.586 Y-5.559 E48.2529
G1 X13.906 Y-4.893 E48.29714
G1 X14.41 Y-4.351 E48.34145
G1 X15.049 Y-3.982 E48.38563
G1 X15.77 Y-3.818 E48.42989
G0 F3600 X15.969 Y-3.832
G1 F750 E41.92989
G0 F3600 X15.99 Y-3.533
G0 X14.025 Y-3.229
G0 X16.853 Y3.012
G0 X17.444 Y4.804
G0 X17.848 Y6.686
G0 X18.047 Y8.603
G0 X18.045 Y10.475
G0 X17.836 Y12.402
G0 X17.44 Y14.228
G0 X16.821 Y16.09
G0 X16.045 Y17.803
G0 X15.045 Y19.492
G0 X13.915 Y21.006
G0 X12.635 Y22.391
G0 X11.155 Y23.682
G0 X9.606 Y24.766
G0 X7.959 Y25.678
G0 X6.148 Y26.439
G0 X4.682 Y26.877
G0 X0.531 Y27.725
;TYPE:WALL-INNER
G1 F750 E48.42989
G1 F1050 X0.627 Y27.722 E48.43564
G1 X2.52 Y27.569 E48.54934
G1 X4.391 Y27.216 E48.66333
G1 X4.482 Y27.193 E48.66895
G1 X6.223 Y26.667 E48.77784
G1 X6.313 Y26.636 E48.78353
G1 X8.064 Y25.895 E48.89736
G1 X9.73 Y24.972 E49.01139
G1 X9.81 Y24.92 E49.0171
G1 X11.299 Y23.875 E49.12601
G1 X11.374 Y23.816 E49.13172
G1 X12.803 Y22.564 E49.24546
G1 X14.098 Y21.164 E49.35964
G1 X14.156 Y21.09 E49.36527
G1 X15.243 Y19.63 E49.47424
G1 X15.295 Y19.55 E49.47995
G1 X16.259 Y17.915 E49.59358
G1 X17.043 Y16.184 E49.70735
G1 X17.078 Y16.096 E49.71302
G1 X17.673 Y14.291 E49.8268
G1 X18.072 Y12.447 E49.93975
G1 X18.085 Y12.366 E49.94466
G1 X18.286 Y10.488 E50.05774
G1 X18.288 Y8.594 E50.17113
G1 X18.279 Y8.469 E50.17863
G1 X18.086 Y6.65 E50.28814
G1 X18.062 Y6.527 E50.29565
G1 X17.677 Y4.742 E50.40497
G1 X17.649 Y4.649 E50.41078
G1 X17.08 Y2.933 E50.51902
G1 X17.046 Y2.841 E50.52489
G1 X16.293 Y1.18 E50.63407
G1 X16.249 Y1.091 E50.64002
G1 X15.286 Y-.543 E50.75357
G1 X15.231 Y-.624 E50.75943
G1 X14.144 Y-2.087 E50.86855
G1 X14.078 Y-2.163 E50.87457
G1 X12.849 Y-3.494 E50.98303
G1 X12.778 Y-3.565 E50.98904
G1 X11.343 Y-4.821 E51.10321
G1 X9.782 Y-5.919 E51.21747
G1 X9.695 Y-5.971 E51.22354
G1 X8.111 Y-6.848 E51.33193
