;FLAVOR:Marlin
;TIME:5760
;Filament used: 3.36986m
;Layer height: 0.2
;MINX:-16.9
;MINY:-21.4
;MINZ:0.3
;MAXX:16.9
;MAXY:21.4
;MAXZ:38.9
;Generated with Cura_SteamEngine 4.13.1
M140 S65
M105
M190 S65
M104 S200
M105
M109 S200
M82 ;absolute extrusion mode
M190 S65 ; set bed temperature
M104 S190 ; set temperature
G28 ; home all axes
G1 Z100 F9000
M109 S190 ; wait for temperature to be reached
G21 ; set units to millimeters
G90 ; use absolute coordinates
M82 ; use absolute distances for extrusion
G92 E0

G1 Z0.300 F4800.000
G1 X0.000 Y70.000 F4800.000
G1 X40.000 Y50.000 E10.000 F1080.000

G1 Z5 F5000 ; lift nozzle
G1 X0 Y0
G28
G92 E0
G92 E0
G1 F750 E-6.5
;LAYER_COUNT:194
;LAYER:0
M107
G0 F3600 X0.694 Y0.333 Z0.3
;TYPE:SKIRT
G1 F750 E0
G1 F900 X0.676 Y-.533 E0.05186
G1 X0.512 Y-1.399 E0.10462
G1 X0.213 Y-2.208 E0.15626
G1 X-.222 Y-2.966 E0.20858
G1 X-.774 Y-3.634 E0.26046
G1 X-1.429 Y-4.202 E0.31237
G1 X-2.173 Y-4.655 E0.36451
G1 X-2.981 Y-4.976 E0.41657
G1 X-3.81 Y-5.155 E0.46734
G1 X-15.442 Y-5.155 E1.16373
G1 X-15.749 Y-5.195 E1.18226
G1 X-16.035 Y-5.312 E1.20076
G1 X-16.549 Y-5.764 E1.24174
G1 X-16.737 Y-6.009 E1.26023
G1 X-16.857 Y-6.294 E1.27874
G1 X-16.9 Y-6.613 E1.29801
G1 X-16.9 Y-19.942 E2.096
G1 X-16.86 Y-20.249 E2.11453
G1 X-16.743 Y-20.535 E2.13303
G1 X-16.291 Y-21.049 E2.17401
G1 X-16.046 Y-21.237 E2.1925
G1 X-15.761 Y-21.357 E2.21101
G1 X-15.442 Y-21.4 E2.23028
G1 X15.442 Y-21.4 E4.07925
G1 X15.749 Y-21.36 E4.09779
G1 X16.035 Y-21.243 E4.11629
G1 X16.549 Y-20.791 E4.15726
G1 X16.737 Y-20.546 E4.17575
G1 X16.857 Y-20.261 E4.19427
G1 X16.9 Y-19.942 E4.21354
G1 X16.9 Y19.942 E6.60132
G1 X16.86 Y20.249 E6.61986
G1 X16.743 Y20.535 E6.63836
G1 X16.291 Y21.049 E6.67933
G1 X16.046 Y21.237 E6.69782
G1 X15.761 Y21.357 E6.71634
G1 X15.442 Y21.4 E6.73561
G1 X-15.442 Y21.4 E8.58458
G1 X-15.749 Y21.36 E8.60311
G1 X-16.035 Y21.243 E8.62161
G1 X-16.549 Y20.791 E8.66259
G1 X-16.737 Y20.546 E8.68108
G1 X-16.857 Y20.261 E8.69959
G1 X-16.9 Y19.942 E8.71886
G1 X-16.9 Y6.668 E9.51355
G1 X-16.86 Y6.361 E9.53209
G1 X-16.743 Y6.075 E9.55059
G1 X-16.291 Y5.561 E9.59157
G1 X-16.046 Y5.373 E9.61006
G1 X-15.761 Y5.253 E9.62857
G1 X-15.442 Y5.21 E9.64784
G1 X-4.558 Y5.21 E10.29945
G1 X-3.641 Y5.133 E10.35454
G1 X-2.785 Y4.913 E10.40745
G1 X-1.995 Y4.563 E10.45918
G1 X-1.27 Y4.081 E10.5113
G1 X-.63 Y3.481 E10.56382
G1 X-.11 Y2.796 E10.61531
G1 X0.299 Y2.016 E10.66804
G1 X0.565 Y1.199 E10.71948
G1 X0.694 Y0.333 E10.77189
G0 F3600 X1.175 Y0.365
G1 F900 X1.155 Y-.585 E10.82878
G1 X0.977 Y-1.524 E10.886
G1 X0.649 Y-2.412 E10.94267
G1 X0.173 Y-3.242 E10.99996
G1 X-.428 Y-3.97 E11.05647
G1 X-1.148 Y-4.594 E11.11351
G1 X-1.957 Y-5.085 E11.17017
G1 X-2.838 Y-5.436 E11.22694
G1 X-3.76 Y-5.635 E11.28341
G1 X-15.442 Y-5.635 E11.9828
G1 X-15.678 Y-5.675 E11.99713
G1 X-15.951 Y-5.846 E12.01641
G1 X-16.348 Y-6.299 E12.05247
G1 X-16.42 Y-6.613 E12.07176
G1 X-16.42 Y-19.942 E12.86974
G1 X-16.38 Y-20.178 E12.88407
G1 X-16.209 Y-20.451 E12.90336
G1 X-15.756 Y-20.848 E12.93942
G1 X-15.442 Y-20.92 E12.95871
G1 X15.442 Y-20.92 E14.80768
G1 X15.678 Y-20.88 E14.82201
G1 X15.951 Y-20.709 E14.84129
G1 X16.348 Y-20.256 E14.87735
G1 X16.42 Y-19.942 E14.89664
G1 X16.42 Y19.942 E17.28443
G1 X16.38 Y20.178 E17.29876
G1 X16.209 Y20.451 E17.31804
G1 X15.756 Y20.848 E17.3541
G1 X15.442 Y20.92 E17.37339
G1 X-15.442 Y20.92 E19.22236
G1 X-15.678 Y20.88 E19.23669
G1 X-15.951 Y20.709 E19.25598
G1 X-16.348 Y20.256 E19.29204
G1 X-16.42 Y19.942 E19.31132
G1 X-16.42 Y6.668 E20.10602
G1 X-16.38 Y6.432 E20.12035
G1 X-16.209 Y6.159 E20.13963
G1 X-15.756 Y5.762 E20.17569
G1 X-15.442 Y5.69 E20.19498
G1 X-4.529 Y5.69 E20.84832
G1 X-3.564 Y5.609 E20.9063
G1 X-2.624 Y5.368 E20.96439
G1 X-1.771 Y4.988 E21.0203
G1 X-.965 Y4.453 E21.07822
G1 X-.275 Y3.806 E21.13484
G1 X0.298 Y3.053 E21.19149
G1 X0.741 Y2.206 E21.24872
G1 X1.034 Y1.304 E21.3055
G1 X1.175 Y0.365 E21.36234
G0 F3600 X1.656 Y0.396
G1 F900 X1.634 Y-.63 E21.42378
G1 X1.44 Y-1.656 E21.4863
G1 X1.084 Y-2.62 E21.54782
G1 X0.573 Y-3.511 E21.60931
G1 X-0.088 Y-4.311 E21.67144
G1 X-.859 Y-4.98 E21.73255
G1 X-1.743 Y-5.516 E21.79444
G1 X-2.697 Y-5.897 E21.85595
G1 X-3.71 Y-6.115 E21.91798
G1 X-15.442 Y-6.115 E22.62035
G1 X-15.612 Y-6.185 E22.63136
G1 X-15.87 Y-6.443 E22.6532
G1 X-15.94 Y-6.613 E22.66421
G1 X-15.94 Y-19.942 E23.4622
G1 X-15.87 Y-20.112 E23.4732
G1 X-15.612 Y-20.37 E23.49505
G1 X-15.442 Y-20.44 E23.50605
G1 X15.442 Y-20.44 E25.35502
G1 X15.612 Y-20.37 E25.36603
G1 X15.87 Y-20.112 E25.38787
G1 X15.94 Y-19.942 E25.39888
G1 X15.94 Y19.942 E27.78667
G1 X15.87 Y20.112 E27.79767
G1 X15.612 Y20.37 E27.81952
G1 X15.442 Y20.44 E27.83052
G1 X-15.442 Y20.44 E29.67949
G1 X-15.612 Y20.37 E29.6905
G1 X-15.87 Y20.112 E29.71234
G1 X-15.94 Y19.942 E29.72335
G1 X-15.94 Y6.668 E30.51804
G1 X-15.87 Y6.498 E30.52905
G1 X-15.612 Y6.24 E30.55089
G1 X-15.442 Y6.17 E30.5619
G1 X-4.512 Y6.17 E31.21626
G1 X-3.483 Y6.083 E31.27808
G1 X-2.464 Y5.822 E31.34106
G1 X-1.538 Y5.411 E31.40171
G1 X-.669 Y4.833 E31.46419
G1 X0.084 Y4.127 E31.52599
G1 X0.704 Y3.313 E31.58725
G1 X1.187 Y2.389 E31.64967
G1 X1.503 Y1.417 E31.71086
G1 X1.656 Y0.396 E31.77267
G1 F750 E25.27267
;MESH:heatsinkShroud.3mf
G0 F3600 X3.31 Y1.839
G0 X-.656 Y6.998
G0 X-14.118 Y7.992
G0 X-14.118 Y18.618
G0 X14.96 Y19.49
G1 F750 E31.77267
G0 F3600 X15.26 Y19.76
;TYPE:WALL-OUTER
G1 F900 X-15.26 Y19.76 E33.59985
G1 X-15.26 Y6.85 E34.37275
G1 X-4.49 Y6.85 E35.01753
G1 X-3.359 Y6.754 E35.08548
G1 X-2.249 Y6.47 E35.15408
G1 X-1.202 Y6.004 E35.22269
G1 X-.248 Y5.371 E35.29123
G1 X0.588 Y4.587 E35.35984
G1 X1.281 Y3.675 E35.42842
G1 X1.813 Y2.66 E35.49703
G1 X2.167 Y1.571 E35.56558
G1 X2.336 Y0.438 E35.63416
G1 X2.314 Y-.707 E35.70272
G1 X2.101 Y-1.832 E35.77127
G1 X1.703 Y-2.906 E35.83984
G1 X1.132 Y-3.899 E35.90842
G1 X0.403 Y-4.783 E35.97702
G1 X-.462 Y-5.534 E36.0456
G1 X-1.44 Y-6.129 E36.11413
G1 X-2.505 Y-6.553 E36.18276
G1 X-3.63 Y-6.795 E36.25165
G1 X-15.26 Y-6.795 E36.94792
G1 X-15.26 Y-19.76 E37.72411
G1 X15.26 Y-19.76 E39.55129
G1 X15.26 Y19.76 E41.91728
G0 F3600 X15.06 Y19.76
G0 X14.78 Y19.28
;TYPE:WALL-INNER
G1 F900 X-14.78 Y19.28 E43.68699
G1 X-14.78 Y7.33 E44.40242
G1 X-4.47 Y7.33 E45.01966
G1 X-3.279 Y7.229 E45.09122
G1 X-2.091 Y6.925 E45.16463
G1 X-.97 Y6.426 E45.23809
G1 X0.051 Y5.749 E45.31143
G1 X0.946 Y4.91 E45.38488
G1 X1.687 Y3.933 E45.45829
G1 X2.257 Y2.847 E45.53172
G1 X2.636 Y1.681 E45.60512
G1 X2.817 Y0.469 E45.67848
G1 X2.793 Y-.757 E45.7519
G1 X2.565 Y-1.961 E45.82526
G1 X2.139 Y-3.11 E45.89862
G1 X1.528 Y-4.173 E45.97203
G1 X0.748 Y-5.119 E46.04543
G1 X-.178 Y-5.923 E46.11885
G1 X-1.225 Y-6.56 E46.19222
G1 X-2.365 Y-7.014 E46.26568
G1 X-3.579 Y-7.275 E46.34003
G1 X-14.78 Y-7.275 E47.01061
G1 X-14.78 Y-19.28 E47.72933
G1 X14.78 Y-19.28 E49.49903
G1 X14.78 Y19.28 E51.80755
G0 F3600 X14.3 Y18.8
G1 F900 X-14.3 Y18.8 E53.51978
G1 X-14.3 Y7.81 E54.17774
G1 X-4.45 Y7.81 E54.76744
G1 X-3.199 Y7.704 E54.8426
G1 X-1.933 Y7.38 E54.92084
G1 X-.738 Y6.848 E54.99915
G1 X0.35 Y6.127 E55.07729
G1 X1.304 Y5.232 E55.15561
G1 X2.094 Y4.191 E55.23384
G1 X2.701 Y3.034 E55.31206
G1 X3.105 Y1.791 E55.39031
G1 X3.298 Y0.5 E55.46846
G1 X3.272 Y-.807 E55.54672
G1 X3.029 Y-2.09 E55.6249
G1 X2.575 Y-3.314 E55.70306
G1 X1.924 Y-4.447 E55.78129
G1 X1.093 Y-5.455 E55.8595
G1 X0.106 Y-6.312 E55.93775
G1 X-1.01 Y-6.991 E56.01596
G1 X-2.225 Y-7.475 E56.09426
G1 X-3.528 Y-7.755 E56.17405
G1 X-14.3 Y-7.755 E56.81895
G1 X-14.3 Y-18.8 E57.4802
G1 X14.3 Y-18.8 E59.19243
G1 X14.3 Y18.8 E61.44347
G0 F3600 X13.83 Y18.33
;TYPE:SKIN
G1 F900 X-13.83 Y18.33 E63.09943
G1 X-13.83 Y8.28 E63.7011
G1 X-4.43 Y8.28 E64.26387
G1 X-3.12 Y8.169 E64.34257
G1 X-1.778 Y7.825 E64.42552
G1 X-.511 Y7.261 E64.50854
G1 X0.642 Y6.497 E64.59135
G1 X1.655 Y5.547 E64.67449
G1 X2.492 Y4.444 E64.75739
G1 X3.136 Y3.218 E64.8403
G1 X3.564 Y1.899 E64.92332
G1 X3.768 Y0.53 E65.00618
G1 X3.742 Y-.856 E65.08917
G1 X3.483 Y-2.217 E65.17212
G1 X3.002 Y-3.514 E65.25493
G1 X2.312 Y-4.715 E65.33786
G1 X1.43 Y-5.784 E65.42083
G1 X0.384 Y-6.693 E65.50379
G1 X-.799 Y-7.414 E65.58673
G1 X-2.088 Y-7.926 E65.66977
G1 X-3.479 Y-8.225 E65.75495
G1 X-13.83 Y-8.225 E66.37464
G1 X-13.83 Y-18.33 E66.97961
G1 X13.83 Y-18.33 E68.63557
G1 X13.83 Y18.33 E70.83034
G1 F750 E64.33034
G0 F3600 X14.19 Y18.33
G0 X-13.116 Y18.69
G1 F750 E70.83034
G0 F3600 X-13.116 Y18.109
G1 F900 X-13.61 Y17.615 E70.87216
G0 F3600 X-13.61 Y16.936
G1 F900 X-12.438 Y18.109 E70.97143
G0 F3600 X-11.759 Y18.109
G1 F900 X-13.61 Y16.257 E71.12819
G0 F3600 X-13.61 Y15.578
G1 F900 X-11.08 Y18.109 E71.34244
G0 F3600 X-10.401 Y18.109
G1 F900 X-13.61 Y14.9 E71.61414
G0 F3600 X-13.61 Y14.221
G1 F900 X-9.722 Y18.109 E71.94332
G0 F3600 X-9.043 Y18.109
G1 F900 X-13.61 Y13.542 E72.32999
G0 F3600 X-13.61 Y12.863
G1 F900 X-8.365 Y18.109 E72.77411
G0 F3600 X-7.686 Y18.109
G1 F900 X-13.61 Y12.184 E73.27572
G0 F3600 X-13.61 Y11.506
G1 F900 X-7.007 Y18.109 E73.83477
G0 F3600 X-6.328 Y18.109
G1 F900 X-13.61 Y10.827 E74.45131
G0 F3600 X-13.61 Y10.148
G1 F900 X-5.649 Y18.109 E75.12534
G0 F3600 X-4.97 Y18.109
G1 F900 X-13.61 Y9.469 E75.85686
G0 F3600 X-13.61 Y8.79
G1 F900 X-4.292 Y18.109 E76.64582
G0 F3600 X-3.613 Y18.109
G1 F900 X-13.222 Y8.5 E77.45938
G0 F3600 X-12.543 Y8.5
G1 F900 X-2.934 Y18.109 E78.27294
G0 F3600 X-2.255 Y18.109
G1 F900 X-11.864 Y8.5 E79.08651
G0 F3600 X-11.185 Y8.5
G1 F900 X-1.576 Y18.109 E79.90007
G0 F3600 X-.898 Y18.109
G1 F900 X-10.506 Y8.5 E80.71358
G0 F3600 X-9.828 Y8.5
G1 F900 X-.219 Y18.109 E81.52714
G0 F3600 X0.459 Y18.109
G1 F900 X-9.149 Y8.5 E82.34066
G0 F3600 X-8.47 Y8.5
G1 F900 X1.138 Y18.109 E83.15418
G0 F3600 X1.817 Y18.109
G1 F900 X-7.791 Y8.5 E83.9677
G0 F3600 X-7.112 Y8.5
G1 F900 X2.496 Y18.109 E84.78121
G0 F3600 X3.174 Y18.109
G1 F900 X-6.433 Y8.5 E85.59469
G0 F3600 X-5.755 Y8.5
G1 F900 X3.853 Y18.109 E86.40821
G0 F3600 X4.532 Y18.109
G1 F900 X-5.076 Y8.5 E87.22173
G0 F3600 X-4.399 Y8.498
G1 F900 X5.211 Y18.109 E88.03541
G0 F3600 X5.89 Y18.109
G1 F900 X-3.773 Y8.444 E88.85363
G0 F3600 X-3.148 Y8.391
G1 F900 X6.569 Y18.109 E89.67638
G0 F3600 X7.247 Y18.109
G1 F900 X-2.599 Y8.261 E90.51009
G0 F3600 X-2.059 Y8.123
G1 F900 X7.926 Y18.109 E91.35552
G0 F3600 X8.605 Y18.109
G1 F900 X-1.543 Y7.959 E92.2148
G0 F3600 X-1.073 Y7.751
G1 F900 X9.284 Y18.109 E93.09174
G0 F3600 X9.963 Y18.109
G1 F900 X-.603 Y7.542 E93.98637
G0 F3600 X-.168 Y7.298
G1 F900 X10.641 Y18.109 E94.90161
G0 F3600 X11.32 Y18.109
G1 F900 X0.239 Y7.027 E95.83984
G0 F3600 X0.647 Y6.756
G1 F900 X11.999 Y18.109 E96.80102
G0 F3600 X12.678 Y18.109
G1 F900 X1.016 Y6.446 E97.78844
G0 F3600 X1.366 Y6.117
G1 F900 X13.357 Y18.109 E98.80372
G0 F3600 X13.61 Y17.683
G1 F900 X1.716 Y5.789 E99.81074
G0 F3600 X2.025 Y5.419
G1 F900 X13.61 Y17.004 E100.7916
G0 F3600 X13.61 Y16.325
G1 F900 X2.318 Y5.033 E101.74766
G0 F3600 X2.612 Y4.648
G1 F900 X13.61 Y15.646 E102.67882
G0 F3600 X13.61 Y14.968
G1 F900 X2.858 Y4.216 E103.58915
G0 F3600 X3.092 Y3.771
G1 F900 X13.61 Y14.289 E104.47968
G0 F3600 X13.61 Y13.61
G1 F900 X3.326 Y3.326 E105.35039
G0 F3600 X3.496 Y2.817
G1 F900 X13.61 Y12.931 E106.2067
G0 F3600 X13.61 Y12.252
G1 F900 X3.662 Y2.305 E107.04892
G0 F3600 X3.804 Y1.767
G1 F900 X13.61 Y11.573 E107.87916
G0 F3600 X13.61 Y10.895
G1 F900 X3.891 Y1.176 E108.70204
G0 F3600 X3.979 Y0.585
G1 F900 X13.61 Y10.216 E109.51746
G0 F3600 X13.61 Y9.537
G1 F900 X3.974 Y-0.098 E110.33326
G0 F3600 X3.962 Y-.789
G1 F900 X13.61 Y8.858 E111.15008
G0 F3600 X13.61 Y8.179
G1 F900 X3.821 Y-1.609 E111.97884
G0 F3600 X3.612 Y-2.496
G1 F900 X13.61 Y7.5 E112.82525
G0 F3600 X13.61 Y6.822
G1 F900 X3.213 Y-3.575 E113.70553
G1 X3.143 Y-3.645
G0 F3600 X2.669 Y-3.374
G0 X1.415 Y-5.238
G0 X1.861 Y-5.605
G1 F900 X13.61 Y6.143 E114.70023
G0 F3600 X13.61 Y5.464
G1 F900 X-9.963 Y-18.109 E116.69608
G0 F3600 X-10.641 Y-18.109
G1 F900 X1.146 Y-6.32 E117.69412
G1 X1.216 Y-6.25
G0 F3600 X0.842 Y-5.82
G0 X-1.119 Y-7.154
G0 X-.904 Y-7.692
G1 F900 X-11.32 Y-18.109 E118.57605
G0 F3600 X-11.999 Y-18.109
G1 F900 X-2.027 Y-8.136 E119.42039
G0 F3600 X-2.892 Y-8.323
G1 F900 X-12.678 Y-18.109 E120.24894
G0 F3600 X-13.357 Y-18.109
G1 F900 X-3.693 Y-8.444 E121.06719
G0 F3600 X-4.372 Y-8.444
G1 F900 X-13.61 Y-17.683 E121.84939
G0 F3600 X-13.61 Y-17.004
G1 F900 X-5.05 Y-8.444 E122.57413
G0 F3600 X-5.729 Y-8.444
G1 F900 X-13.61 Y-16.325 E123.24139
G0 F3600 X-13.61 Y-15.646
G1 F900 X-6.408 Y-8.444 E123.85116
G0 F3600 X-7.087 Y-8.444
G1 F900 X-13.61 Y-14.968 E124.40348
G0 F3600 X-13.61 Y-14.289
G1 F900 X-7.766 Y-8.444 E124.89831
G0 F3600 X-8.444 Y-8.444
G1 F900 X-13.61 Y-13.61 E125.3357
G0 F3600 X-13.61 Y-12.931
G1 F900 X-9.123 Y-8.444 E125.7156
G0 F3600 X-9.802 Y-8.444
G1 F900 X-13.61 Y-12.252 E126.03801
G0 F3600 X-13.61 Y-11.573
G1 F900 X-10.481 Y-8.444 E126.30293
G0 F3600 X-11.16 Y-8.444
G1 F900 X-13.61 Y-10.895 E126.5104
G0 F3600 X-13.61 Y-10.216
G1 F900 X-11.839 Y-8.444 E126.66039
G0 F3600 X-12.517 Y-8.444
G1 F900 X-13.61 Y-9.537 E126.75293
G0 F3600 X-13.61 Y-8.858
G1 F900 X-13.196 Y-8.444 E126.78798
G1 F750 E120.28798
G0 F3600 X-13.196 Y-7.865
G0 X-14.118 Y-7.937
G0 X-14.118 Y-18.618
G0 X-9.284 Y-18.69
G1 F750 E126.78798
G0 F3600 X-9.284 Y-18.109
G1 F900 X13.61 Y4.785 E128.72634
G0 F3600 X13.61 Y4.106
G1 F900 X-8.605 Y-18.109 E130.6072
G0 F3600 X-7.926 Y-18.109
G1 F900 X13.61 Y3.428 E132.43062
G0 F3600 X13.61 Y2.749
G1 F900 X-7.247 Y-18.109 E134.19655
G0 F3600 X-6.569 Y-18.109
G1 F900 X13.61 Y2.07 E135.90504
G0 F3600 X13.61 Y1.391
G1 F900 X-5.89 Y-18.109 E137.55603
G0 F3600 X-5.211 Y-18.109
G1 F900 X13.61 Y0.712 E139.14954
G0 F3600 X13.61 Y0.033
G1 F900 X-4.532 Y-18.109 E140.68556
G0 F3600 X-3.853 Y-18.109
G1 F900 X13.61 Y-.644 E142.16418
G0 F3600 X13.61 Y-1.323
G1 F900 X-3.174 Y-18.109 E143.5853
G0 F3600 X-2.496 Y-18.109
G1 F900 X13.61 Y-2.002 E144.94898
G0 F3600 X13.61 Y-2.681
G1 F900 X-1.817 Y-18.109 E146.25518
G0 F3600 X-1.138 Y-18.109
G1 F900 X13.61 Y-3.36 E147.50388
G0 F3600 X13.61 Y-4.038
G1 F900 X-.459 Y-18.109 E148.69514
G0 F3600 X0.219 Y-18.109
G1 F900 X13.61 Y-4.717 E149.82895
G0 F3600 X13.61 Y-5.396
G1 F900 X0.898 Y-18.109 E150.90527
G0 F3600 X1.576 Y-18.109
G1 F900 X13.61 Y-6.075 E151.92415
G0 F3600 X13.61 Y-6.754
G1 F900 X2.255 Y-18.109 E152.88554
G0 F3600 X2.934 Y-18.109
G1 F900 X13.61 Y-7.433 E153.78943
G0 F3600 X13.61 Y-8.111
G1 F900 X3.613 Y-18.109 E154.63589
G0 F3600 X4.292 Y-18.109
G1 F900 X13.61 Y-8.79 E155.42485
G0 F3600 X13.61 Y-9.469
G1 F900 X4.97 Y-18.109 E156.15637
G0 F3600 X5.649 Y-18.109
G1 F900 X13.61 Y-10.148 E156.8304
G0 F3600 X13.61 Y-10.827
G1 F900 X6.328 Y-18.109 E157.44694
G0 F3600 X7.007 Y-18.109
G1 F900 X13.61 Y-11.506 E158.00599
G0 F3600 X13.61 Y-12.184
G1 F900 X7.686 Y-18.109 E158.5076
G0 F3600 X8.365 Y-18.109
G1 F900 X13.61 Y-12.863 E158.95172
G0 F3600 X13.61 Y-13.542
G1 F900 X9.043 Y-18.109 E159.33839
G0 F3600 X9.722 Y-18.109
G1 F900 X13.61 Y-14.221 E159.66757
G0 F3600 X13.61 Y-14.9
G1 F900 X10.401 Y-18.109 E159.93927
G0 F3600 X11.08 Y-18.109
G1 F900 X13.61 Y-15.578 E160.15352
G0 F3600 X13.61 Y-16.257
G1 F900 X11.759 Y-18.109 E160.31028
G0 F3600 X12.438 Y-18.109
G1 F900 X13.61 Y-16.936 E160.40955
G0 F3600 X13.61 Y-17.615
G1 F900 X13.116 Y-18.109 E160.45137
G0 F3600 X13.116 Y-19.07
G1 F750 E153.95137
;MESH:NONMESH
G0 F600 X13.116 Y-19.07 Z0.5
G0 F3600 X14.118 Y-18.618
G0 X14.99 Y19.49
G1 F750 E160.45137
G0 F3600 X15.3 Y19.8
;TIME_ELAPSED:191.362495
;LAYER:1
M106 S255
;TYPE:WALL-OUTER
;MESH:heatsinkShroud.3mf
G1 F900 X-15.3 Y19.8 E161.46913
G1 X-15.3 Y6.81 E161.90118
G1 X-4.492 Y6.81 E162.26066
G1 X-3.366 Y6.715 E162.29824
G1 X-2.262 Y6.433 E162.33614
G1 X-1.221 Y5.969 E162.37405
G1 X-.272 Y5.339 E162.41194
G1 X0.558 Y4.56 E162.4498
G1 X1.247 Y3.654 E162.48765
G1 X1.776 Y2.645 E162.52554
G1 X2.128 Y1.562 E162.56342
G1 X2.296 Y0.436 E162.60129
G1 X2.274 Y-.703 E162.63918
G1 X2.062 Y-1.822 E162.67706
G1 X1.667 Y-2.889 E162.7149
G1 X1.099 Y-3.876 E162.75277
G1 X0.375 Y-4.755 E162.79065
G1 X-.486 Y-5.501 E162.82854
G1 X-1.458 Y-6.094 E162.86641
G1 X-2.517 Y-6.515 E162.90432
G1 X-3.634 Y-6.755 E162.94231
G1 X-15.3 Y-6.755 E163.33033
G1 X-15.3 Y-19.8 E163.76421
G1 X15.3 Y-19.8 E164.78197
G1 X15.3 Y19.8 E166.09907
