;FLAVOR:Marlin
;TIME:3401
;Filament used: 1.81832m
;Layer height: 0.2
;MINX:-27
;MINY:-27
;MINZ:0.3
;MAXX:27
;MAXY:27
;MAXZ:1.7
;Generated with Cura_SteamEngine 4.13.1
M140 S60
M105
M190 S60
M104 S185
M105
M109 S185
M82 ;absolute extrusion mode
G21 ;metric values
G90 ;absolute positioning
M82 ;set extruder to absolute mode
M107 ;start with the fan off
G28 ;Home all axes (max endstops)
G1 Z15.0 F9000 ;move the platform down 15mm
G92 E0 ;zero the extruded length
G1 F200 E3 ;extrude 3mm of feed stock
G92 E0 ;zero the extruded length again
G1 F9000
;Put printing message on LCD screen
M117 Printing...
G92 E0
G92 E0
G1 F750 E-6.5
;LAYER_COUNT:8
;LAYER:0
M107
G0 F3600 X27 Y-25.2 Z0.3
;TYPE:SKIRT
G1 F750 E0
G1 F900 X27 Y25.2 E2.51447
G1 X26.96 Y25.577 E2.53338
G1 X26.842 Y25.937 E2.55228
G1 X26.652 Y26.264 E2.57115
G1 X26.397 Y26.545 E2.59008
G1 X26.088 Y26.765 E2.609
G1 X25.741 Y26.917 E2.6279
G1 X25.2 Y27 E2.65521
G1 X-25.2 Y27 E5.16968
G1 X-25.577 Y26.96 E5.18859
G1 X-25.937 Y26.842 E5.20749
G1 X-26.264 Y26.652 E5.22636
G1 X-26.545 Y26.397 E5.24529
G1 X-26.765 Y26.088 E5.26422
G1 X-26.917 Y25.741 E5.28312
G1 X-27 Y25.2 E5.31042
G1 X-27 Y-25.2 E7.82489
G1 X-26.96 Y-25.577 E7.8438
G1 X-26.842 Y-25.937 E7.8627
G1 X-26.652 Y-26.264 E7.88157
G1 X-26.397 Y-26.545 E7.9005
G1 X-26.088 Y-26.765 E7.91943
G1 X-25.741 Y-26.917 E7.93833
G1 X-25.2 Y-27 E7.96563
G1 X25.2 Y-27 E10.4801
G1 X25.577 Y-26.96 E10.49901
G1 X25.937 Y-26.842 E10.51791
G1 X26.264 Y-26.652 E10.53678
G1 X26.545 Y-26.397 E10.55571
G1 X26.765 Y-26.088 E10.57464
G1 X26.917 Y-25.741 E10.59354
G1 X27 Y-25.2 E10.62084
G0 F3600 X26.6 Y-25.2
G1 F900 X26.6 Y25.2 E13.13531
G1 X26.56 Y25.532 E13.15199
G1 X26.443 Y25.844 E13.16862
G1 X26.255 Y26.121 E13.18532
G1 X26.007 Y26.344 E13.20196
G1 X25.713 Y26.503 E13.21863
G1 X25.2 Y26.6 E13.24468
G1 X-25.2 Y26.6 E15.75915
G1 X-25.532 Y26.56 E15.77583
G1 X-25.844 Y26.443 E15.79245
G1 X-26.121 Y26.255 E15.80916
G1 X-26.344 Y26.007 E15.8258
G1 X-26.503 Y25.713 E15.84247
G1 X-26.6 Y25.2 E15.86852
G1 X-26.6 Y-25.2 E18.38298
G1 X-26.56 Y-25.532 E18.39967
G1 X-26.443 Y-25.844 E18.41629
G1 X-26.255 Y-26.121 E18.43299
G1 X-26.007 Y-26.344 E18.44963
G1 X-25.713 Y-26.503 E18.46631
G1 X-25.2 Y-26.6 E18.49236
G1 X25.2 Y-26.6 E21.00682
G1 X25.532 Y-26.56 E21.0235
G1 X25.844 Y-26.443 E21.04013
G1 X26.121 Y-26.255 E21.05683
G1 X26.344 Y-26.007 E21.07347
G1 X26.503 Y-25.713 E21.09015
G1 X26.6 Y-25.2 E21.11619
G0 F3600 X26.2 Y-25.2
G1 F900 X26.2 Y25.2 E23.63066
G1 X26.16 Y25.479 E23.64472
G1 X26.044 Y25.736 E23.65879
G1 X25.861 Y25.951 E23.67287
G1 X25.625 Y26.105 E23.68693
G1 X25.2 Y26.2 E23.70866
G1 X-25.2 Y26.2 E26.22313
G1 X-25.479 Y26.16 E26.23719
G1 X-25.736 Y26.044 E26.25125
G1 X-25.951 Y25.861 E26.26534
G1 X-26.105 Y25.625 E26.2794
G1 X-26.2 Y25.2 E26.30113
G1 X-26.2 Y-25.2 E28.81559
G1 X-26.16 Y-25.479 E28.82965
G1 X-26.044 Y-25.736 E28.84372
G1 X-25.861 Y-25.951 E28.85781
G1 X-25.625 Y-26.105 E28.87187
G1 X-25.2 Y-26.2 E28.89359
G1 X25.2 Y-26.2 E31.40806
G1 X25.479 Y-26.16 E31.42212
G1 X25.736 Y-26.044 E31.43619
G1 X25.951 Y-25.861 E31.45027
G1 X26.105 Y-25.625 E31.46433
G1 X26.2 Y-25.2 E31.48606
G0 F3600 X25.8 Y-25.2
G1 F900 X25.8 Y25.2 E34.00053
G1 X25.76 Y25.415 E34.01144
G1 X25.647 Y25.601 E34.02229
G1 X25.474 Y25.734 E34.03318
G1 X25.2 Y25.8 E34.04724
G1 X-25.2 Y25.8 E36.56171
G1 X-25.415 Y25.76 E36.57262
G1 X-25.601 Y25.647 E36.58348
G1 X-25.734 Y25.474 E36.59436
G1 X-25.8 Y25.2 E36.60842
G1 X-25.8 Y-25.2 E39.12289
G1 X-25.76 Y-25.415 E39.1338
G1 X-25.647 Y-25.601 E39.14466
G1 X-25.474 Y-25.734 E39.15555
G1 X-25.2 Y-25.8 E39.16961
G1 X25.2 Y-25.8 E41.68407
G1 X25.415 Y-25.76 E41.69498
G1 X25.601 Y-25.647 E41.70584
G1 X25.734 Y-25.474 E41.71673
G1 X25.8 Y-25.2 E41.73079
G0 F3600 X25.4 Y-25.2
G1 F900 X25.4 Y25.2 E44.24525
G1 X25.361 Y25.319 E44.2515
G1 X25.2 Y25.4 E44.26049
G1 X-25.2 Y25.4 E46.77496
G1 X-25.319 Y25.361 E46.78121
G1 X-25.4 Y25.2 E46.7902
G1 X-25.4 Y-25.2 E49.30467
G1 X-25.361 Y-25.319 E49.31091
G1 X-25.2 Y-25.4 E49.3199
G1 X25.2 Y-25.4 E51.83437
G1 X25.319 Y-25.361 E51.84062
G1 X25.4 Y-25.2 E51.84961
G1 F750 E45.34961
;MESH:Body1.stl
G0 F3600 X24.386 Y-24.386
G0 X-18.766 Y21.637
G0 X-20.11 Y22.048
G0 X-20.958 Y21.927
G1 F750 E51.84961
G0 F3600 X-20.821 Y21.447
;TYPE:WALL-OUTER
G1 F900 X-20.219 Y21.619 E51.88085
G1 X-19.595 Y21.561 E51.91211
G1 X-19.035 Y21.281 E51.94335
G1 X-18.613 Y20.819 E51.97457
G1 X-18.387 Y20.235 E52.00581
G1 X-18.387 Y19.61 E52.03699
G1 X-18.613 Y19.026 E52.06823
G1 X-19.035 Y18.563 E52.09948
G1 X-19.595 Y18.284 E52.1307
G1 X-20.219 Y18.226 E52.16196
G1 X-20.821 Y18.398 E52.1932
G1 X-21.32 Y18.775 E52.2244
G1 X-21.65 Y19.306 E52.25559
G1 X-21.766 Y19.922 E52.28686
G1 X-21.65 Y20.538 E52.31814
G1 X-21.32 Y21.07 E52.34937
G1 X-20.821 Y21.447 E52.38057
G0 F3600 X-20.629 Y21.501
G0 X-20.767 Y21.982
G0 X-24.33 Y24.33
G0 X-24.8 Y24.8
G1 F900 X-24.8 Y-24.8 E54.85513
G1 X24.8 Y-24.8 E57.32968
G1 X24.8 Y24.8 E59.80423
G1 X-24.8 Y24.8 E62.27879
G0 F3600 X-24.8 Y24.6
G0 X-24.4 Y24.4
;TYPE:WALL-INNER
G1 F900 X-24.4 Y-24.4 E64.71343
G1 X24.4 Y-24.4 E67.14807
G1 X24.4 Y24.4 E69.58271
G1 X-24.4 Y24.4 E72.01736
G0 F3600 X-24.33 Y24.33
G0 X-21.047 Y21.9
G0 X-21.003 Y21.811
G1 F900 X-20.257 Y22.024 E72.05606
G1 X-19.483 Y21.952 E72.09484
G1 X-18.79 Y21.606 E72.13349
G1 X-18.267 Y21.033 E72.17219
G1 X-17.987 Y20.31 E72.21087
G1 X-17.987 Y19.535 E72.24954
G1 X-18.267 Y18.812 E72.28822
G1 X-18.79 Y18.238 E72.32696
G1 X-19.484 Y17.893 E72.36563
G1 X-20.257 Y17.821 E72.40436
G1 X-21.003 Y18.034 E72.44306
G1 X-21.62 Y18.501 E72.48167
G1 X-22.029 Y19.158 E72.52028
G1 X-22.173 Y19.922 E72.55907
G1 X-22.029 Y20.685 E72.5978
G1 X-21.621 Y21.344 E72.63647
G1 X-21.003 Y21.811 E72.67512
G0 F3600 X-21.18 Y22.166
;TYPE:SKIN
G1 F900 X-20.294 Y22.419 E72.72109
G1 X-19.374 Y22.334 E72.76718
G1 X-18.55 Y21.922 E72.81314
G1 X-17.93 Y21.242 E72.85905
G1 X-17.597 Y20.382 E72.90506
G1 X-17.597 Y19.463 E72.95091
G1 X-17.93 Y18.603 E72.99692
G1 X-18.55 Y17.922 E73.04287
G1 X-19.375 Y17.511 E73.08885
G1 X-20.294 Y17.426 E73.1349
G1 X-21.18 Y17.679 E73.18087
G1 X-21.913 Y18.234 E73.22674
G1 X-22.399 Y19.014 E73.27259
G1 X-22.57 Y19.922 E73.31868
G1 X-22.399 Y20.829 E73.36473
G1 X-21.914 Y21.611 E73.41064
G1 X-21.18 Y22.166 E73.45655
G0 F3600 X-24.01 Y24.01
G1 F900 X-24.01 Y-24.01 E75.85228
G1 X24.01 Y-24.01 E78.248
G1 X24.01 Y24.01 E80.64373
G1 X-24.01 Y24.01 E83.03946
G0 F3600 X-23.829 Y23.688
G1 F900 X-23.688 Y23.829 E83.04941
G0 F3600 X-23.122 Y23.829
G1 F900 X-23.829 Y23.122 E83.09929
G0 F3600 X-23.829 Y22.556
G1 F900 X-22.556 Y23.829 E83.18911
G0 F3600 X-21.991 Y23.829
G1 F900 X-23.829 Y21.991 E83.31879
G0 F3600 X-23.829 Y21.425
G1 F900 X-21.425 Y23.829 E83.4884
G0 F3600 X-20.859 Y23.829
G1 F900 X-23.829 Y20.859 E83.69795
G0 F3600 X-23.829 Y20.293
G1 F900 X-20.293 Y23.829 E83.94744
G0 F3600 X-19.728 Y23.829
G1 F900 X-21.215 Y22.342 E84.05235
G1 X-21.285 Y22.272
G0 F3600 X-20.422 Y22.569
G1 F900 X-19.162 Y23.829 E84.14125
G0 F3600 X-18.596 Y23.829
G1 F900 X-19.866 Y22.56 E84.23082
G0 F3600 X-19.348 Y22.512
G1 F900 X-18.031 Y23.829 E84.32374
G0 F3600 X-17.465 Y23.829
G1 F900 X-18.965 Y22.329 E84.42958
G0 F3600 X-18.587 Y22.141
G1 F900 X-16.899 Y23.829 E84.54867
G0 F3600 X-16.334 Y23.829
G1 F900 X-18.276 Y21.887 E84.68569
G0 F3600 X-18.006 Y21.591
G1 F900 X-15.768 Y23.829 E84.8436
G0 F3600 X-15.202 Y23.829
G1 F900 X-17.752 Y21.279 E85.02351
G0 F3600 X-17.594 Y20.871
G1 F900 X-14.637 Y23.829 E85.23218
G0 F3600 X-14.071 Y23.829
G1 F900 X-17.437 Y20.463 E85.46967
G0 F3600 X-17.417 Y19.917
G1 F900 X-13.505 Y23.829 E85.74568
G0 F3600 X-12.94 Y23.829
G1 F900 X-17.465 Y19.304 E86.06495
G1 X-17.535 Y19.234
G0 F3600 X-19.446 Y17.322
G1 F900 X-23.829 Y12.94 E86.37415
G0 F3600 X-23.829 Y13.505
G1 F900 X-20.07 Y17.264 E86.63937
G0 F3600 X-20.581 Y17.319
G1 F900 X-23.829 Y14.071 E86.86854
G0 F3600 X-23.829 Y14.637
G1 F900 X-21.02 Y17.445 E87.06669
G0 F3600 X-21.406 Y17.625
G1 F900 X-23.829 Y15.202 E87.23765
G0 F3600 X-23.829 Y15.768
G1 F900 X-21.728 Y17.869 E87.38588
G0 F3600 X-22.048 Y18.115
G1 F900 X-23.829 Y16.334 E87.51154
G0 F3600 X-23.829 Y16.899
G1 F900 X-22.266 Y18.463 E87.62186
G0 F3600 X-22.483 Y18.811
G1 F900 X-23.829 Y17.465 E87.71682
G0 F3600 X-23.829 Y18.031
G1 F900 X-22.623 Y19.237 E87.80191
G0 F3600 X-22.712 Y19.714
G1 F900 X-23.829 Y18.596 E87.88076
G0 F3600 X-23.829 Y19.162
G1 F900 X-22.678 Y20.313 E87.96197
G1 X-22.608 Y20.383
G0 F3600 X-22.417 Y21.14
G1 F900 X-23.829 Y19.728 E88.06159
G1 X-23.899 Y19.658
G0 F3600 X-23.829 Y12.374
G1 F900 X-12.374 Y23.829 E88.8698
G0 F3600 X-11.808 Y23.829
G1 F900 X-23.829 Y11.808 E89.71795
G0 F3600 X-23.829 Y11.242
G1 F900 X-11.242 Y23.829 E90.60603
G0 F3600 X-10.677 Y23.829
G1 F900 X-23.829 Y10.677 E91.53398
G0 F3600 X-23.829 Y10.111
G1 F900 X-10.111 Y23.829 E92.50186
G0 F3600 X-9.545 Y23.829
G1 F900 X-23.829 Y9.545 E93.50967
G0 F3600 X-23.829 Y8.98
G1 F900 X-8.98 Y23.829 E94.55735
G0 F3600 X-8.414 Y23.829
G1 F900 X-23.829 Y8.414 E95.64496
G0 F3600 X-23.829 Y7.848
G1 F900 X-7.848 Y23.829 E96.7725
G0 F3600 X-7.283 Y23.829
G1 F900 X-23.829 Y7.283 E97.93991
G0 F3600 X-23.829 Y6.717
G1 F900 X-6.717 Y23.829 E99.14726
G0 F3600 X-6.151 Y23.829
G1 F900 X-23.829 Y6.151 E100.39454
G0 F3600 X-23.829 Y5.586
G1 F900 X-5.586 Y23.829 E101.68168
G0 F3600 X-5.02 Y23.829
G1 F900 X-23.829 Y5.02 E103.00875
G0 F3600 X-23.829 Y4.454
G1 F900 X-4.454 Y23.829 E104.37577
G0 F3600 X-3.889 Y23.829
G1 F900 X-23.829 Y3.889 E105.78264
G0 F3600 X-23.829 Y3.323
G1 F900 X-3.323 Y23.829 E107.22945
G0 F3600 X-2.757 Y23.829
G1 F900 X-23.829 Y2.757 E108.71619
G0 F3600 X-23.829 Y2.192
G1 F900 X-2.192 Y23.829 E110.2428
G0 F3600 X-1.626 Y23.829
G1 F900 X-23.829 Y1.626 E111.80934
G0 F3600 X-23.829 Y1.06
G1 F900 X-1.06 Y23.829 E113.41582
G0 F3600 X-.494 Y23.829
G1 F900 X-23.829 Y0.494 E115.06223
G0 F3600 X-23.829 Y-0.07
G1 F900 X0.07 Y23.829 E116.74843
G0 F3600 X0.636 Y23.829
G1 F900 X-23.829 Y-.636 E118.47457
G0 F3600 X-23.829 Y-1.202
G1 F900 X1.202 Y23.829 E120.24064
G0 F3600 X1.767 Y23.829
G1 F900 X-23.829 Y-1.767 E122.04658
G0 F3600 X-23.829 Y-2.333
G1 F900 X2.333 Y23.829 E123.89245
G0 F3600 X2.899 Y23.829
G1 F900 X-23.829 Y-2.899 E125.77825
G0 F3600 X-23.829 Y-3.464
G1 F900 X3.464 Y23.829 E127.70392
G0 F3600 X4.03 Y23.829
G1 F900 X-23.829 Y-4.03 E129.66952
G0 F3600 X-23.829 Y-4.596
G1 F900 X4.596 Y23.829 E131.67506
G0 F3600 X5.161 Y23.829
G1 F900 X-23.829 Y-5.161 E133.72046
G0 F3600 X-23.829 Y-5.727
G1 F900 X5.727 Y23.829 E135.8058
G0 F3600 X6.293 Y23.829
G1 F900 X-23.829 Y-6.293 E137.93107
G0 F3600 X-23.829 Y-6.858
G1 F900 X6.858 Y23.829 E140.0962
G0 F3600 X7.424 Y23.829
G1 F900 X-23.829 Y-7.424 E142.30127
G0 F3600 X-23.829 Y-7.99
G1 F900 X7.99 Y23.829 E144.54627
G0 F3600 X8.555 Y23.829
G1 F900 X-23.829 Y-8.555 E146.83114
G0 F3600 X-23.829 Y-9.121
G1 F900 X9.121 Y23.829 E149.15594
G0 F3600 X9.687 Y23.829
G1 F900 X-23.829 Y-9.687 E151.52067
G0 F3600 X-23.829 Y-10.253
G1 F900 X10.253 Y23.829 E153.92534
G0 F3600 X10.818 Y23.829
G1 F900 X-23.829 Y-10.818 E156.36987
G0 F3600 X-23.829 Y-11.384
G1 F900 X11.384 Y23.829 E158.85434
G0 F3600 X11.95 Y23.829
G1 F900 X-23.829 Y-11.95 E161.37874
G0 F3600 X-23.829 Y-12.515
G1 F900 X12.515 Y23.829 E163.94301
G0 F3600 X13.081 Y23.829
G1 F900 X-23.829 Y-13.081 E166.54721
G0 F3600 X-23.829 Y-13.647
G1 F900 X13.647 Y23.829 E169.19134
G0 F3600 X14.212 Y23.829
G1 F900 X-23.829 Y-14.212 E171.87534
G0 F3600 X-23.829 Y-14.778
G1 F900 X14.778 Y23.829 E174.59927
G0 F3600 X15.344 Y23.829
G1 F900 X-23.829 Y-15.344 E177.36314
G0 F3600 X-23.829 Y-15.909
G1 F900 X15.909 Y23.829 E180.16687
G0 F3600 X16.475 Y23.829
G1 F900 X-23.829 Y-16.475 E183.01054
G0 F3600 X-23.829 Y-17.041
G1 F900 X17.041 Y23.829 E185.89414
G0 F3600 X17.606 Y23.829
G1 F900 X-23.829 Y-17.606 E188.8176
G0 F3600 X-23.829 Y-18.172
G1 F900 X18.172 Y23.829 E191.781
G0 F3600 X18.738 Y23.829
G1 F900 X-23.829 Y-18.738 E194.78433
G0 F3600 X-23.829 Y-19.304
G1 F900 X19.304 Y23.829 E197.82759
G0 F3600 X19.869 Y23.829
G1 F900 X-23.829 Y-19.869 E200.91072
G0 F3600 X-23.829 Y-20.435
G1 F900 X20.435 Y23.829 E204.03379
G0 F3600 X21.001 Y23.829
G1 F900 X-23.829 Y-21.001 E207.19679
G0 F3600 X-23.829 Y-21.566
G1 F900 X21.566 Y23.829 E210.39965
G0 F3600 X22.132 Y23.829
G1 F900 X-23.829 Y-22.132 E213.64245
G0 F3600 X-23.829 Y-22.698
G1 F900 X22.698 Y23.829 E216.92518
G0 F3600 X23.263 Y23.829
G1 F900 X-23.829 Y-23.263 E220.24777
G0 F3600 X-23.829 Y-23.829
G1 F900 X23.829 Y23.829 E223.6103
G0 F3600 X23.829 Y23.263
G1 F900 X-23.263 Y-23.829 E226.9329
G0 F3600 X-22.698 Y-23.829
G1 F900 X23.829 Y22.698 E230.21563
G0 F3600 X23.829 Y22.132
G1 F900 X-22.132 Y-23.829 E233.45842
G0 F3600 X-21.566 Y-23.829
G1 F900 X23.829 Y21.566 E236.66129
G0 F3600 X23.829 Y21.001
G1 F900 X-21.001 Y-23.829 E239.82428
G0 F3600 X-20.435 Y-23.829
G1 F900 X23.829 Y20.435 E242.94735
G0 F3600 X23.829 Y19.869
G1 F900 X-19.869 Y-23.829 E246.03048
G0 F3600 X-19.304 Y-23.829
G1 F900 X23.829 Y19.304 E249.07375
G0 F3600 X23.829 Y18.738
G1 F900 X-18.738 Y-23.829 E252.07708
G0 F3600 X-18.172 Y-23.829
G1 F900 X23.829 Y18.172 E255.04047
G0 F3600 X23.829 Y17.606
G1 F900 X-17.606 Y-23.829 E257.96394
G0 F3600 X-17.041 Y-23.829
G1 F900 X23.829 Y17.041 E260.84754
G0 F3600 X23.829 Y16.475
G1 F900 X-16.475 Y-23.829 E263.6912
G0 F3600 X-15.909 Y-23.829
G1 F900 X23.829 Y15.909 E266.49493
G0 F3600 X23.829 Y15.344
G1 F900 X-15.344 Y-23.829 E269.2588
G0 F3600 X-14.778 Y-23.829
G1 F900 X23.829 Y14.778 E271.98273
G0 F3600 X23.829 Y14.212
G1 F900 X-14.212 Y-23.829 E274.66673
G0 F3600 X-13.647 Y-23.829
G1 F900 X23.829 Y13.647 E277.31086
G0 F3600 X23.829 Y13.081
G1 F900 X-13.081 Y-23.829 E279.91506
G0 F3600 X-12.515 Y-23.829
G1 F900 X23.829 Y12.515 E282.47933
G0 F3600 X23.829 Y11.95
G1 F900 X-11.95 Y-23.829 E285.00373
G0 F3600 X-11.384 Y-23.829
G1 F900 X23.829 Y11.384 E287.4882
G0 F3600 X23.829 Y10.818
G1 F900 X-10.818 Y-23.829 E289.93273
G0 F3600 X-10.253 Y-23.829
G1 F900 X23.829 Y10.253 E292.3374
G0 F3600 X23.829 Y9.687
G1 F900 X-9.687 Y-23.829 E294.70213
G0 F3600 X-9.121 Y-23.829
G1 F900 X23.829 Y9.121 E297.02694
G0 F3600 X23.829 Y8.555
G1 F900 X-8.555 Y-23.829 E299.3118
G0 F3600 X-7.99 Y-23.829
G1 F900 X23.829 Y7.99 E301.5568
G0 F3600 X23.829 Y7.424
G1 F900 X-7.424 Y-23.829 E303.76187
G0 F3600 X-6.858 Y-23.829
G1 F900 X23.829 Y6.858 E305.92701
G0 F3600 X23.829 Y6.293
G1 F900 X-6.293 Y-23.829 E308.05227
G0 F3600 X-5.727 Y-23.829
G1 F900 X23.829 Y5.727 E310.13761
G0 F3600 X23.829 Y5.161
G1 F900 X-5.161 Y-23.829 E312.18301
G0 F3600 X-4.596 Y-23.829
G1 F900 X23.829 Y4.596 E314.18855
G0 F3600 X23.829 Y4.03
G1 F900 X-4.03 Y-23.829 E316.15415
G0 F3600 X-3.464 Y-23.829
G1 F900 X23.829 Y3.464 E318.07982
G0 F3600 X23.829 Y2.899
G1 F900 X-2.899 Y-23.829 E319.96562
G0 F3600 X-2.333 Y-23.829
G1 F900 X23.829 Y2.333 E321.8115
G0 F3600 X23.829 Y1.767
G1 F900 X-1.767 Y-23.829 E323.61743
G0 F3600 X-1.202 Y-23.829
G1 F900 X23.829 Y1.202 E325.3835
G0 F3600 X23.829 Y0.636
G1 F900 X-.636 Y-23.829 E327.10964
G0 F3600 X-0.07 Y-23.829
G1 F900 X23.829 Y0.07 E328.79585
G0 F3600 X23.829 Y-.494
G1 F900 X0.494 Y-23.829 E330.44226
G0 F3600 X1.06 Y-23.829
G1 F900 X23.829 Y-1.06 E332.04873
G0 F3600 X23.829 Y-1.626
G1 F900 X1.626 Y-23.829 E333.61527
G0 F3600 X2.192 Y-23.829
G1 F900 X23.829 Y-2.192 E335.14188
G0 F3600 X23.829 Y-2.757
G1 F900 X2.757 Y-23.829 E336.62862
G0 F3600 X3.323 Y-23.829
G1 F900 X23.829 Y-3.323 E338.07543
G0 F3600 X23.829 Y-3.889
G1 F900 X3.889 Y-23.829 E339.48231
G0 F3600 X4.454 Y-23.829
G1 F900 X23.829 Y-4.454 E340.84932
G0 F3600 X23.829 Y-5.02
G1 F900 X5.02 Y-23.829 E342.17639
G0 F3600 X5.586 Y-23.829
G1 F900 X23.829 Y-5.586 E343.46354
G0 F3600 X23.829 Y-6.151
G1 F900 X6.151 Y-23.829 E344.71082
G0 F3600 X6.717 Y-23.829
G1 F900 X23.829 Y-6.717 E345.91816
G0 F3600 X23.829 Y-7.283
G1 F900 X7.283 Y-23.829 E347.08557
G0 F3600 X7.848 Y-23.829
G1 F900 X23.829 Y-7.848 E348.21311
G0 F3600 X23.829 Y-8.414
G1 F900 X8.414 Y-23.829 E349.30073
G0 F3600 X8.98 Y-23.829
G1 F900 X23.829 Y-8.98 E350.3484
G0 F3600 X23.829 Y-9.545
G1 F900 X9.545 Y-23.829 E351.35622
G0 F3600 X10.111 Y-23.829
G1 F900 X23.829 Y-10.111 E352.3241
