;FLAVOR:Marlin
;TIME:586
;Filament used: 0.379431m
;Layer height: 0.2
;MINX:-10.39
;MINY:-14.65
;MINZ:0.3
;MAXX:10.39
;MAXY:14.65
;MAXZ:5.1
;Generated with Cura_SteamEngine 4.13.1
M140 S65
M105
M190 S65
M104 S200
M105
M109 S200
M82 ;absolute extrusion mode
M190 S65 ; set bed temperature
M104 S190 ; set temperature
G28 ; home all axes
G1 Z100 F9000
M109 S190 ; wait for temperature to be reached
G21 ; set units to millimeters
G90 ; use absolute coordinates
M82 ; use absolute distances for extrusion
G92 E0

G1 Z0.300 F4800.000
G1 X0.000 Y70.000 F4800.000
G1 X40.000 Y50.000 E10.000 F1080.000

G1 Z5 F5000 ; lift nozzle
G1 X0 Y0
G28
G92 E0
G92 E0
G1 F750 E-6.5
;LAYER_COUNT:25
;LAYER:0
M107
G0 F3600 X-3.877 Y-.469 Z0.3
;TYPE:SKIRT
G1 F750 E0
G1 F1050 X-3.877 Y0.47 E0.05622
G1 X-3.787 Y1.415 E0.11305
G1 X-3.608 Y2.338 E0.16934
G1 X-3.345 Y3.233 E0.22518
G1 X-2.991 Y4.117 E0.28219
G1 X-2.554 Y4.962 E0.33915
G1 X-2.051 Y5.744 E0.39481
G1 X-1.47 Y6.481 E0.451
G1 X-.813 Y7.171 E0.50804
G1 X-.104 Y7.784 E0.56415
G1 X0.677 Y8.34 E0.62154
G1 X1.481 Y8.802 E0.67706
G1 X2.338 Y9.192 E0.73343
G1 X3.247 Y9.505 E0.79098
G1 X4.16 Y9.726 E0.84722
G1 X5.085 Y9.855 E0.90314
G1 X6.071 Y9.9 E0.96223
G1 X9.19 Y9.901 E1.14896
G1 X9.497 Y9.941 E1.16749
G1 X9.783 Y10.058 E1.18599
G1 X10.03 Y10.244 E1.2045
G1 X10.221 Y10.487 E1.22301
G1 X10.344 Y10.771 E1.24154
G1 X10.39 Y11.101 E1.26148
G1 X10.39 Y13.45 E1.40211
G1 X10.35 Y13.757 E1.42065
G1 X10.233 Y14.043 E1.43915
G1 X10.047 Y14.29 E1.45766
G1 X9.804 Y14.481 E1.47616
G1 X9.52 Y14.604 E1.49469
G1 X9.19 Y14.65 E1.51464
G1 X-9.19 Y14.65 E2.61502
G1 X-9.497 Y14.61 E2.63355
G1 X-9.783 Y14.493 E2.65205
G1 X-10.03 Y14.307 E2.67056
G1 X-10.221 Y14.064 E2.68907
G1 X-10.344 Y13.78 E2.7076
G1 X-10.39 Y13.45 E2.72754
G1 X-10.39 Y-13.45 E4.338
G1 X-10.35 Y-13.757 E4.35654
G1 X-10.233 Y-14.043 E4.37504
G1 X-10.047 Y-14.29 E4.39355
G1 X-9.804 Y-14.481 E4.41205
G1 X-9.52 Y-14.604 E4.43058
G1 X-9.19 Y-14.65 E4.45053
G1 X9.19 Y-14.65 E5.55091
G1 X9.497 Y-14.61 E5.56944
G1 X9.783 Y-14.493 E5.58794
G1 X10.03 Y-14.307 E5.60645
G1 X10.221 Y-14.064 E5.62495
G1 X10.344 Y-13.78 E5.64348
G1 X10.39 Y-13.45 E5.66343
G1 X10.39 Y-11.1 E5.80412
G1 X10.35 Y-10.793 E5.82266
G1 X10.233 Y-10.507 E5.84116
G1 X10.047 Y-10.26 E5.85967
G1 X9.804 Y-10.069 E5.87817
G1 X9.52 Y-9.946 E5.8967
G1 X9.19 Y-9.9 E5.91665
G1 X6.041 Y-9.899 E6.10517
G1 X5.081 Y-9.854 E6.16271
G1 X4.166 Y-9.724 E6.21804
G1 X3.244 Y-9.505 E6.27477
G1 X2.338 Y-9.192 E6.33216
G1 X1.481 Y-8.802 E6.38853
G1 X0.677 Y-8.34 E6.44404
G1 X-.104 Y-7.784 E6.50144
G1 X-.813 Y-7.171 E6.55755
G1 X-1.47 Y-6.481 E6.61459
G1 X-2.051 Y-5.744 E6.67078
G1 X-2.554 Y-4.963 E6.72639
G1 X-2.991 Y-4.117 E6.7834
G1 X-3.345 Y-3.233 E6.84041
G1 X-3.608 Y-2.338 E6.89626
G1 X-3.787 Y-1.414 E6.9526
G1 X-3.877 Y-.469 E7.00943
G0 F3600 X-4.357 Y-.493
G1 F1050 X-4.357 Y0.495 E7.06858
G1 X-4.263 Y1.481 E7.12788
G1 X-4.076 Y2.446 E7.18673
G1 X-3.795 Y3.402 E7.24638
G1 X-3.431 Y4.31 E7.30495
G1 X-2.972 Y5.199 E7.36485
G1 X-2.44 Y6.026 E7.42372
G1 X-1.831 Y6.799 E7.48263
G1 X-1.147 Y7.517 E7.542
G1 X-.397 Y8.165 E7.60134
G1 X0.412 Y8.741 E7.6608
G1 X1.265 Y9.231 E7.71969
G1 X2.159 Y9.638 E7.7785
G1 X3.106 Y9.965 E7.83848
G1 X4.082 Y10.2 E7.89858
G1 X5.038 Y10.334 E7.95637
G1 X6.049 Y10.38 E8.01696
G1 X9.19 Y10.381 E8.20501
G1 X9.426 Y10.421 E8.21934
G1 X9.636 Y10.536 E8.23367
G1 X9.796 Y10.713 E8.24796
G1 X9.89 Y10.933 E8.26228
G1 X9.91 Y11.101 E8.27241
G1 X9.91 Y13.45 E8.41304
G1 X9.87 Y13.686 E8.42737
G1 X9.755 Y13.896 E8.4417
G1 X9.578 Y14.056 E8.45599
G1 X9.358 Y14.15 E8.47031
G1 X9.19 Y14.17 E8.48044
G1 X-9.19 Y14.17 E9.58082
G1 X-9.426 Y14.13 E9.59515
G1 X-9.636 Y14.015 E9.60948
G1 X-9.796 Y13.838 E9.62377
G1 X-9.89 Y13.618 E9.63809
G1 X-9.91 Y13.45 E9.64822
G1 X-9.91 Y-13.45 E11.25868
G1 X-9.87 Y-13.686 E11.27301
G1 X-9.755 Y-13.896 E11.28734
G1 X-9.578 Y-14.056 E11.30162
G1 X-9.358 Y-14.15 E11.31595
G1 X-9.19 Y-14.17 E11.32608
G1 X9.19 Y-14.17 E12.42645
G1 X9.426 Y-14.13 E12.44078
G1 X9.636 Y-14.015 E12.45512
G1 X9.796 Y-13.838 E12.4694
G1 X9.89 Y-13.618 E12.48373
G1 X9.91 Y-13.45 E12.49385
G1 X9.91 Y-11.1 E12.63455
G1 X9.87 Y-10.864 E12.64888
G1 X9.755 Y-10.654 E12.66321
G1 X9.578 Y-10.494 E12.67749
G1 X9.358 Y-10.4 E12.69182
G1 X9.19 Y-10.38 E12.70195
G1 X6.018 Y-10.379 E12.89185
G1 X5.043 Y-10.334 E12.95028
G1 X4.074 Y-10.196 E13.00888
G1 X3.11 Y-9.966 E13.06821
G1 X2.159 Y-9.638 E13.12844
G1 X1.265 Y-9.231 E13.18725
G1 X0.412 Y-8.741 E13.24614
G1 X-.397 Y-8.165 E13.3056
G1 X-1.147 Y-7.517 E13.36493
G1 X-1.831 Y-6.799 E13.4243
G1 X-2.44 Y-6.026 E13.48322
G1 X-2.971 Y-5.201 E13.54196
G1 X-3.431 Y-4.31 E13.60199
G1 X-3.795 Y-3.402 E13.66055
G1 X-4.076 Y-2.446 E13.72021
G1 X-4.263 Y-1.481 E13.77906
G1 X-4.357 Y-.493 E13.83847
G0 F3600 X-4.837 Y-.517
G1 F1050 X-4.837 Y0.519 E13.9005
G1 X-4.739 Y1.545 E13.9622
G1 X-4.541 Y2.566 E14.02447
G1 X-4.252 Y3.552 E14.08598
G1 X-3.865 Y4.517 E14.14822
G1 X-3.391 Y5.435 E14.21008
G1 X-2.831 Y6.305 E14.27202
G1 X-2.197 Y7.111 E14.33341
G1 X-1.475 Y7.868 E14.39604
G1 X-.696 Y8.541 E14.45767
G1 X0.153 Y9.145 E14.52005
G1 X1.049 Y9.661 E14.58195
G1 X1.983 Y10.086 E14.64339
G1 X2.972 Y10.427 E14.70602
G1 X3.983 Y10.671 E14.76828
G1 X4.993 Y10.812 E14.82933
G1 X6.049 Y10.86 E14.89262
G1 X9.19 Y10.861 E15.08067
G1 X9.321 Y10.9 E15.08885
G1 X9.41 Y11.005 E15.09709
G1 X9.43 Y11.101 E15.10296
G1 X9.43 Y13.45 E15.24359
G1 X9.391 Y13.581 E15.25177
G1 X9.286 Y13.67 E15.26002
G1 X9.19 Y13.69 E15.26589
G1 X-9.19 Y13.69 E16.36626
G1 X-9.321 Y13.651 E16.37445
G1 X-9.41 Y13.546 E16.38269
G1 X-9.43 Y13.45 E16.38856
G1 X-9.43 Y-13.45 E17.99901
G1 X-9.391 Y-13.581 E18.0072
G1 X-9.286 Y-13.67 E18.01544
G1 X-9.19 Y-13.69 E18.02131
G1 X9.19 Y-13.69 E19.12169
G1 X9.321 Y-13.651 E19.12987
G1 X9.41 Y-13.546 E19.13811
G1 X9.43 Y-13.45 E19.14398
G1 X9.43 Y-11.1 E19.28467
G1 X9.391 Y-10.969 E19.29285
G1 X9.286 Y-10.88 E19.30109
G1 X9.19 Y-10.86 E19.30697
G1 X6.017 Y-10.859 E19.49693
G1 X4.996 Y-10.812 E19.55812
G1 X3.982 Y-10.667 E19.61944
G1 X2.972 Y-10.427 E19.68159
G1 X1.983 Y-10.086 E19.74422
G1 X1.049 Y-9.661 E19.80566
G1 X0.153 Y-9.145 E19.86756
G1 X-.696 Y-8.541 E19.92994
G1 X-1.475 Y-7.868 E19.99157
G1 X-2.197 Y-7.111 E20.0542
G1 X-2.831 Y-6.305 E20.11559
G1 X-3.39 Y-5.437 E20.1774
G1 X-3.865 Y-4.517 E20.23939
G1 X-4.252 Y-3.552 E20.30163
G1 X-4.54 Y-2.571 E20.36284
G1 X-4.739 Y-1.545 E20.42541
G1 X-4.837 Y-.517 E20.48723
G1 F750 E13.98723
;MESH:heatsinkShroud (1).stl
G0 F3600 X-5.736 Y0.558
G0 X-5.65 Y1.678
G0 X-5.437 Y2.78
G0 X-5.12 Y3.857
G0 X-4.704 Y4.898
G0 X-4.188 Y5.895
G0 X-3.581 Y6.84
G0 X-2.886 Y7.72
G0 X-2.112 Y8.532
G0 X-1.263 Y9.267
G0 X-.348 Y9.917
G0 X0.624 Y10.477
G0 X1.647 Y10.942
G0 X2.505 Y11.238
G0 X8.45 Y12.74
G1 F750 E20.48723
G0 F3600 X8.75 Y13.01
;TYPE:WALL-OUTER
G1 F1050 X-8.75 Y13.01 E21.53493
G1 X-8.75 Y-13.01 E23.0927
G1 X8.75 Y-13.01 E24.14039
G1 X8.75 Y-11.54 E24.2284
G1 X5.991 Y-11.539 E24.39358
G1 X4.931 Y-11.49 E24.4571
G1 X3.843 Y-11.335 E24.5229
G1 X2.774 Y-11.078 E24.58872
G1 X1.735 Y-10.719 E24.65453
G1 X0.734 Y-10.264 E24.72036
G1 X-.219 Y-9.715 E24.78621
G1 X-1.115 Y-9.078 E24.85202
G1 X-1.947 Y-8.359 E24.91786
G1 X-2.705 Y-7.563 E24.98366
G1 X-3.386 Y-6.701 E25.04943
G1 X-3.981 Y-5.775 E25.11533
G1 X-4.486 Y-4.799 E25.18111
G1 X-4.894 Y-3.779 E25.24688
G1 X-5.204 Y-2.724 E25.31272
G1 X-5.413 Y-1.644 E25.37857
G1 X-5.517 Y-.549 E25.44442
G1 X-5.517 Y0.549 E25.51016
G1 X-5.413 Y1.644 E25.57601
G1 X-5.204 Y2.724 E25.64187
G1 X-4.894 Y3.779 E25.7077
G1 X-4.486 Y4.799 E25.77347
G1 X-3.981 Y5.775 E25.83926
G1 X-3.386 Y6.701 E25.90515
G1 X-2.705 Y7.563 E25.97092
G1 X-1.947 Y8.359 E26.03673
G1 X-1.115 Y9.078 E26.10256
G1 X-.219 Y9.715 E26.16838
G1 X0.734 Y10.264 E26.23422
G1 X1.735 Y10.719 E26.30005
G1 X2.774 Y11.078 E26.36586
G1 X3.843 Y11.335 E26.43168
G1 X4.932 Y11.49 E26.49754
G1 X6.024 Y11.54 E26.56298
G1 X8.75 Y11.54 E26.72618
G1 X8.75 Y13.01 E26.81419
G0 F3600 X8.55 Y13.01
G0 X8.27 Y12.53
;TYPE:WALL-INNER
G1 F1050 X-8.27 Y12.53 E27.80441
G1 X-8.27 Y-12.53 E29.30471
G1 X8.27 Y-12.53 E30.29493
G1 X8.27 Y-12.02 E30.32546
G1 X5.98 Y-12.019 E30.46256
G1 X4.886 Y-11.968 E30.52813
G1 X3.753 Y-11.807 E30.59664
G1 X2.639 Y-11.539 E30.66524
G1 X1.557 Y-11.165 E30.73377
G1 X0.514 Y-10.691 E30.80236
G1 X-.478 Y-10.119 E30.87092
G1 X-1.412 Y-9.456 E30.93949
G1 X-2.279 Y-8.707 E31.00808
G1 X-3.068 Y-7.878 E31.0766
G1 X-3.777 Y-6.98 E31.1451
G1 X-4.397 Y-6.016 E31.21372
G1 X-4.923 Y-4.999 E31.28226
G1 X-5.348 Y-3.936 E31.3508
G1 X-5.671 Y-2.838 E31.41932
G1 X-5.889 Y-1.712 E31.48798
G1 X-5.997 Y-.572 E31.55654
G1 X-5.997 Y0.572 E31.62503
G1 X-5.889 Y1.712 E31.69358
G1 X-5.671 Y2.838 E31.76225
G1 X-5.348 Y3.936 E31.83077
G1 X-4.923 Y4.999 E31.89931
G1 X-4.397 Y6.016 E31.96785
G1 X-3.777 Y6.98 E32.03647
G1 X-3.068 Y7.878 E32.10497
G1 X-2.279 Y8.707 E32.17349
G1 X-1.412 Y9.456 E32.24208
G1 X-.478 Y10.119 E32.31065
G1 X0.514 Y10.691 E32.37921
G1 X1.557 Y11.165 E32.4478
G1 X2.639 Y11.539 E32.51633
G1 X3.753 Y11.807 E32.58493
G1 X4.887 Y11.968 E32.6535
G1 X6.013 Y12.02 E32.72099
G1 X8.27 Y12.02 E32.85611
G1 X8.27 Y12.53 E32.88664
G0 F3600 X2.504 Y12
G1 F1050 X2.712 Y12.05 E32.89945
G1 X1.379 Y12.05 E32.97925
G1 X-7.79 Y12.05 E33.52818
G1 X-7.79 Y-12.05 E34.97101
G1 X1.379 Y-12.05 E35.51994
G1 X2.712 Y-12.05 E35.59975
G1 X2.504 Y-12 E35.61255
G1 X1.379 Y-11.611 E35.64727
G1 X0.294 Y-11.118 E35.71861
G1 X-.737 Y-10.524 E35.78985
G1 X-1.708 Y-9.834 E35.86116
G1 X-2.611 Y-9.055 E35.93256
G1 X-3.431 Y-8.193 E36.00379
G1 X-4.168 Y-7.259 E36.07502
G1 X-4.813 Y-6.257 E36.14636
G1 X-5.36 Y-5.199 E36.21767
G1 X-5.802 Y-4.093 E36.28897
G1 X-6.138 Y-2.952 E36.36018
G1 X-6.365 Y-1.78 E36.43165
G1 X-6.477 Y-.595 E36.50291
G1 X-6.477 Y0.595 E36.57415
G1 X-6.365 Y1.78 E36.64541
G1 X-6.138 Y2.952 E36.71688
G1 X-5.802 Y4.093 E36.78809
G1 X-5.36 Y5.199 E36.8594
G1 X-4.813 Y6.257 E36.93071
G1 X-4.168 Y7.259 E37.00205
G1 X-3.431 Y8.193 E37.07328
G1 X-2.611 Y9.055 E37.1445
G1 X-1.708 Y9.834 E37.2159
G1 X-.737 Y10.524 E37.28721
G1 X0.294 Y11.118 E37.35845
G1 X1.379 Y11.611 E37.4298
G1 X2.504 Y12 E37.46451
G0 F3600 X0.174 Y11.94
G0 X0.174 Y11.58
;TYPE:SKIN
G1 F1050 X-7.32 Y11.58 E37.91316
G1 X-7.32 Y-11.58 E39.29971
G1 X0.174 Y-11.58 E39.74837
G1 X0.079 Y-11.537 E39.75461
G1 X-.991 Y-10.92 E39.82856
G1 X-1.998 Y-10.204 E39.90253
G1 X-2.936 Y-9.396 E39.97665
G1 X-3.787 Y-8.501 E40.05058
G1 X-4.551 Y-7.533 E40.12441
G1 X-5.22 Y-6.492 E40.1985
G1 X-5.788 Y-5.395 E40.27245
G1 X-6.247 Y-4.247 E40.34647
G1 X-6.595 Y-3.063 E40.42035
G1 X-6.831 Y-1.847 E40.49451
G1 X-6.947 Y-.617 E40.56848
G1 X-6.947 Y0.617 E40.64235
G1 X-6.831 Y1.847 E40.71632
G1 X-6.595 Y3.063 E40.79048
G1 X-6.247 Y4.247 E40.86436
G1 X-5.788 Y5.395 E40.93838
G1 X-5.22 Y6.492 E41.01233
G1 X-4.551 Y7.533 E41.08642
G1 X-3.787 Y8.501 E41.16024
G1 X-2.936 Y9.396 E41.23418
G1 X-1.998 Y10.204 E41.3083
G1 X-.991 Y10.92 E41.38227
G1 X0.079 Y11.537 E41.45622
G1 X0.174 Y11.58 E41.46246
G0 F3600 X0.174 Y11.94
G0 X-6.969 Y11.94
G0 X-6.969 Y11.358
G1 F1050 X-7.1 Y11.228 E41.47351
G0 F3600 X-7.1 Y10.549
G1 F1050 X-6.29 Y11.358 E41.54205
G0 F3600 X-5.611 Y11.358
G1 F1050 X-7.1 Y9.87 E41.66808
G0 F3600 X-7.1 Y9.191
G1 F1050 X-4.932 Y11.358 E41.85159
G0 F3600 X-4.253 Y11.358
G1 F1050 X-7.1 Y8.512 E42.09259
G0 F3600 X-7.1 Y7.834
G1 F1050 X-3.575 Y11.358 E42.391
G0 F3600 X-2.896 Y11.358
G1 F1050 X-7.1 Y7.155 E42.7469
G0 F3600 X-7.1 Y6.476
G1 F1050 X-2.217 Y11.358 E43.16028
G0 F3600 X-1.538 Y11.358
G1 F1050 X-7.1 Y5.797 E43.63115
G0 F3600 X-7.1 Y5.118
G1 F1050 X-5.038 Y7.179 E43.80569
G1 X-4.968 Y7.249
G0 F3600 X-4.499 Y6.948
G0 X-5.403 Y5.357
G0 X-5.917 Y5.622
G1 F1050 X-7.1 Y4.439 E43.90585
G0 F3600 X-7.1 Y3.761
G1 F1050 X-6.395 Y4.465 E43.9655
G1 X-6.325 Y4.535
G0 F3600 X-5.825 Y4.335
G0 X-6.145 Y3.32
G0 X-6.699 Y3.482
G1 F1050 X-7.1 Y3.082 E43.99941
G0 F3600 X-6.908 Y2.595
G1 F1050 X-7.1 Y2.403 E44.01567
G1 F750 E37.51567
G0 F3600 X-7.68 Y2.403
G0 X-7.608 Y11.868
G0 X1.438 Y11.845
G0 X-4.819 Y5.928
G0 X-6.412 Y-2.118
G1 F750 E44.01567
G0 F3600 X-6.979 Y-2.228
G1 F1050 X-7.1 Y-2.348 E44.02587
G0 F3600 X-6.868 Y-2.795
G1 F1050 X-7.1 Y-3.027 E44.04551
G0 F3600 X-6.739 Y-3.345
G1 F1050 X-7.1 Y-3.705 E44.07603
G0 F3600 X-6.585 Y-3.869
G1 F1050 X-7.1 Y-4.384 E44.11964
G0 F3600 X-6.426 Y-4.389
G1 F1050 X-7.1 Y-5.063 E44.1767
G0 F3600 X-7.1 Y-5.742
G1 F1050 X-6.232 Y-4.874 E44.25019
G0 F3600 X-6.038 Y-5.359
G1 F1050 X-7.1 Y-6.421 E44.34011
G0 F3600 X-7.1 Y-7.1
G1 F1050 X-5.816 Y-5.816 E44.44882
G0 F3600 X-5.584 Y-6.263
G1 F1050 X-7.1 Y-7.778 E44.57713
G0 F3600 X-7.1 Y-8.457
G1 F1050 X-5.345 Y-6.702 E44.72572
G0 F3600 X-5.079 Y-7.116
G1 F1050 X-7.1 Y-9.136 E44.89679
G0 F3600 X-7.1 Y-9.815
G1 F1050 X-4.813 Y-7.529 E45.09038
G0 F3600 X-4.525 Y-7.919
G1 F1050 X-7.1 Y-10.494 E45.3084
G0 F3600 X-7.1 Y-11.172
G1 F1050 X-4.225 Y-8.298 E45.55177
G0 F3600 X-3.923 Y-8.675
G1 F1050 X-6.607 Y-11.358 E45.77897
G0 F3600 X-5.928 Y-11.358
G1 F1050 X-3.592 Y-9.023 E45.97671
G0 F3600 X-3.261 Y-9.371
G1 F1050 X-5.249 Y-11.358 E46.14499
G0 F3600 X-4.57 Y-11.358
G1 F1050 X-2.915 Y-9.703 E46.28511
G0 F3600 X-2.551 Y-10.018
G1 F1050 X-3.891 Y-11.358 E46.39856
G0 F3600 X-3.213 Y-11.358
G1 F1050 X-2.186 Y-10.332 E46.48547
G0 F3600 X-1.793 Y-10.618
G1 F1050 X-2.534 Y-11.358 E46.54817
G0 F3600 X-1.855 Y-11.358
G1 F1050 X-1.397 Y-10.9 E46.58694
G0 F3600 X-.991 Y-11.173
G1 F1050 X-1.176 Y-11.358 E46.60261
G1 F750 E40.10261
G0 F3600 X-1.176 Y-11.94
G0 X1.438 Y-11.845
G0 X-2.112 Y-8.532
G0 X-2.886 Y-7.72
G0 X-3.581 Y-6.84
G0 X-4.188 Y-5.895
G0 X-4.704 Y-4.898
G0 X-5.12 Y-3.857
G0 X-5.437 Y-2.78
G0 X-5.65 Y-1.678
G0 X-5.756 Y-.559
G0 X-5.756 Y0.559
G0 X-5.65 Y1.678
G0 X-5.437 Y2.78
G0 X-5.12 Y3.857
G0 X-4.704 Y4.898
G0 X-4.188 Y5.895
G0 X-.797 Y10.617
G1 F750 E46.60261
G0 F3600 X-1.123 Y11.095
G1 F1050 X-.859 Y11.358 E46.62492
G0 F3600 X-.859 Y12.32
;MESH:NONMESH
G0 F600 X-.859 Y12.32 Z0.5
G0 F3600 X8.48 Y12.74
G0 X8.79 Y13.05
;TIME_ELAPSED:53.947698
;LAYER:1
M106 S255
;TYPE:WALL-OUTER
;MESH:heatsinkShroud (1).stl
G1 F1050 X-8.79 Y13.05 E47.20963
G1 X-8.79 Y-13.05 E48.07772
G1 X8.79 Y-13.05 E48.66243
G1 X8.79 Y-11.5 E48.71399
G1 X6.024 Y-11.5 E48.80598
G1 X4.935 Y-11.45 E48.84224
G1 X3.85 Y-11.296 E48.87869
G1 X2.785 Y-11.039 E48.91513
G1 X1.75 Y-10.682 E48.95154
G1 X0.752 Y-10.228 E48.98801
G1 X-.197 Y-9.682 E49.02443
G1 X-1.091 Y-9.047 E49.0609
G1 X-1.919 Y-8.33 E49.09733
G1 X-2.675 Y-7.537 E49.13377
G1 X-3.353 Y-6.677 E49.17019
G1 X-3.946 Y-5.755 E49.20665
G1 X-4.449 Y-4.782 E49.24308
G1 X-4.856 Y-3.766 E49.27949
G1 X-5.166 Y-2.714 E49.31596
G1 X-5.373 Y-1.638 E49.35241
G1 X-5.477 Y-.547 E49.38886
G1 X-5.477 Y0.547 E49.42525
G1 X-5.373 Y1.638 E49.4617
G1 X-5.166 Y2.714 E49.49814
G1 X-4.856 Y3.766 E49.53462
G1 X-4.449 Y4.782 E49.57102
G1 X-3.946 Y5.755 E49.60745
G1 X-3.353 Y6.677 E49.64391
G1 X-2.675 Y7.537 E49.68034
G1 X-1.919 Y8.33 E49.71678
G1 X-1.091 Y9.047 E49.75321
G1 X-.197 Y9.682 E49.78968
G1 X0.752 Y10.228 E49.82609
G1 X1.75 Y10.682 E49.86256
G1 X2.785 Y11.039 E49.89898
G1 X3.85 Y11.296 E49.93541
G1 X4.935 Y11.45 E49.97186
G1 X6.024 Y11.5 E50.00812
G1 X8.79 Y11.5 E50.10012
G1 X8.79 Y13.05 E50.15167
G0 F5400 X8.59 Y13.05
G0 X8.39 Y12.65
;TYPE:WALL-INNER
G1 F1575 X-8.39 Y12.65 E50.70978
G1 X-8.39 Y-12.65 E51.55126
G1 X8.39 Y-12.65 E52.10936
G1 X8.39 Y-11.9 E52.13431
G1 X6.015 Y-11.9 E52.2133
G1 X4.898 Y-11.849 E52.25049
G1 X3.775 Y-11.689 E52.28822
G1 X2.673 Y-11.423 E52.32593
G1 X1.602 Y-11.054 E52.3636
G1 X0.569 Y-10.584 E52.40135
G1 X-.413 Y-10.019 E52.43903
G1 X-1.338 Y-9.362 E52.47677
G1 X-2.195 Y-8.62 E52.51447
G1 X-2.977 Y-7.799 E52.55218
G1 X-3.679 Y-6.91 E52.58986
G1 X-4.293 Y-5.955 E52.62762
G1 X-4.813 Y-4.949 E52.66528
G1 X-5.234 Y-3.897 E52.70297
G1 X-5.555 Y-2.809 E52.7407
G1 X-5.769 Y-1.695 E52.77843
G1 X-5.877 Y-.566 E52.81615
G1 X-5.877 Y0.566 E52.8538
G1 X-5.769 Y1.695 E52.89153
G1 X-5.555 Y2.809 E52.92925
G1 X-5.234 Y3.897 E52.96698
G1 X-4.813 Y4.949 E53.00467
G1 X-4.293 Y5.955 E53.04234
G1 X-3.679 Y6.91 E53.0801
G1 X-2.977 Y7.799 E53.11777
G1 X-2.195 Y8.62 E53.15549
G1 X-1.338 Y9.362 E53.19319
G1 X-.413 Y10.019 E53.23092
