;FLAVOR:Marlin
;TIME:1075
;Filament used: 0.665418m
;Layer height: 0.2
;MINX:-52
;MINY:-52
;MINZ:0.3
;MAXX:52
;MAXY:52
;MAXZ:0.5
;Generated with Cura_SteamEngine 4.13.1
M140 S60
M105
M190 S60
M104 S200
M105
M109 S200
M82 ;absolute extrusion mode
G21 ;metric values
G90 ;absolute positioning
M82 ;set extruder to absolute mode
M107 ;start with the fan off
G28 ;Home all axes (max endstops)
G1 Z15.0 F9000 ;move the platform down 15mm
G92 E0 ;zero the extruded length
G1 F200 E3 ;extrude 3mm of feed stock
G92 E0 ;zero the extruded length again
G1 F9000
;Put printing message on LCD screen
M117 Printing...
G92 E0
G92 E0
G1 F750 E-6.5
;LAYER_COUNT:2
;LAYER:0
M107
G0 F3600 X52 Y-50.2 Z0.3
;TYPE:SKIRT
G1 F750 E0
G1 F900 X52 Y50.2 E5.00898
G1 X51.96 Y50.577 E5.02789
G1 X51.842 Y50.937 E5.04679
G1 X51.652 Y51.264 E5.06566
G1 X51.397 Y51.545 E5.08459
G1 X51.088 Y51.765 E5.10351
G1 X50.741 Y51.917 E5.12241
G1 X50.2 Y52 E5.14972
G1 X-50.2 Y52 E10.1587
G1 X-50.577 Y51.96 E10.17761
G1 X-50.937 Y51.842 E10.19651
G1 X-51.264 Y51.652 E10.21538
G1 X-51.545 Y51.397 E10.23431
G1 X-51.765 Y51.088 E10.25324
G1 X-51.917 Y50.741 E10.27214
G1 X-52 Y50.2 E10.29944
G1 X-52 Y-50.2 E15.30842
G1 X-51.96 Y-50.577 E15.32733
G1 X-51.842 Y-50.937 E15.34623
G1 X-51.652 Y-51.264 E15.3651
G1 X-51.397 Y-51.545 E15.38403
G1 X-51.088 Y-51.765 E15.40296
G1 X-50.741 Y-51.917 E15.42186
G1 X-50.2 Y-52 E15.44916
G1 X50.2 Y-52 E20.45814
G1 X50.577 Y-51.96 E20.47705
G1 X50.937 Y-51.842 E20.49595
G1 X51.264 Y-51.652 E20.51482
G1 X51.545 Y-51.397 E20.53375
G1 X51.765 Y-51.088 E20.55268
G1 X51.917 Y-50.741 E20.57158
G1 X52 Y-50.2 E20.59888
G0 F3600 X51.6 Y-50.2
G1 F900 X51.6 Y50.2 E25.60786
G1 X51.56 Y50.532 E25.62454
G1 X51.443 Y50.844 E25.64117
G1 X51.255 Y51.121 E25.65787
G1 X51.007 Y51.344 E25.67451
G1 X50.713 Y51.503 E25.69118
G1 X50.2 Y51.6 E25.71723
G1 X-50.2 Y51.6 E30.72621
G1 X-50.532 Y51.56 E30.74289
G1 X-50.844 Y51.443 E30.75951
G1 X-51.121 Y51.255 E30.77622
G1 X-51.344 Y51.007 E30.79286
G1 X-51.503 Y50.713 E30.80953
G1 X-51.6 Y50.2 E30.83558
G1 X-51.6 Y-50.2 E35.84455
G1 X-51.56 Y-50.532 E35.86124
G1 X-51.443 Y-50.844 E35.87786
G1 X-51.255 Y-51.121 E35.89456
G1 X-51.007 Y-51.344 E35.9112
G1 X-50.713 Y-51.503 E35.92788
G1 X-50.2 Y-51.6 E35.95393
G1 X50.2 Y-51.6 E40.9629
G1 X50.532 Y-51.56 E40.97959
G1 X50.844 Y-51.443 E40.99621
G1 X51.121 Y-51.255 E41.01291
G1 X51.344 Y-51.007 E41.02955
G1 X51.503 Y-50.713 E41.04623
G1 X51.6 Y-50.2 E41.07227
G0 F3600 X51.2 Y-50.2
G1 F900 X51.2 Y50.2 E46.08125
G1 X51.16 Y50.479 E46.09531
G1 X51.044 Y50.736 E46.10938
G1 X50.861 Y50.951 E46.12346
G1 X50.625 Y51.105 E46.13752
G1 X50.2 Y51.2 E46.15925
G1 X-50.2 Y51.2 E51.16823
G1 X-50.479 Y51.16 E51.18229
G1 X-50.736 Y51.044 E51.19636
G1 X-50.951 Y50.861 E51.21044
G1 X-51.105 Y50.625 E51.2245
G1 X-51.2 Y50.2 E51.24623
G1 X-51.2 Y-50.2 E56.2552
G1 X-51.16 Y-50.479 E56.26927
G1 X-51.044 Y-50.736 E56.28333
G1 X-50.861 Y-50.951 E56.29742
G1 X-50.625 Y-51.105 E56.31148
G1 X-50.2 Y-51.2 E56.3332
G1 X50.2 Y-51.2 E61.34218
G1 X50.479 Y-51.16 E61.35624
G1 X50.736 Y-51.044 E61.37031
G1 X50.951 Y-50.861 E61.3844
G1 X51.105 Y-50.625 E61.39845
G1 X51.2 Y-50.2 E61.42018
G0 F3600 X50.8 Y-50.2
G1 F900 X50.8 Y50.2 E66.42916
G1 X50.76 Y50.415 E66.44007
G1 X50.647 Y50.601 E66.45093
G1 X50.474 Y50.734 E66.46181
G1 X50.2 Y50.8 E66.47587
G1 X-50.2 Y50.8 E71.48485
G1 X-50.415 Y50.76 E71.49576
G1 X-50.601 Y50.647 E71.50662
G1 X-50.734 Y50.474 E71.51751
G1 X-50.8 Y50.2 E71.53157
G1 X-50.8 Y-50.2 E76.54054
G1 X-50.76 Y-50.415 E76.55145
G1 X-50.647 Y-50.601 E76.56231
G1 X-50.474 Y-50.734 E76.5732
G1 X-50.2 Y-50.8 E76.58726
G1 X50.2 Y-50.8 E81.59623
G1 X50.415 Y-50.76 E81.60715
G1 X50.601 Y-50.647 E81.618
G1 X50.734 Y-50.474 E81.62889
G1 X50.8 Y-50.2 E81.64295
G0 F3600 X50.4 Y-50.2
G1 F900 X50.4 Y50.2 E86.65193
G1 X50.361 Y50.319 E86.65817
G1 X50.2 Y50.4 E86.66717
G1 X-50.2 Y50.4 E91.67614
G1 X-50.319 Y50.361 E91.68239
G1 X-50.4 Y50.2 E91.69138
G1 X-50.4 Y-50.2 E96.70036
G1 X-50.361 Y-50.319 E96.70661
G1 X-50.2 Y-50.4 E96.7156
G1 X50.2 Y-50.4 E101.72457
G1 X50.319 Y-50.361 E101.73082
G1 X50.4 Y-50.2 E101.73981
G1 F750 E95.23981
;MESH:test_square.stl
G0 F3600 X49.386 Y-49.386
G0 X45.2 Y-45.7
G1 F750 E101.73981
G0 F3600 X45.2 Y-45.2
;TYPE:WALL-OUTER
G1 F900 X-30.134 Y-45.2 E105.49824
G1 X-30.236 Y-44.953 E105.51157
G1 X44.953 Y30.236 E110.81656
G1 X45.2 Y30.134 E110.8299
G1 X45.2 Y-45.2 E114.58832
G0 F3600 X45 Y-45.2
G0 X45 Y-45.7
G0 X-45.2 Y-45.7
G0 X-45.2 Y-45.2
G1 F900 X-45.2 Y-34.917 E115.10135
G1 X34.917 Y45.2 E120.75403
G1 X45.2 Y45.2 E121.26705
G1 X45.2 Y34.917 E121.78007
G1 X-34.917 Y-45.2 E127.43276
G1 X-45.2 Y-45.2 E127.94578
G0 F3600 X-45.2 Y-45
G0 X-45.7 Y-45
G0 X-45.7 Y45.2
G0 X-45.2 Y45.2
G1 F900 X30.134 Y45.2 E131.70421
G1 X30.236 Y44.953 E131.71754
G1 X-44.953 Y-30.236 E137.02253
G1 X-45.2 Y-30.134 E137.03587
G1 X-45.2 Y45.2 E140.79429
G0 F3600 X-45 Y45.2
G0 X-45 Y45.7
G0 X-49.33 Y49.33
G0 X-49.8 Y49.8
G1 F900 X-49.8 Y-49.8 E145.76336
G1 X49.8 Y-49.8 E150.73242
G1 X49.8 Y49.8 E155.70149
G1 X-49.8 Y49.8 E160.67055
G0 F3600 X-49.8 Y49.6
G0 X-49.4 Y49.4
;TYPE:WALL-INNER
G1 F900 X-49.4 Y-49.4 E165.5997
G1 X49.4 Y-49.4 E170.52885
G1 X49.4 Y49.4 E175.45801
G1 X-49.4 Y49.4 E180.38716
G0 F3600 X-49.33 Y49.33
G0 X-45.67 Y45.67
G0 X-45.6 Y45.6
G1 F900 X30.402 Y45.6 E184.17891
G1 X30.708 Y44.859 E184.21891
G1 X-44.859 Y-30.708 E189.55057
G1 X-45.6 Y-30.402 E189.59057
G1 X-45.6 Y45.6 E193.38232
G0 F3600 X-45.67 Y45.67
G0 X-45.67 Y-45.67
G0 X-45.6 Y-45.6
G1 F900 X-45.6 Y-34.751 E193.92358
G1 X34.751 Y45.6 E199.59278
G1 X45.6 Y45.6 E200.13404
G1 X45.6 Y34.751 E200.6753
G1 X-34.751 Y-45.6 E206.34449
G1 X-45.6 Y-45.6 E206.88575
G0 F3600 X-45.67 Y-45.67
G0 X45.67 Y-45.67
G0 X45.6 Y-45.6
G1 F900 X-30.402 Y-45.6 E210.67751
G1 X-30.708 Y-44.859 E210.7175
G1 X44.859 Y30.708 E216.04916
G1 X45.6 Y30.402 E216.08916
G1 X45.6 Y-45.6 E219.88092
G0 F3600 X45.99 Y-45.99
;TYPE:SKIN
G1 F900 X-30.663 Y-45.99 E223.70515
G1 X-31.168 Y-44.767 E223.77116
G1 X44.767 Y31.168 E229.12879
G1 X45.99 Y30.663 E229.1948
G1 X45.99 Y-45.99 E233.01903
G0 F3600 X49.01 Y-49.01
G1 F900 X49.01 Y49.01 E237.90927
G1 X-49.01 Y49.01 E242.79951
G1 X-49.01 Y-49.01 E247.68975
G1 X49.01 Y-49.01 E252.57998
G0 F3600 X45.99 Y34.589
G1 F900 X-34.589 Y-45.99 E258.26527
G1 X-45.99 Y-45.99 E258.83407
G1 X-45.99 Y-34.589 E259.40286
G1 X34.589 Y45.99 E265.08815
G1 X45.99 Y45.99 E265.65695
G1 X45.99 Y34.589 E266.22574
G0 F3600 X45.628 Y45.628
G0 X34.736 Y45.636
G0 X31.168 Y44.767
G1 F900 X-44.767 Y-31.168 E271.58337
G1 X-45.99 Y-30.663 E271.64938
G1 X-45.99 Y45.99 E275.47361
G1 X30.663 Y45.99 E279.29785
G1 X31.168 Y44.767 E279.36386
G0 F3600 X30.424 Y45.633
G0 X-48.829 Y48.467
G1 F900 X-48.467 Y48.829 E279.3894
G0 F3600 X-47.902 Y48.829
G1 F900 X-48.829 Y47.902 E279.45481
G0 F3600 X-48.829 Y47.336
G1 F900 X-47.336 Y48.829 E279.56015
G0 F3600 X-46.77 Y48.829
G1 F900 X-48.829 Y46.77 E279.70542
G0 F3600 X-48.829 Y46.205
G1 F900 X-46.205 Y48.829 E279.89056
G0 F3600 X-45.639 Y48.829
G1 F900 X-48.829 Y45.639 E280.11563
G0 F3600 X-48.829 Y45.073
G1 F900 X-45.073 Y48.829 E280.38064
G0 F3600 X-44.508 Y48.829
G1 F900 X-48.829 Y44.508 E280.68551
G0 F3600 X-48.829 Y43.942
G1 F900 X-43.942 Y48.829 E281.03031
G0 F3600 X-43.376 Y48.829
G1 F900 X-46.036 Y46.169 E281.21799
G1 X-46.169 Y46.037
G1 X-48.829 Y43.376 E281.4057
G0 F3600 X-48.829 Y42.811
G1 F900 X-46.169 Y45.471 E281.59338
G0 F3600 X-46.169 Y44.906
G1 F900 X-48.829 Y42.245 E281.78109
G0 F3600 X-48.829 Y41.679
G1 F900 X-46.169 Y44.34 E281.9688
G0 F3600 X-46.169 Y43.774
G1 F900 X-48.829 Y41.114 E282.15648
G0 F3600 X-48.829 Y40.548
G1 F900 X-46.169 Y43.209 E282.34419
G0 F3600 X-46.169 Y42.643
G1 F900 X-48.829 Y39.982 E282.5319
G0 F3600 X-48.829 Y39.416
G1 F900 X-46.169 Y42.077 E282.71962
G0 F3600 X-46.169 Y41.512
G1 F900 X-48.829 Y38.851 E282.90733
G0 F3600 X-48.829 Y38.285
G1 F900 X-46.169 Y40.946 E283.09504
G0 F3600 X-46.169 Y40.38
G1 F900 X-48.829 Y37.719 E283.28276
G0 F3600 X-48.829 Y37.154
G1 F900 X-46.169 Y39.815 E283.47047
G0 F3600 X-46.169 Y39.249
G1 F900 X-48.829 Y36.588 E283.65818
G0 F3600 X-48.829 Y36.022
G1 F900 X-46.169 Y38.683 E283.84589
G0 F3600 X-46.169 Y38.118
G1 F900 X-48.829 Y35.457 E284.03361
G0 F3600 X-48.829 Y34.891
G1 F900 X-46.169 Y37.552 E284.22132
G0 F3600 X-46.169 Y36.986
G1 F900 X-48.829 Y34.325 E284.40903
G0 F3600 X-48.829 Y33.76
G1 F900 X-46.169 Y36.42 E284.59671
G0 F3600 X-46.169 Y35.855
G1 F900 X-48.829 Y33.194 E284.78442
G0 F3600 X-48.829 Y32.628
G1 F900 X-46.169 Y35.289 E284.97213
G0 F3600 X-46.169 Y34.723
G1 F900 X-48.829 Y32.063 E285.15981
G0 F3600 X-48.829 Y31.497
G1 F900 X-46.169 Y34.158 E285.34752
G0 F3600 X-46.169 Y33.592
G1 F900 X-48.829 Y30.931 E285.53524
G0 F3600 X-48.829 Y30.365
G1 F900 X-46.169 Y33.026 E285.72295
G0 F3600 X-46.169 Y32.461
G1 F900 X-48.829 Y29.8 E285.91066
G0 F3600 X-48.829 Y29.234
G1 F900 X-46.169 Y31.895 E286.09837
G0 F3600 X-46.169 Y31.329
G1 F900 X-48.829 Y28.668 E286.28609
G0 F3600 X-48.829 Y28.103
G1 F900 X-46.169 Y30.764 E286.4738
G0 F3600 X-46.169 Y30.198
G1 F900 X-48.829 Y27.537 E286.66151
G0 F3600 X-48.829 Y26.971
G1 F900 X-46.169 Y29.632 E286.84923
G0 F3600 X-46.169 Y29.067
G1 F900 X-48.829 Y26.406 E287.03694
G0 F3600 X-48.829 Y25.84
G1 F900 X-46.169 Y28.501 E287.22465
G0 F3600 X-46.169 Y27.935
G1 F900 X-48.829 Y25.274 E287.41236
G0 F3600 X-48.829 Y24.709
G1 F900 X-46.169 Y27.369 E287.60004
G0 F3600 X-46.169 Y26.804
G1 F900 X-48.829 Y24.143 E287.78775
G0 F3600 X-48.829 Y23.577
G1 F900 X-46.169 Y26.238 E287.97547
G0 F3600 X-46.169 Y25.672
G1 F900 X-48.829 Y23.012 E288.16314
G0 F3600 X-48.829 Y22.446
G1 F900 X-46.169 Y25.107 E288.35086
G0 F3600 X-46.169 Y24.541
G1 F900 X-48.829 Y21.88 E288.53857
G0 F3600 X-48.829 Y21.315
G1 F900 X-46.169 Y23.975 E288.72625
G0 F3600 X-46.169 Y23.41
G1 F900 X-48.829 Y20.749 E288.91396
G0 F3600 X-48.829 Y20.183
G1 F900 X-46.169 Y22.844 E289.10167
G0 F3600 X-46.169 Y22.278
G1 F900 X-48.829 Y19.617 E289.28938
G0 F3600 X-48.829 Y19.052
G1 F900 X-46.169 Y21.713 E289.4771
G0 F3600 X-46.169 Y21.147
G1 F900 X-48.829 Y18.486 E289.66481
G0 F3600 X-48.829 Y17.92
G1 F900 X-46.169 Y20.581 E289.85252
G0 F3600 X-46.169 Y20.016
G1 F900 X-48.829 Y17.355 E290.04023
G0 F3600 X-48.829 Y16.789
G1 F900 X-46.169 Y19.45 E290.22795
G0 F3600 X-46.169 Y18.884
G1 F900 X-48.829 Y16.223 E290.41566
G0 F3600 X-48.829 Y15.658
G1 F900 X-46.169 Y18.319 E290.60337
G0 F3600 X-46.169 Y17.753
G1 F900 X-48.829 Y15.092 E290.79108
G0 F3600 X-48.829 Y14.526
G1 F900 X-46.169 Y17.187 E290.9788
G0 F3600 X-46.169 Y16.621
G1 F900 X-48.829 Y13.961 E291.16647
G0 F3600 X-48.829 Y13.395
G1 F900 X-46.169 Y16.056 E291.35419
G0 F3600 X-46.169 Y15.49
G1 F900 X-48.829 Y12.829 E291.5419
G0 F3600 X-48.829 Y12.264
G1 F900 X-46.169 Y14.924 E291.72958
G0 F3600 X-46.169 Y14.359
G1 F900 X-48.829 Y11.698 E291.91729
G0 F3600 X-48.829 Y11.132
G1 F900 X-46.169 Y13.793 E292.105
G0 F3600 X-46.169 Y13.227
G1 F900 X-48.829 Y10.567 E292.29268
G0 F3600 X-48.829 Y10.001
G1 F900 X-46.169 Y12.662 E292.48039
G0 F3600 X-46.169 Y12.096
G1 F900 X-48.829 Y9.435 E292.66811
G0 F3600 X-48.829 Y8.869
G1 F900 X-46.169 Y11.53 E292.85582
G0 F3600 X-46.169 Y10.965
G1 F900 X-48.829 Y8.304 E293.04353
G0 F3600 X-48.829 Y7.738
G1 F900 X-46.169 Y10.399 E293.23124
G0 F3600 X-46.169 Y9.833
G1 F900 X-48.829 Y7.172 E293.41896
G0 F3600 X-48.829 Y6.607
G1 F900 X-46.169 Y9.268 E293.60667
G0 F3600 X-46.169 Y8.702
G1 F900 X-48.829 Y6.041 E293.79438
G0 F3600 X-48.829 Y5.475
G1 F900 X-46.169 Y8.136 E293.98209
G0 F3600 X-46.169 Y7.57
G1 F900 X-48.829 Y4.91 E294.16977
G0 F3600 X-48.829 Y4.344
G1 F900 X-46.169 Y7.005 E294.35748
G0 F3600 X-46.169 Y6.439
G1 F900 X-48.829 Y3.778 E294.5452
G0 F3600 X-48.829 Y3.213
G1 F900 X-46.169 Y5.873 E294.73287
G0 F3600 X-46.169 Y5.308
G1 F900 X-48.829 Y2.647 E294.92059
G0 F3600 X-48.829 Y2.081
G1 F900 X-46.169 Y4.742 E295.1083
G0 F3600 X-46.169 Y4.176
G1 F900 X-48.829 Y1.516 E295.29598
G0 F3600 X-48.829 Y0.95
G1 F900 X-46.169 Y3.611 E295.48369
G0 F3600 X-46.169 Y3.045
G1 F900 X-48.829 Y0.384 E295.6714
G0 F3600 X-48.829 Y-.181
G1 F900 X-46.169 Y2.479 E295.85908
G0 F3600 X-46.169 Y1.914
G1 F900 X-48.829 Y-.746 E296.04676
G0 F3600 X-48.829 Y-1.312
G1 F900 X-46.169 Y1.348 E296.23443
G0 F3600 X-46.169 Y0.782
G1 F900 X-48.829 Y-1.878 E296.42211
G0 F3600 X-48.829 Y-2.443
G1 F900 X-46.169 Y0.217 E296.60979
G0 F3600 X-46.169 Y-.348
G1 F900 X-48.829 Y-3.009 E296.7975
G0 F3600 X-48.829 Y-3.575
G1 F900 X-46.169 Y-.914 E296.98521
G0 F3600 X-46.169 Y-1.479
G1 F900 X-48.829 Y-4.14 E297.17293
G0 F3600 X-48.829 Y-4.706
G1 F900 X-46.169 Y-2.045 E297.36064
G0 F3600 X-46.169 Y-2.611
G1 F900 X-48.829 Y-5.272 E297.54835
G0 F3600 X-48.829 Y-5.837
G1 F900 X-46.169 Y-3.177 E297.73603
G0 F3600 X-46.169 Y-3.742
G1 F900 X-48.829 Y-6.403 E297.92374
G0 F3600 X-48.829 Y-6.969
G1 F900 X-46.169 Y-4.308 E298.11145
G0 F3600 X-46.169 Y-4.874
G1 F900 X-48.829 Y-7.534 E298.29913
G0 F3600 X-48.829 Y-8.1
G1 F900 X-46.169 Y-5.439 E298.48684
G0 F3600 X-46.169 Y-6.005
G1 F900 X-48.829 Y-8.666 E298.67456
G0 F3600 X-48.829 Y-9.231
G1 F900 X-46.169 Y-6.571 E298.86223
G0 F3600 X-46.169 Y-7.136
G1 F900 X-48.829 Y-9.797 E299.04995
G0 F3600 X-48.829 Y-10.363
G1 F900 X-46.169 Y-7.702 E299.23766
G0 F3600 X-46.169 Y-8.268
G1 F900 X-48.829 Y-10.929 E299.42537
G0 F3600 X-48.829 Y-11.494
G1 F900 X-46.169 Y-8.833 E299.61309
G0 F3600 X-46.169 Y-9.399
G1 F900 X-48.829 Y-12.06 E299.8008
G0 F3600 X-48.829 Y-12.626
G1 F900 X-46.169 Y-9.965 E299.98851
G0 F3600 X-46.169 Y-10.53
G1 F900 X-48.829 Y-13.191 E300.17622
G0 F3600 X-48.829 Y-13.757
G1 F900 X-46.169 Y-11.096 E300.36394
G0 F3600 X-46.169 Y-11.662
G1 F900 X-48.829 Y-14.323 E300.55165
G0 F3600 X-48.829 Y-14.888
G1 F900 X-46.169 Y-12.227 E300.73936
G0 F3600 X-46.169 Y-12.793
G1 F900 X-48.829 Y-15.454 E300.92707
G0 F3600 X-48.829 Y-16.02
G1 F900 X-46.169 Y-13.359 E301.11479
G0 F3600 X-46.169 Y-13.925
G1 F900 X-48.829 Y-16.585 E301.30246
G0 F3600 X-48.829 Y-17.151
G1 F900 X-46.169 Y-14.49 E301.49018
G0 F3600 X-46.169 Y-15.056
G1 F900 X-48.829 Y-17.717 E301.67789
G0 F3600 X-48.829 Y-18.282
G1 F900 X-46.169 Y-15.622 E301.86557
G0 F3600 X-46.169 Y-16.187
G1 F900 X-48.829 Y-18.848 E302.05328
G0 F3600 X-48.829 Y-19.414
G1 F900 X-46.169 Y-16.753 E302.24099
G0 F3600 X-46.169 Y-17.319
G1 F900 X-48.829 Y-19.98 E302.4287
G0 F3600 X-48.829 Y-20.545
G1 F900 X-46.169 Y-17.884 E302.61642
G0 F3600 X-46.169 Y-18.45
G1 F900 X-48.829 Y-21.111 E302.80413
G0 F3600 X-48.829 Y-21.677
G1 F900 X-46.169 Y-19.016 E302.99184
G0 F3600 X-46.169 Y-19.581
G1 F900 X-48.829 Y-22.242 E303.17956
G0 F3600 X-48.829 Y-22.808
G1 F900 X-46.169 Y-20.147 E303.36727
G0 F3600 X-46.169 Y-20.713
G1 F900 X-48.829 Y-23.374 E303.55498
G0 F3600 X-48.829 Y-23.939
G1 F900 X-46.169 Y-21.278 E303.74269
G0 F3600 X-46.169 Y-21.844
G1 F900 X-48.829 Y-24.505 E303.93041
G0 F3600 X-48.829 Y-25.071
G1 F900 X-46.169 Y-22.41 E304.11812
G0 F3600 X-46.169 Y-22.976
G1 F900 X-48.829 Y-25.636 E304.3058
G0 F3600 X-48.829 Y-26.202
G1 F900 X-46.169 Y-23.541 E304.49351
G0 F3600 X-46.169 Y-24.107
G1 F900 X-48.829 Y-26.768 E304.68122
G0 F3600 X-48.829 Y-27.333
G1 F900 X-46.169 Y-24.673 E304.8689
G0 F3600 X-46.169 Y-25.238
G1 F900 X-48.829 Y-27.899 E305.05661
G0 F3600 X-48.829 Y-28.465
G1 F900 X-46.169 Y-25.804 E305.24432
G0 F3600 X-46.169 Y-26.37
G1 F900 X-48.829 Y-29.03 E305.432
G0 F3600 X-48.829 Y-29.596
G1 F900 X-46.169 Y-26.935 E305.61971
G0 F3600 X-46.169 Y-27.501
G1 F900 X-48.829 Y-30.162 E305.80743
G0 F3600 X-48.829 Y-30.728
G1 F900 X-46.169 Y-28.067 E305.99514
G0 F3600 X-46.169 Y-28.632
G1 F900 X-48.829 Y-31.293 E306.18285
G0 F3600 X-48.829 Y-31.859
G1 F900 X-46.169 Y-29.198 E306.37056
G0 F3600 X-46.169 Y-29.764
G1 F900 X-48.829 Y-32.425 E306.55828
G0 F3600 X-48.829 Y-32.99
G1 F900 X-46.169 Y-30.329 E306.74599
G0 F3600 X-46.09 Y-30.817
G1 F900 X-48.829 Y-33.556 E306.93924
G0 F3600 X-48.829 Y-34.122
G1 F900 X-45.69 Y-30.982 E307.16075
G0 F3600 X-45.29 Y-31.148
G1 F900 X-48.829 Y-34.687 E307.41045
G0 F3600 X-48.829 Y-35.253
G1 F900 X-44.889 Y-31.313 E307.68843
G1 X-44.819 Y-31.243
G0 F3600 X-46.169 Y-34.856
G1 F900 X-48.829 Y-37.516 E307.87611
