;FLAVOR:Marlin
;TIME:6983
;Filament used: 3.93215m
;Layer height: 0.2
;MINX:-20.9
;MINY:-21.45
;MINZ:0.3
;MAXX:20.9
;MAXY:21.45
;MAXZ:31.1
;Generated with Cura_SteamEngine 4.13.1
M140 S65
M105
M190 S65
M104 S200
M105
M109 S200
M82 ;absolute extrusion mode
M190 S65 ; set bed temperature
M104 S190 ; set temperature
G28 ; home all axes
G1 Z100 F9000
M109 S190 ; wait for temperature to be reached
G21 ; set units to millimeters
G90 ; use absolute coordinates
M82 ; use absolute distances for extrusion
G92 E0

G1 Z0.300 F4800.000
G1 X0.000 Y70.000 F4800.000
G1 X40.000 Y50.000 E10.000 F1080.000

G1 Z5 F5000 ; lift nozzle
G1 X0 Y0
G28
G92 E0
G92 E0
G1 F750 E-6.5
;LAYER_COUNT:155
;LAYER:0
M107
G0 F3600 X-12.259 Y-0.001 Z0.3
;TYPE:SKIRT
G1 F750 E0
G1 F900 X-12.168 Y1.686 E0.10114
G1 X-11.887 Y3.378 E0.20383
G1 X-11.441 Y5.007 E0.30494
G1 X-10.815 Y6.585 E0.40658
G1 X-9.969 Y8.193 E0.51536
G1 X-9.105 Y9.476 E0.60796
G1 X-7.983 Y10.808 E0.71223
G1 X-6.702 Y12.034 E0.81838
G1 X-5.416 Y13.023 E0.91551
G1 X-4.988 Y13.284 E0.94552
G1 X-4.716 Y13.458 E0.96485
G1 X-3.995 Y13.897 E1.01539
G1 X-2.452 Y14.625 E1.11753
G1 X0.007 Y15.381 E1.27155
G1 X0.814 Y15.567 E1.32113
G1 X2.477 Y15.764 E1.42138
G1 X3.668 Y15.778 E1.49269
G1 X4.067 Y15.826 E1.51675
G1 X5.852 Y15.619 E1.62433
G1 X7.499 Y15.279 E1.72501
G1 X9.116 Y14.76 E1.82668
G1 X10.616 Y14.095 E1.92492
G1 X12.138 Y13.212 E2.03026
G1 X13.288 Y12.373 E2.11548
G1 X13.505 Y12.2 E2.1321
G1 X14.752 Y11.06 E2.23325
G1 X15.954 Y9.698 E2.342
G1 X16.184 Y9.492 E2.36049
G1 X16.46 Y9.351 E2.37904
G1 X16.762 Y9.286 E2.39754
G1 X17.071 Y9.3 E2.41606
G1 X17.366 Y9.393 E2.43457
G1 X17.628 Y9.558 E2.45311
G1 X17.838 Y9.784 E2.47158
G1 X17.984 Y10.057 E2.49012
G1 X18.062 Y10.485 E2.51616
G1 X18.058 Y12.225 E2.62033
G1 X18.03 Y12.431 E2.63278
G1 X18.495 Y12.27 E2.66224
G1 X18.691 Y12.237 E2.67414
G1 X19.284 Y12.188 E2.70976
G1 X19.593 Y12.203 E2.72828
G1 X19.888 Y12.295 E2.74678
G1 X20.196 Y12.501 E2.76897
G1 X20.712 Y13.03 E2.81321
G1 X20.843 Y13.31 E2.83171
G1 X20.9 Y13.676 E2.85389
G1 X20.9 Y18.054 E3.11599
G1 X20.86 Y18.361 E3.13453
G1 X20.743 Y18.647 E3.15303
G1 X20.507 Y18.942 E3.17564
G1 X19.935 Y19.409 E3.21985
G1 X19.644 Y19.515 E3.23839
G1 X19.278 Y19.54 E3.26036
G1 X18.684 Y19.489 E3.29605
G1 X18.289 Y19.397 E3.32033
G1 X18.047 Y19.326 E3.33543
G1 X18.061 Y19.504 E3.34612
G1 X18.135 Y19.681 E3.3576
G1 X18.178 Y19.988 E3.37616
G1 X18.141 Y20.295 E3.39468
G1 X18.027 Y20.582 E3.41316
G1 X17.844 Y20.831 E3.43166
G1 X17.603 Y21.025 E3.45019
G1 X17.32 Y21.15 E3.46871
G1 X16.978 Y21.2 E3.4894
G1 X-14.372 Y21.199 E5.36627
G1 X-14.679 Y21.159 E5.38481
G1 X-14.965 Y21.042 E5.4033
G1 X-15.212 Y20.856 E5.42182
G1 X-15.345 Y20.687 E5.43469
G1 X-15.726 Y21.099 E5.46829
G1 X-15.971 Y21.287 E5.48678
G1 X-16.256 Y21.407 E5.50529
G1 X-16.575 Y21.45 E5.52456
G1 X-19.413 Y21.45 E5.69447
G1 X-19.72 Y21.41 E5.713
G1 X-20.006 Y21.293 E5.7315
G1 X-20.549 Y20.812 E5.77493
G1 X-20.737 Y20.567 E5.79342
G1 X-20.857 Y20.282 E5.81193
G1 X-20.9 Y19.963 E5.8312
G1 X-20.9 Y-19.963 E8.2215
G1 X-20.86 Y-20.27 E8.24004
G1 X-20.743 Y-20.556 E8.25854
G1 X-20.262 Y-21.099 E8.30196
G1 X-20.017 Y-21.287 E8.32045
G1 X-19.732 Y-21.407 E8.33897
G1 X-19.413 Y-21.45 E8.35824
G1 X-16.575 Y-21.45 E8.52814
G1 X-16.268 Y-21.41 E8.54668
G1 X-15.982 Y-21.293 E8.56518
G1 X-15.439 Y-20.812 E8.60861
G1 X-15.344 Y-20.688 E8.61796
G1 X-15.069 Y-20.976 E8.6418
G1 X-14.796 Y-21.122 E8.66033
G1 X-14.371 Y-21.2 E8.6862
G1 X16.977 Y-21.199 E10.56295
G1 X17.284 Y-21.159 E10.58149
G1 X17.57 Y-21.042 E10.59999
G1 X17.817 Y-20.856 E10.6185
G1 X18.008 Y-20.613 E10.637
G1 X18.131 Y-20.329 E10.65553
G1 X18.177 Y-20.024 E10.674
G1 X18.143 Y-19.716 E10.69255
G1 X18.062 Y-19.435 E10.71005
G1 X18.035 Y-19.235 E10.72214
G1 X18.493 Y-19.393 E10.75114
G1 X18.69 Y-19.426 E10.7631
G1 X19.285 Y-19.475 E10.79884
G1 X19.593 Y-19.46 E10.8173
G1 X19.888 Y-19.367 E10.83582
G1 X20.196 Y-19.162 E10.85797
G1 X20.712 Y-18.633 E10.90221
G1 X20.843 Y-18.353 E10.92072
G1 X20.9 Y-17.987 E10.9429
G1 X20.9 Y-13.61 E11.20494
G1 X20.86 Y-13.303 E11.22348
G1 X20.743 Y-13.017 E11.24198
G1 X20.507 Y-12.722 E11.26459
G1 X19.935 Y-12.255 E11.3088
G1 X19.644 Y-12.149 E11.32734
G1 X19.278 Y-12.124 E11.34931
G1 X18.684 Y-12.175 E11.385
G1 X18.289 Y-12.267 E11.40928
G1 X18.045 Y-12.342 E11.42456
G1 X18.059 Y-12.161 E11.43543
G1 X18.063 Y-10.483 E11.53589
G1 X18.024 Y-10.176 E11.55442
G1 X17.908 Y-9.89 E11.57289
G1 X17.722 Y-9.642 E11.59145
G1 X17.48 Y-9.451 E11.60991
G1 X17.196 Y-9.327 E11.62846
G1 X16.89 Y-9.28 E11.647
G1 X16.583 Y-9.313 E11.66548
G1 X16.294 Y-9.423 E11.68399
G1 X15.963 Y-9.686 E11.7093
G1 X14.748 Y-11.062 E11.8192
G1 X13.493 Y-12.21 E11.92103
G1 X13.303 Y-12.362 E11.9356
G1 X12.133 Y-13.217 E12.02235
G1 X10.623 Y-14.092 E12.12683
G1 X9.13 Y-14.756 E12.22466
G1 X7.48 Y-15.283 E12.32836
G1 X5.84 Y-15.621 E12.4286
G1 X3.685 Y-15.834 E12.55825
G1 X3.255 Y-15.774 E12.58424
G1 X2.482 Y-15.765 E12.63052
G1 X0.824 Y-15.565 E12.7305
G1 X-.869 Y-15.179 E12.83446
G1 X-2.455 Y-14.623 E12.93508
G1 X-3.897 Y-13.94 E13.0306
G1 X-5.443 Y-13.001 E13.13889
G1 X-6.711 Y-12.026 E13.23465
G1 X-8.004 Y-10.79 E13.34174
G1 X-9.103 Y-9.484 E13.44393
G1 X-9.974 Y-8.186 E13.53751
G1 X-10.826 Y-6.562 E13.64731
G1 X-11.438 Y-5.011 E13.74713
G1 X-11.903 Y-3.341 E13.85091
G1 X-12.167 Y-1.703 E13.95024
G1 X-12.259 Y-0.001 E14.05229
G0 F3600 X-12.74 Y-0.001
G1 F900 X-12.645 Y1.744 E14.15691
G1 X-12.358 Y3.479 E14.2622
G1 X-11.898 Y5.157 E14.36636
G1 X-11.25 Y6.791 E14.4716
G1 X-10.384 Y8.435 E14.58284
G1 X-9.489 Y9.765 E14.67882
G1 X-8.33 Y11.141 E14.78652
G1 X-7.022 Y12.392 E14.89488
G1 X-5.686 Y13.42 E14.9958
G1 X-5.246 Y13.688 E15.02665
G1 X-4.965 Y13.868 E15.04662
G1 X-4.22 Y14.322 E15.09886
G1 X-2.624 Y15.075 E15.20451
G1 X-.128 Y15.842 E15.36083
G1 X0.74 Y16.042 E15.41416
G1 X2.444 Y16.243 E15.51688
G1 X3.663 Y16.258 E15.58987
G1 X4.06 Y16.31 E15.61384
G1 X5.926 Y16.094 E15.7263
G1 X7.622 Y15.744 E15.82998
G1 X9.286 Y15.209 E15.93462
G1 X10.834 Y14.523 E16.03599
G1 X12.397 Y13.616 E16.14417
G1 X13.615 Y12.727 E16.23445
G1 X13.807 Y12.574 E16.24915
G1 X15.098 Y11.394 E16.35386
G1 X16.317 Y10.011 E16.46423
G1 X16.501 Y9.859 E16.47852
G1 X16.725 Y9.775 E16.49284
G1 X16.964 Y9.769 E16.50715
G1 X17.192 Y9.842 E16.52149
G1 X17.384 Y9.986 E16.53586
G1 X17.517 Y10.184 E16.55013
G1 X17.582 Y10.484 E16.56851
G1 X17.578 Y12.224 E16.67268
G1 X17.538 Y12.459 E16.68695
G1 X17.422 Y12.669 E16.70132
G1 X17.289 Y12.799 E16.71245
G1 X16.869 Y13.113 E16.74385
G1 X16.55 Y13.434 E16.77094
G1 X16.196 Y13.909 E16.80641
G1 X15.881 Y14.527 E16.84793
G1 X15.774 Y14.871 E16.8695
G1 X15.655 Y15.446 E16.90466
G1 X15.635 Y15.877 E16.93049
G1 X15.683 Y16.467 E16.96593
G1 X15.787 Y16.913 E16.99334
G1 X15.98 Y17.419 E17.02577
G1 X16.207 Y17.835 E17.05414
G1 X16.548 Y18.29 E17.08818
G1 X16.866 Y18.61 E17.11519
G1 X17.294 Y18.931 E17.14722
G1 X17.458 Y19.105 E17.16153
G1 X17.557 Y19.323 E17.17587
G1 X17.626 Y19.686 E17.19799
G1 X17.693 Y19.915 E17.21227
G1 X17.681 Y20.154 E17.2266
G1 X17.592 Y20.376 E17.24092
G1 X17.435 Y20.556 E17.25522
G1 X17.228 Y20.675 E17.26951
G1 X16.978 Y20.72 E17.28472
G1 X-14.372 Y20.719 E19.16159
G1 X-14.608 Y20.679 E19.17592
G1 X-14.818 Y20.564 E19.19025
G1 X-14.978 Y20.387 E19.20454
G1 X-15.072 Y20.167 E19.21886
G1 X-15.088 Y19.962 E19.23117
G1 X-15.087 Y-19.964 E21.62147
G1 X-15.069 Y-20.179 E21.63439
G1 X-14.972 Y-20.397 E21.64867
G1 X-14.808 Y-20.572 E21.66303
G1 X-14.597 Y-20.684 E21.67733
G1 X-14.371 Y-20.72 E21.69103
G1 X16.977 Y-20.719 E23.56778
G1 X17.213 Y-20.679 E23.58211
G1 X17.423 Y-20.564 E23.59645
G1 X17.583 Y-20.387 E23.61073
G1 X17.677 Y-20.167 E23.62505
G1 X17.694 Y-19.929 E23.63934
G1 X17.583 Y-19.572 E23.66172
G1 X17.54 Y-19.203 E23.68396
G1 X17.424 Y-18.994 E23.69827
G1 X17.293 Y-18.867 E23.7092
G1 X16.876 Y-18.555 E23.74037
G1 X16.55 Y-18.23 E23.76793
G1 X16.204 Y-17.766 E23.80259
G1 X15.879 Y-17.13 E23.84534
G1 X15.778 Y-16.809 E23.86549
G1 X15.655 Y-16.218 E23.90163
G1 X15.635 Y-15.787 E23.92746
G1 X15.683 Y-15.197 E23.9629
G1 X15.783 Y-14.76 E23.98974
G1 X15.987 Y-14.228 E24.02385
G1 X16.201 Y-13.839 E24.05043
G1 X16.547 Y-13.374 E24.08513
G1 X16.87 Y-13.049 E24.11256
G1 X17.29 Y-12.735 E24.14396
G1 X17.455 Y-12.562 E24.15827
G1 X17.554 Y-12.344 E24.17261
G1 X17.579 Y-12.16 E24.18372
G1 X17.583 Y-10.482 E24.28418
G1 X17.544 Y-10.246 E24.2985
G1 X17.43 Y-10.036 E24.31281
G1 X17.253 Y-9.875 E24.32713
G1 X17.033 Y-9.78 E24.34148
G1 X16.794 Y-9.763 E24.35582
G1 X16.563 Y-9.825 E24.37014
G1 X16.323 Y-10.003 E24.38803
G1 X15.085 Y-11.405 E24.50001
G1 X13.804 Y-12.577 E24.60395
G1 X13.615 Y-12.728 E24.61844
G1 X12.398 Y-13.617 E24.70866
G1 X10.835 Y-14.524 E24.81685
G1 X9.306 Y-15.203 E24.91701
G1 X7.601 Y-15.748 E25.02417
G1 X5.918 Y-16.095 E25.12705
G1 X3.663 Y-16.317 E25.26271
G1 X3.25 Y-16.254 E25.28772
G1 X2.456 Y-16.244 E25.33526
G1 X0.735 Y-16.037 E25.43903
G1 X-1.003 Y-15.641 E25.54575
G1 X-2.632 Y-15.07 E25.64909
G1 X-4.134 Y-14.358 E25.74861
G1 X-5.71 Y-13.401 E25.85899
G1 X-7.022 Y-12.392 E25.95808
G1 X-8.356 Y-11.117 E26.06856
G1 X-9.487 Y-9.773 E26.17372
G1 X-10.388 Y-8.431 E26.27049
G1 X-11.261 Y-6.766 E26.38304
G1 X-11.894 Y-5.162 E26.48628
G1 X-12.374 Y-3.439 E26.59336
G1 X-12.644 Y-1.759 E26.69523
G1 X-12.74 Y-0.001 E26.80063
G0 F3600 X-13.22 Y-0.001
G1 F900 X-13.123 Y1.795 E26.90831
G1 X-12.826 Y3.587 E27.01706
G1 X-12.354 Y5.307 E27.12384
G1 X-11.686 Y6.992 E27.23236
G1 X-10.797 Y8.681 E27.34663
G1 X-9.873 Y10.054 E27.44571
G1 X-8.677 Y11.473 E27.55681
G1 X-7.333 Y12.76 E27.66822
G1 X-5.96 Y13.815 E27.77188
G1 X-5.505 Y14.093 E27.8038
G1 X-5.215 Y14.278 E27.82439
G1 X-4.45 Y14.744 E27.87802
G1 X-2.797 Y15.524 E27.98745
G1 X-.254 Y16.306 E28.14673
G1 X0.661 Y16.516 E28.20293
G1 X2.409 Y16.723 E28.30831
G1 X3.657 Y16.738 E28.38303
G1 X4.053 Y16.794 E28.40698
G1 X5.999 Y16.569 E28.52426
G1 X7.746 Y16.208 E28.63106
G1 X9.46 Y15.658 E28.73883
G1 X11.049 Y14.954 E28.84287
G1 X12.664 Y14.016 E28.95469
G1 X13.899 Y13.115 E29.04621
G1 X14.113 Y12.945 E29.06257
G1 X15.439 Y11.732 E29.17016
G1 X16.68 Y10.325 E29.28248
G1 X16.796 Y10.251 E29.29072
G1 X16.933 Y10.253 E29.29892
G1 X17.047 Y10.329 E29.30712
G1 X17.102 Y10.483 E29.31691
G1 X17.098 Y12.223 E29.42108
G1 X17.002 Y12.414 E29.43388
G1 X16.562 Y12.743 E29.46677
G1 X16.165 Y13.146 E29.50064
G1 X15.805 Y13.63 E29.53675
G1 X15.585 Y14.008 E29.56294
G1 X15.369 Y14.528 E29.59665
G1 X15.307 Y14.759 E29.61097
G1 X15.18 Y15.372 E29.64845
G1 X15.155 Y15.908 E29.68057
G1 X15.204 Y16.506 E29.71649
G1 X15.33 Y17.062 E29.75062
G1 X15.542 Y17.616 E29.78614
G1 X15.812 Y18.108 E29.81973
G1 X16.181 Y18.6 E29.85655
G1 X16.572 Y18.99 E29.88962
G1 X17.005 Y19.315 E29.92203
G1 X17.101 Y19.508 E29.93493
G1 X17.1 Y19.782 E29.95134
G1 X17.213 Y19.951 E29.96351
G1 X17.201 Y20.088 E29.97174
G1 X17.117 Y20.196 E29.97993
G1 X16.978 Y20.24 E29.98866
G1 X-14.372 Y20.239 E31.86553
G1 X-14.503 Y20.2 E31.87371
G1 X-14.592 Y20.095 E31.88195
G1 X-14.608 Y19.945 E31.89099
G1 X-14.608 Y-19.959 E34.27997
G1 X-14.582 Y-20.114 E34.28938
G1 X-14.485 Y-20.211 E34.29759
G1 X-14.371 Y-20.24 E34.30463
G1 X16.977 Y-20.239 E36.18138
G1 X17.108 Y-20.2 E36.18956
G1 X17.197 Y-20.095 E36.19781
G1 X17.214 Y-19.959 E36.20601
G1 X17.1 Y-19.782 E36.21862
G1 X17.102 Y-19.442 E36.23897
G1 X17.006 Y-19.252 E36.25172
G1 X16.58 Y-18.934 E36.28354
G1 X16.172 Y-18.526 E36.31809
G1 X15.811 Y-18.043 E36.35419
G1 X15.584 Y-17.651 E36.3813
G1 X15.369 Y-17.136 E36.41472
G1 X15.307 Y-16.905 E36.42903
G1 X15.18 Y-16.292 E36.46651
G1 X15.155 Y-15.756 E36.49864
G1 X15.204 Y-15.158 E36.53456
G1 X15.33 Y-14.601 E36.56875
G1 X15.546 Y-14.038 E36.60485
G1 X15.809 Y-13.563 E36.63735
G1 X16.175 Y-13.071 E36.67407
G1 X16.568 Y-12.675 E36.70747
G1 X17.003 Y-12.35 E36.73998
G1 X17.099 Y-12.159 E36.75277
G1 X17.103 Y-10.481 E36.85323
G1 X17.064 Y-10.349 E36.86147
G1 X16.96 Y-10.26 E36.86967
G1 X16.824 Y-10.243 E36.87787
G1 X16.683 Y-10.321 E36.88752
G1 X15.431 Y-11.739 E37.00077
G1 X14.104 Y-12.952 E37.1084
G1 X13.903 Y-13.112 E37.12378
G1 X12.657 Y-14.022 E37.21616
G1 X11.053 Y-14.953 E37.32719
G1 X9.483 Y-15.651 E37.43005
G1 X7.721 Y-16.213 E37.54078
G1 X5.986 Y-16.571 E37.64684
G1 X3.644 Y-16.802 E37.78773
G1 X3.244 Y-16.734 E37.81202
G1 X2.421 Y-16.724 E37.86129
G1 X0.656 Y-16.512 E37.96772
G1 X-1.136 Y-16.103 E38.07776
G1 X-2.814 Y-15.515 E38.18421
G1 X-4.359 Y-14.783 E38.28656
G1 X-5.989 Y-13.793 E38.40074
G1 X-7.333 Y-12.76 E38.50222
G1 X-8.703 Y-11.449 E38.61575
G1 X-9.873 Y-10.059 E38.72452
G1 X-10.8 Y-8.678 E38.8241
G1 X-11.7 Y-6.962 E38.9401
G1 X-12.351 Y-5.313 E39.04624
G1 X-12.843 Y-3.547 E39.15599
G1 X-13.122 Y-1.813 E39.26114
G1 X-13.22 Y-0.001 E39.36978
G1 F750 E32.86978
G0 F3600 X-15.568 Y-19.963
G1 F750 E39.36978
G1 F900 X-15.568 Y19.963 E41.76008
G1 X-15.608 Y20.199 E41.77441
G1 X-15.779 Y20.472 E41.79369
G1 X-16.261 Y20.898 E41.83221
G1 X-16.575 Y20.97 E41.85149
G1 X-19.413 Y20.97 E42.0214
G1 X-19.649 Y20.93 E42.03573
G1 X-19.922 Y20.759 E42.05501
G1 X-20.348 Y20.277 E42.09353
G1 X-20.42 Y19.963 E42.11281
G1 X-20.42 Y-19.963 E44.50311
G1 X-20.38 Y-20.199 E44.51744
G1 X-20.209 Y-20.472 E44.53673
G1 X-19.727 Y-20.898 E44.57524
G1 X-19.413 Y-20.97 E44.59453
G1 X-16.575 Y-20.97 E44.76443
G1 X-16.339 Y-20.93 E44.77876
G1 X-16.066 Y-20.759 E44.79805
G1 X-15.64 Y-20.277 E44.83656
G1 X-15.568 Y-19.963 E44.85585
G0 F3600 X-16.048 Y-19.963
G1 F900 X-16.048 Y19.963 E47.24615
G1 X-16.118 Y20.133 E47.25715
G1 X-16.405 Y20.42 E47.28145
G1 X-16.575 Y20.49 E47.29246
G1 X-19.413 Y20.49 E47.46236
G1 X-19.583 Y20.42 E47.47337
G1 X-19.87 Y20.133 E47.49767
G1 X-19.94 Y19.963 E47.50868
G1 X-19.94 Y-19.963 E49.89898
G1 X-19.87 Y-20.133 E49.90998
G1 X-19.583 Y-20.42 E49.93428
G1 X-19.413 Y-20.49 E49.94529
G1 X-16.575 Y-20.49 E50.1152
G1 X-16.405 Y-20.42 E50.1262
G1 X-16.118 Y-20.133 E50.1505
G1 X-16.048 Y-19.963 E50.16151
G1 F750 E43.66151
G0 F3600 X16.444 Y-14.377
G1 F750 E50.16151
G1 F900 X16.224 Y-14.953 E50.19842
G1 X16.162 Y-15.216 E50.2146
G1 X16.11 Y-15.846 E50.25244
G1 X16.127 Y-16.118 E50.26876
G1 X16.252 Y-16.729 E50.3061
G1 X16.467 Y-17.276 E50.34128
G1 X16.578 Y-17.466 E50.35446
G1 X16.95 Y-17.962 E50.39158
G1 X17.143 Y-18.155 E50.40792
G1 X17.644 Y-18.531 E50.44542
G1 X17.873 Y-18.658 E50.46109
G1 X18.462 Y-18.885 E50.49889
G1 X18.729 Y-18.948 E50.51531
G1 X19.324 Y-18.997 E50.55105
G1 X19.562 Y-18.976 E50.56536
G1 X19.871 Y-18.809 E50.58638
G1 X20.188 Y-18.517 E50.61219
G1 X20.334 Y-18.328 E50.62648
G1 X20.42 Y-17.987 E50.64754
G1 X20.42 Y-13.61 E50.90958
G1 X20.38 Y-13.374 E50.92391
G1 X20.184 Y-13.077 E50.94522
G1 X19.865 Y-12.787 E50.97103
G1 X19.664 Y-12.658 E50.98532
G1 X19.319 Y-12.603 E51.00624
G1 X18.725 Y-12.654 E51.04193
G1 X18.462 Y-12.715 E51.0581
G1 X17.871 Y-12.943 E51.09602
G1 X17.643 Y-13.07 E51.11164
G1 X17.144 Y-13.444 E51.14898
G1 X16.951 Y-13.636 E51.16528
G1 X16.571 Y-14.144 E51.20326
G1 X16.444 Y-14.377 E51.21914
G0 F3600 X16.893 Y-14.548
G1 F900 X16.665 Y-15.149 E51.25763
G1 X16.641 Y-15.255 E51.26413
G1 X16.589 Y-15.885 E51.30198
G1 X16.597 Y-16.022 E51.31019
G1 X16.726 Y-16.651 E51.34864
G1 X16.947 Y-17.155 E51.38158
G1 X16.962 Y-17.178 E51.38323
G1 X17.334 Y-17.674 E51.42035
G1 X17.431 Y-17.771 E51.42856
G1 X17.932 Y-18.147 E51.46606
G1 X18.046 Y-18.21 E51.47386
G1 X18.662 Y-18.446 E51.51335
G1 X18.768 Y-18.469 E51.51984
G1 X19.363 Y-18.518 E51.55559
G1 X19.546 Y-18.456 E51.56715
G1 X19.863 Y-18.164 E51.59296
G1 X19.94 Y-17.987 E51.60451
G1 X19.94 Y-13.61 E51.86656
G1 X19.861 Y-13.432 E51.87821
G1 X19.542 Y-13.142 E51.90402
G1 X19.36 Y-13.081 E51.91552
G1 X18.766 Y-13.132 E51.95121
G1 X18.635 Y-13.163 E51.95927
G1 X18.044 Y-13.391 E51.99719
G1 X17.931 Y-13.454 E52.00494
G1 X17.432 Y-13.828 E52.04227
G1 X17.336 Y-13.923 E52.05036
G1 X16.956 Y-14.431 E52.08834
G1 X16.893 Y-14.548 E52.09629
G1 F750 E45.59629
G0 F3600 X16.464 Y14.394
G1 F750 E52.09629
G1 F900 X16.573 Y14.205 E52.10935
G1 X16.946 Y13.706 E52.14665
G1 X17.137 Y13.512 E52.16295
G1 X17.64 Y13.134 E52.20062
G1 X17.873 Y13.006 E52.21654
G1 X18.463 Y12.778 E52.2544
