; generated by Slic3r 1.2.9 on 2021-10-19 at 17:17:35

; external perimeters extrusion width = 0.40mm
; perimeters extrusion width = 0.67mm
; infill extrusion width = 0.67mm
; solid infill extrusion width = 0.67mm
; top infill extrusion width = 0.67mm

M190 S60 ; set bed temperature
M104 S185 ; set temperature
G28 ; home all axes
G1 Z5 F5000 ; lift nozzle

M109 S185 ; wait for temperature to be reached
G21 ; set units to millimeters
G90 ; use absolute coordinates
M82 ; use absolute distances for extrusion
G92 E0
G1 E-2.00000 F2400.00000
G92 E0
G1 Z0.500 F4800.000
G1 X0.000 Y-21.341 F4800.000
G1 Z0.200 F4800.000
G1 E2.00000 F2400.00000
G1 X15.000 Y-21.341 E2.40083 F1080.000
G1 X17.211 Y-20.944 E2.46086
G1 X19.146 Y-19.803 E2.52088 F1080.000
G1 X20.563 Y-18.060 E2.58091
G1 X21.357 Y-14.984 E2.66581
G1 X21.357 Y15.016 E3.46748
G1 X20.960 Y17.227 E3.52750
G1 X19.819 Y19.162 E3.58753
G1 X18.077 Y20.579 E3.64755
G1 X15.000 Y21.373 E3.73246
G1 X-15.000 Y21.373 E4.53412
G1 X-17.211 Y20.977 E4.59415
G1 X-19.146 Y19.836 E4.65417
G1 X-20.563 Y18.093 E4.71420
G1 X-21.357 Y15.016 E4.79910
G1 X-21.357 Y-14.984 E5.60076
G1 X-20.960 Y-17.195 E5.66079
G1 X-19.819 Y-19.129 E5.72081
G1 X-18.077 Y-20.547 E5.78084
G1 X-15.000 Y-21.341 E5.86574
G1 X-0.060 Y-21.341 E6.26497
G1 F3840
G1 X3.140 Y-21.341 E4.36497
G1 E4.26497 F2400.00000
G92 E0
G1 Z0.700 F4800.000
G1 X-0.060 Y-14.784 F4800.000
G1 Z0.200 F4800.000
G1 E2.00000 F2400.00000
G1 X14.800 Y-14.784 E2.39709 F420.000
G1 X14.800 Y14.816 E3.18807
G1 X-14.800 Y14.816 E3.97904 F420.000
G1 X-14.800 Y-14.784 E4.77002
G1 X-0.120 Y-14.784 E5.16230
G1 X0.140 Y-14.437 F4800.000
G1 X-0.120 Y-14.427 F4800.000
G1 X14.443 Y-14.427 E5.55145 F840.000
G1 X14.443 Y14.459 E6.32335
G1 X-14.443 Y14.459 E7.09524 F840.000
G1 X-14.443 Y-14.427 E7.86713
G1 X-0.180 Y-14.427 E8.24827
G1 X14.086 Y-13.908 F4800.000
G1 X14.086 Y-13.315 E8.26412 F288.000
G1 X13.758 Y-13.687 E8.27738 F288.000
G1 X13.442 Y-13.923 E8.28791
G1 X13.491 Y-14.069 E8.29204
G1 X14.086 Y-14.069 E8.30794
G1 X14.086 Y-13.968 E8.31066
G1 X13.271 Y-13.159 F4800.000
G1 X13.441 Y-12.966 E8.31755 F288.000
G1 X13.613 Y-12.647 E8.32720
G1 X13.707 Y-12.338 E8.33584
G1 X13.742 Y-12.065 E8.34319
G1 X13.736 Y-11.823 E8.34968
G1 X13.669 Y-11.477 E8.35909
G1 X13.532 Y-11.151 E8.36854
G1 X13.335 Y-10.861 E8.37790
G1 X13.158 Y-10.685 E8.38457
G1 X12.857 Y-10.502 E8.39398
G1 X12.534 Y-10.387 E8.40315
G1 X12.198 Y-10.339 E8.41222
G1 X11.863 Y-10.362 E8.42120
G1 X11.584 Y-10.435 E8.42890
G1 X11.294 Y-10.575 E8.43752
G1 X11.038 Y-10.771 E8.44613
G1 X10.830 Y-11.015 E8.45468
G1 X10.679 Y-11.294 E8.46317
G1 X10.567 Y-11.677 E8.47383
G1 X10.537 Y-11.917 E8.48030
G1 X10.549 Y-12.191 E8.48762
G1 X10.623 Y-12.486 E8.49573
G1 X10.785 Y-12.839 E8.50612
G1 X10.974 Y-13.099 E8.51470
G1 X11.225 Y-13.321 E8.52367
G1 X11.494 Y-13.473 E8.53192
G1 X11.804 Y-13.573 E8.54063
G1 X12.092 Y-13.606 E8.54838 F288.000
G1 X12.361 Y-13.592 E8.55556
G1 X12.687 Y-13.512 E8.56454
G1 X12.986 Y-13.372 E8.57335
G1 X13.223 Y-13.195 E8.58126
G1 X13.520 Y-13.227 F4800.000
G1 X13.437 Y-13.481 F4800.000
G1 X13.515 Y-13.423 E8.58386 F288.000
G1 X13.737 Y-13.171 E8.59284
G1 X13.944 Y-12.785 E8.60454
G1 X14.057 Y-12.414 E8.61493
G1 X14.099 Y-12.084 E8.62380
G1 X14.093 Y-11.784 E8.63182
G1 X14.012 Y-11.373 E8.64301
G1 X13.848 Y-10.979 E8.65441
G1 X13.611 Y-10.633 E8.66563
G1 X13.381 Y-10.402 E8.67434
G1 X13.012 Y-10.178 E8.68588
G1 X12.620 Y-10.038 E8.69699
G1 X12.211 Y-9.981 E8.70802
G1 X11.805 Y-10.008 E8.71891
G1 X11.460 Y-10.099 E8.72844
G1 X11.105 Y-10.270 E8.73895
G1 X10.791 Y-10.511 E8.74955
G1 X10.534 Y-10.812 E8.76011
G1 X10.347 Y-11.158 E8.77062
G1 X10.217 Y-11.604 E8.78306
G1 X10.179 Y-11.903 E8.79110
G1 X10.194 Y-12.243 E8.80020
G1 X10.285 Y-12.604 E8.81015
G1 X10.475 Y-13.020 E8.82236
G1 X10.708 Y-13.340 E8.83295
G1 X11.017 Y-13.613 E8.84397
G1 X11.350 Y-13.802 E8.85420
G1 X11.728 Y-13.923 E8.86481
G1 X12.081 Y-13.964 E8.87431 F288.000
G1 X12.413 Y-13.946 E8.88319
G1 X12.806 Y-13.851 E8.89400
G1 X13.170 Y-13.680 E8.90474
G1 X13.388 Y-13.517 E8.91202
G1 X-9.556 Y-11.814 F4800.000
G1 X-9.541 Y-12.101 E8.91971 F840.000
G1 X-9.610 Y-12.571 E8.93240
G1 X-9.757 Y-12.995 E8.94440
G1 X-10.012 Y-13.438 E8.95805
G1 X-10.237 Y-13.680 E8.96687
G1 X-10.554 Y-13.924 E8.97757
G1 X-10.505 Y-14.069 E8.98167
G1 X10.994 Y-14.069 E9.55615
G1 X10.442 Y-13.582 E9.57582
G1 X10.165 Y-13.201 E9.58841 F840.000
G1 X9.947 Y-12.723 E9.60245
G1 X9.839 Y-12.295 E9.61423
G1 X9.821 Y-11.889 E9.62512
G1 X9.866 Y-11.531 E9.63474
G1 X10.015 Y-11.021 E9.64894
G1 X10.238 Y-10.609 E9.66147
G1 X10.544 Y-10.251 E9.67405
G1 X10.917 Y-9.964 E9.68663
G1 X11.336 Y-9.762 E9.69904
G1 X11.747 Y-9.654 E9.71040
G1 X12.224 Y-9.622 E9.72320
G1 X12.706 Y-9.689 E9.73619
G1 X13.166 Y-9.854 E9.74925
G1 X13.603 Y-10.119 E9.76290
G1 X13.887 Y-10.404 E9.77365
G1 X13.935 Y-10.474 E9.77591
G1 X14.086 Y-10.427 E9.78014
G1 X14.086 Y10.685 E10.34431
G1 X13.758 Y10.313 E10.35757
G1 X13.354 Y10.012 E10.37102
G1 X12.926 Y9.811 E10.38368
G1 X12.466 Y9.699 E10.39633
G1 X12.070 Y9.677 E10.40691
G1 X11.652 Y9.726 E10.41815
G1 X11.206 Y9.869 E10.43067
G1 X10.809 Y10.094 E10.44288
G1 X10.442 Y10.418 E10.45595
G1 X10.165 Y10.799 E10.46854
G1 X9.947 Y11.277 E10.48258
G1 X9.839 Y11.705 E10.49436
G1 X9.821 Y12.111 E10.50524
G1 X9.866 Y12.469 E10.51487
G1 X10.015 Y12.979 E10.52907
G1 X10.238 Y13.391 E10.54160
G1 X10.544 Y13.749 E10.55418
G1 X10.814 Y13.957 E10.56329
G1 X10.765 Y14.102 E10.56739
G1 X-10.463 Y14.102 E11.13466
G1 X-10.508 Y13.947 E11.13898
G1 X-10.388 Y13.872 E11.14274
G1 X-10.156 Y13.645 E11.15143
G1 X-9.882 Y13.271 E11.16380
G1 X-9.680 Y12.839 E11.17656
G1 X-9.565 Y12.376 E11.18931
G1 X-9.541 Y11.899 E11.20207
G1 X-9.610 Y11.429 E11.21476
G1 X-9.757 Y11.005 E11.22676
G1 X-10.012 Y10.562 E11.24041
G1 X-10.237 Y10.320 E11.24923
G1 X-10.600 Y10.040 E11.26149
G1 X-11.018 Y9.832 E11.27397
G1 X-11.473 Y9.707 E11.28658
G1 X-12.002 Y9.679 E11.30074
G1 X-12.477 Y9.758 E11.31360
G1 X-12.949 Y9.944 E11.32715
G1 X-13.317 Y10.191 E11.33899
G1 X-13.628 Y10.500 E11.35071
G1 X-13.874 Y10.871 E11.36262
G1 X-13.914 Y10.966 E11.36535
G1 X-14.086 Y10.931 E11.37004
G1 X-14.086 Y-10.846 E11.95196
G1 X-13.932 Y-10.891 E11.95624
G1 X-13.668 Y-10.484 E11.96923
G1 X-13.365 Y-10.170 E11.98089
G1 X-13.002 Y-9.917 E11.99270
G1 X-12.593 Y-9.737 E12.00466
G1 X-12.154 Y-9.639 E12.01666
G1 X-11.724 Y-9.625 E12.02816
G1 X-11.257 Y-9.699 E12.04079
G1 X-10.807 Y-9.867 E12.05362
G1 X-10.388 Y-10.128 E12.06681
G1 X-10.156 Y-10.355 E12.07550
G1 X-9.882 Y-10.729 E12.08787
G1 X-9.680 Y-11.161 E12.10063
G1 X-9.565 Y-11.624 E12.11338
G1 X-9.559 Y-11.754 E12.11684
G1 X-7.643 Y-9.404 F4800.000
G1 X-7.306 Y-9.678 E12.12845 F420.000
G1 X-6.535 Y-10.214 E12.15355
G1 X-5.729 Y-10.686 E12.17851
G1 X-4.888 Y-11.096 E12.20351
G1 X-4.007 Y-11.443 E12.22880
G1 X-3.124 Y-11.714 E12.25348
G1 X-2.198 Y-11.922 E12.27886
G1 X-1.284 Y-12.055 E12.30352
G1 X-0.340 Y-12.118 E12.32881 F420.000
G1 X0.583 Y-12.109 E12.35348
G1 X1.053 Y-12.077 E12.36608
G1 X1.978 Y-11.961 E12.39098
G1 X2.909 Y-11.769 E12.41638
G1 X3.796 Y-11.515 E12.44104
G1 X4.673 Y-11.188 E12.46606
G1 X5.520 Y-10.796 E12.49100
G1 X5.936 Y-10.573 E12.50360
G1 X6.732 Y-10.086 E12.52856
G1 X7.499 Y-9.530 E12.55385
G1 X8.202 Y-8.933 E12.57851
G1 X8.543 Y-8.609 E12.59107
G1 X9.180 Y-7.927 E12.61602
G1 X9.489 Y-7.556 E12.62891
G1 X10.037 Y-6.813 E12.65357
G1 X10.532 Y-6.021 E12.67853
G1 X10.758 Y-5.608 E12.69113
G1 X11.159 Y-4.764 E12.71608
G1 X11.493 Y-3.892 E12.74104
G1 X11.636 Y-3.443 E12.75364
G1 X11.868 Y-2.538 E12.77859
G1 X12.029 Y-1.619 E12.80352
G1 X12.084 Y-1.150 E12.81615
G1 X12.138 Y-0.218 E12.84110
G1 X12.120 Y0.716 E12.86606
G1 X12.083 Y1.186 E12.87866
G1 X11.956 Y2.122 E12.90390
G1 X11.761 Y3.025 E12.92857
G1 X11.490 Y3.935 E12.95396
G1 X11.160 Y4.795 E12.97857
G1 X10.965 Y5.225 E12.99118
G1 X10.533 Y6.052 E13.01613
G1 X10.037 Y6.846 E13.04114
G1 X9.474 Y7.607 E13.06643
G1 X8.870 Y8.305 E13.09109
G1 X8.541 Y8.643 E13.10370
G1 X7.845 Y9.281 E13.12894
G1 X7.118 Y9.850 E13.15360
G1 X6.327 Y10.377 E13.17899
G1 X5.522 Y10.828 E13.20366
G1 X4.673 Y11.221 E13.22866
G1 X3.786 Y11.551 E13.25395
G1 X2.898 Y11.805 E13.27861
G1 X2.438 Y11.909 E13.29122
G1 X1.519 Y12.061 E13.31612
G1 X1.050 Y12.111 E13.32873
G1 X0.117 Y12.156 E13.35368
G1 X-0.829 Y12.128 E13.37897
G1 X-1.747 Y12.030 E13.40363
G1 X-2.212 Y11.953 E13.41624
G1 X-3.134 Y11.745 E13.44148
G1 X-4.016 Y11.473 E13.46614
G1 X-4.899 Y11.123 E13.49154
G1 X-5.729 Y10.719 E13.51620
G1 X-6.535 Y10.247 E13.54115
G1 X-6.927 Y9.986 E13.55376
G1 X-7.672 Y9.425 E13.57866
G1 X-8.031 Y9.120 E13.59127
G1 X-8.706 Y8.477 E13.61617
G1 X-9.035 Y8.124 E13.62906
G1 X-9.625 Y7.415 E13.65372
G1 X-10.165 Y6.653 E13.67868
G1 X-10.421 Y6.243 E13.69157
G1 X-10.864 Y5.434 E13.71624
G1 X-11.249 Y4.581 E13.74124
G1 X-11.566 Y3.703 E13.76619
G1 X-11.701 Y3.251 E13.77880
G1 X-11.915 Y2.342 E13.80375
G1 X-12.060 Y1.406 E13.82904
G1 X-12.131 Y0.486 E13.85370
G1 X-12.140 Y0.016 E13.86626
G1 X-12.130 Y-0.464 E13.87910
G1 X-12.059 Y-1.384 E13.90377
G1 X-11.915 Y-2.309 E13.92877
G1 X-11.700 Y-3.222 E13.95384
G1 X-11.417 Y-4.109 E13.97872
G1 X-11.059 Y-4.990 E14.00412
G1 X-10.647 Y-5.816 E14.02878
G1 X-10.167 Y-6.617 E14.05373
G1 X-9.896 Y-7.015 E14.06663
G1 X-9.333 Y-7.747 E14.09129
G1 X-8.707 Y-8.443 E14.11630
G1 X-8.022 Y-9.095 E14.14159
G1 X-7.689 Y-9.366 E14.15304
G1 X-7.707 Y-9.799 F4800.000
G1 X-7.915 Y-9.643 F4800.000
G1 X-7.524 Y-9.962 E14.16652 F840.000
G1 X-6.724 Y-10.517 E14.19255
G1 X-5.898 Y-11.002 E14.21814
G1 X-5.031 Y-11.423 E14.24389
G1 X-4.125 Y-11.780 E14.26992
G1 X-3.220 Y-12.059 E14.29523
G1 X-2.259 Y-12.274 E14.32154
G1 X-1.322 Y-12.411 E14.34684
G1 X-0.350 Y-12.476 E14.37287 F840.000
G1 X0.597 Y-12.466 E14.39817
G1 X1.088 Y-12.433 E14.41133
G1 X2.033 Y-12.314 E14.43678
G1 X2.998 Y-12.115 E14.46310
G1 X3.908 Y-11.854 E14.48841
G1 X4.811 Y-11.518 E14.51416
G1 X5.679 Y-11.115 E14.53974
G1 X6.114 Y-10.883 E14.55290
G1 X6.931 Y-10.383 E14.57850
G1 X7.719 Y-9.811 E14.60453
G1 X8.441 Y-9.199 E14.62983
G1 X8.797 Y-8.860 E14.64294
G1 X9.448 Y-8.163 E14.66844
G1 X9.770 Y-7.776 E14.68189
G1 X10.332 Y-7.014 E14.70719
G1 X10.840 Y-6.202 E14.73279
G1 X11.077 Y-5.770 E14.74595
G1 X11.487 Y-4.905 E14.77154
G1 X11.830 Y-4.010 E14.79714
G1 X11.980 Y-3.541 E14.81030
G1 X12.217 Y-2.613 E14.83589
G1 X12.382 Y-1.671 E14.86146
G1 X12.439 Y-1.181 E14.87465
G1 X12.495 Y-0.224 E14.90024
G1 X12.476 Y0.733 E14.92584
G1 X12.438 Y1.224 E14.93900
G1 X12.307 Y2.184 E14.96489
G1 X12.108 Y3.110 E14.99019
G1 X11.827 Y4.054 E15.01651
G1 X11.489 Y4.933 E15.04167
G1 X11.287 Y5.381 E15.05482
G1 X10.843 Y6.230 E15.08042
G1 X10.332 Y7.047 E15.10616
G1 X9.753 Y7.830 E15.13219
G1 X9.133 Y8.546 E15.15750
G1 X8.790 Y8.899 E15.17066
G1 X8.076 Y9.554 E15.19654
G1 X7.330 Y10.138 E15.22184
G1 X6.510 Y10.683 E15.24816
G1 X5.684 Y11.146 E15.27347
G1 X4.810 Y11.551 E15.29921
G1 X3.897 Y11.890 E15.32524
G1 X2.987 Y12.151 E15.35054
G1 X2.507 Y12.259 E15.36370
G1 X1.567 Y12.415 E15.38915
G1 X1.077 Y12.467 E15.40231
G1 X0.120 Y12.513 E15.42791
G1 X-0.853 Y12.484 E15.45394
G1 X-1.795 Y12.384 E15.47924
G1 X-2.281 Y12.303 E15.49240
G1 X-3.226 Y12.090 E15.51828
G1 X-4.131 Y11.811 E15.54359
G1 X-5.046 Y11.449 E15.56991
G1 X-5.898 Y11.034 E15.59521
G1 X-6.724 Y10.550 E15.62080
G1 X-7.134 Y10.277 E15.63396
G1 X-7.895 Y9.704 E15.65941
G1 X-8.270 Y9.385 E15.67257
G1 X-8.960 Y8.728 E15.69803
G1 X-9.303 Y8.360 E15.71148
G1 X-9.908 Y7.632 E15.73677
G1 X-10.463 Y6.851 E15.76238
G1 X-10.729 Y6.424 E15.77583
G1 X-11.184 Y5.593 E15.80113
G1 X-11.580 Y4.715 E15.82687
G1 X-11.906 Y3.814 E15.85246
G1 X-12.046 Y3.343 E15.86562
G1 X-12.266 Y2.410 E15.89122
G1 X-12.415 Y1.447 E15.91725
G1 X-12.487 Y0.503 E15.94255
G1 X-12.497 Y0.016 E15.95557
G1 X-12.487 Y-0.482 E15.96888
G1 X-12.414 Y-1.426 E15.99418
G1 X-12.266 Y-2.377 E16.01992
G1 X-12.044 Y-3.317 E16.04573
G1 X-11.754 Y-4.228 E16.07125
G1 X-11.383 Y-5.140 E16.09757
G1 X-10.961 Y-5.987 E16.12288
G1 X-10.468 Y-6.809 E16.14848
G1 X-10.185 Y-7.225 E16.16192
G1 X-9.608 Y-7.976 E16.18723
G1 X-8.963 Y-8.692 E16.21297
G1 X-8.258 Y-9.363 E16.23899
G1 X-7.962 Y-9.605 E16.24921
G1 X-8.187 Y-9.882 F4800.000
G1 X-7.742 Y-10.245 E16.26457 F840.000
G1 X-6.914 Y-10.820 E16.29152
G1 X-6.066 Y-11.317 E16.31776
G1 X-5.175 Y-11.750 E16.34424
G1 X-4.243 Y-12.117 E16.37100
G1 X-3.315 Y-12.403 E16.39696
G1 X-2.321 Y-12.626 E16.42419
G1 X-1.360 Y-12.766 E16.45014
G1 X-0.360 Y-12.833 E16.47690 F840.000
G1 X0.610 Y-12.823 E16.50285
G1 X1.122 Y-12.789 E16.51655
G1 X2.088 Y-12.667 E16.54256
G1 X3.086 Y-12.461 E16.56980
G1 X4.019 Y-12.193 E16.59575
G1 X4.948 Y-11.847 E16.62224
G1 X5.839 Y-11.435 E16.64846
G1 X6.291 Y-11.193 E16.66217
G1 X7.129 Y-10.680 E16.68842
G1 X7.940 Y-10.092 E16.71518
G1 X8.680 Y-9.464 E16.74112
G1 X9.050 Y-9.111 E16.75479
G1 X9.716 Y-8.399 E16.78085
G1 X10.051 Y-7.996 E16.79485
G1 X10.628 Y-7.215 E16.82079
G1 X11.148 Y-6.382 E16.84703
G1 X11.395 Y-5.932 E16.86074
G1 X11.816 Y-5.045 E16.88698
G1 X12.167 Y-4.129 E16.91322
G1 X12.323 Y-3.640 E16.92693
G1 X12.567 Y-2.688 E16.95317
G1 X12.736 Y-1.722 E16.97938
G1 X12.795 Y-1.212 E16.99312
G1 X12.852 Y-0.231 E17.01936
G1 X12.833 Y0.750 E17.04560
G1 X12.794 Y1.262 E17.05931
G1 X12.659 Y2.246 E17.08584
G1 X12.455 Y3.195 E17.11179
G1 X12.164 Y4.172 E17.13903
G1 X11.819 Y5.070 E17.16474
G1 X11.608 Y5.538 E17.17844
G1 X11.153 Y6.408 E17.20468
G1 X10.627 Y7.248 E17.23117
G1 X10.032 Y8.053 E17.25793
G1 X9.397 Y8.788 E17.28388
G1 X9.039 Y9.156 E17.29759
G1 X8.307 Y9.826 E17.32412
G1 X7.542 Y10.425 E17.35007
G1 X6.694 Y10.990 E17.37731
G1 X5.847 Y11.464 E17.40325
G1 X4.948 Y11.881 E17.42973
G1 X4.009 Y12.230 E17.45649
G1 X3.075 Y12.497 E17.48244
G1 X2.575 Y12.610 E17.49615
G1 X1.615 Y12.769 E17.52215
G1 X1.105 Y12.823 E17.53586
G1 X0.124 Y12.870 E17.56211
G1 X-0.878 Y12.841 E17.58887
G1 X-1.843 Y12.738 E17.61482
G1 X-2.349 Y12.654 E17.62853
G1 X-3.318 Y12.435 E17.65506
G1 X-4.246 Y12.149 E17.68101
G1 X-5.194 Y11.774 E17.70825
G1 X-6.066 Y11.349 E17.73419
G1 X-6.914 Y10.853 E17.76043
G1 X-7.341 Y10.568 E17.77414
G1 X-8.118 Y9.983 E17.80014
G1 X-8.509 Y9.651 E17.81385
G1 X-9.214 Y8.979 E17.83987
G1 X-9.571 Y8.596 E17.85387
G1 X-10.192 Y7.850 E17.87980
G1 X-10.760 Y7.049 E17.90606
G1 X-11.037 Y6.604 E17.92006
G1 X-11.504 Y5.753 E17.94600
G1 X-11.911 Y4.850 E17.97247
G1 X-12.245 Y3.926 E17.99871
G1 X-12.391 Y3.434 E18.01242
G1 X-12.617 Y2.478 E18.03867
G1 X-12.770 Y1.489 E18.06544
G1 X-12.844 Y0.520 E18.09138
G1 X-12.854 Y0.016 E18.10486
G1 X-12.844 Y-0.499 E18.11863
G1 X-12.769 Y-1.467 E18.14457
G1 X-12.616 Y-2.446 E18.17104
G1 X-12.389 Y-3.413 E18.19759
G1 X-12.091 Y-4.346 E18.22376
G1 X-11.707 Y-5.290 E18.25100
G1 X-11.274 Y-6.159 E18.27694
G1 X-10.769 Y-7.002 E18.30319
G1 X-10.474 Y-7.435 E18.31719
G1 X-9.882 Y-8.204 E18.34313
G1 X-9.220 Y-8.941 E18.36961
G1 X-8.494 Y-9.631 E18.39638
G1 X-8.234 Y-9.844 E18.40536
G1 X-10.500 Y-11.095 F4800.000
G1 X-10.698 Y-10.824 E18.41431 F288.000
G1 X-10.832 Y-10.693 E18.41934
G1 X-11.124 Y-10.511 E18.42852
G1 X-11.440 Y-10.393 E18.43753
G1 X-11.769 Y-10.341 E18.44643
G1 X-12.064 Y-10.351 E18.45432
G1 X-12.369 Y-10.419 E18.46268
G1 X-12.651 Y-10.543 E18.47091
G1 X-12.900 Y-10.716 E18.47901
G1 X-13.107 Y-10.930 E18.48696
G1 X-13.265 Y-11.175 E18.49477
G1 X-13.371 Y-11.439 E18.50235
G1 X-13.458 Y-11.838 E18.51327
G1 X-13.458 Y-12.127 E18.52100
G1 X-13.402 Y-12.410 E18.52869
G1 X-13.242 Y-12.789 E18.53971
G1 X-13.073 Y-13.045 E18.54790
G1 X-12.862 Y-13.254 E18.55584
G1 X-12.615 Y-13.420 E18.56378
G1 X-12.285 Y-13.550 E18.57325
G1 X-11.962 Y-13.603 E18.58202 F288.000
G1 X-11.588 Y-13.584 E18.59203
G1 X-11.274 Y-13.498 E18.60071
G1 X-10.981 Y-13.352 E18.60947
G1 X-10.720 Y-13.150 E18.61829
G1 X-10.590 Y-13.011 E18.62337
G1 X-10.410 Y-12.697 E18.63305
G1 X-10.307 Y-12.401 E18.64143
G1 X-10.258 Y-12.067 E18.65045
G1 X-10.275 Y-11.729 E18.65949
G1 X-10.356 Y-11.401 E18.66852
G1 X-10.474 Y-11.149 E18.67596
G1 X-10.345 Y-10.797 F4800.000
G1 X-10.151 Y-10.998 F4800.000
G1 X-10.191 Y-10.912 E18.67849 F288.000
G1 X-10.427 Y-10.590 E18.68915
