; generated by Slic3r 1.2.9 on 2022-05-26 at 20:31:25

; external perimeters extrusion width = 0.40mm
; perimeters extrusion width = 0.67mm
; infill extrusion width = 0.67mm
; solid infill extrusion width = 0.67mm
; top infill extrusion width = 0.67mm
; support material extrusion width = 0.40mm

G28 ; home all axes
M104 S190
M190 S70 ; set bed temperature
G1 Z220
G28
G1 X0.000 Y70.000 Z30.300 F8000.000
M109 S190
G1 Z0.2 F2000
G1 X40.000 Y50.000 Z0.1 E10.000
G1 X0 Y0 Z15

G21 ; set units to millimeters
G90 ; use absolute coordinates
M82 ; use absolute distances for extrusion
G92 E0
G1 Z0.300 F4800.000
G1 E-2.00000 F2400.00000
G92 E0
G1 X-13.270 Y-16.104 F4800.000
G1 E0.80000 F2400.00000
G1 X-13.585 Y-15.944 E0.82595 F1080.000
G1 X-14.190 Y-14.737 E0.92519
G1 X-15.243 Y-14.387 E1.00671
G1 X-15.524 Y-14.528 E1.02980
G1 X-15.809 Y-14.512 E1.05080
G1 X-15.939 Y-14.427 E1.06222
G1 X-16.277 Y-14.317 E1.08834
G1 X-18.498 Y-14.218 E1.25172
G1 X-18.695 Y-14.145 E1.26712
G1 X-20.746 Y-13.928 E1.41868
G1 X-21.413 Y-14.234 E1.47264
G1 X-22.034 Y-15.130 E1.55273
G1 X-22.085 Y-15.863 E1.60669
G1 X-21.910 Y-16.213 E1.63543
G1 X-21.942 Y-16.523 E1.65837
G1 X-22.226 Y-16.882 E1.69202
G1 X-22.226 Y-20.089 E1.92765
G1 X-22.156 Y-20.463 E1.95564
G1 X-22.103 Y-20.609 E1.96708
G1 X-21.910 Y-20.994 E1.99871
G1 X-21.942 Y-21.304 E2.02164
G1 X-22.226 Y-21.664 E2.05529
G1 X-22.226 Y-24.870 E2.29093
G1 X-22.156 Y-25.245 E2.31891
G1 X-22.103 Y-25.391 E2.33035
G1 X-21.910 Y-25.776 E2.36198
G1 X-21.942 Y-26.086 E2.38491
G1 X-22.226 Y-26.445 E2.41857
G1 X-22.226 Y-29.652 E2.65420
G1 X-22.156 Y-30.026 E2.68218
G1 X-22.103 Y-30.172 E2.69363
G1 X-21.910 Y-30.557 E2.72525
G1 X-21.942 Y-30.868 E2.74818
G1 X-22.226 Y-31.227 E2.78184
G1 X-22.226 Y-34.433 E3.01747
G1 X-22.156 Y-34.808 E3.04545
G1 X-22.103 Y-34.954 E3.05690
G1 X-21.910 Y-35.339 E3.08852
G1 X-21.942 Y-35.649 E3.11145
G1 X-22.226 Y-36.008 E3.14511
G1 X-22.226 Y-39.215 E3.38074
G1 X-22.156 Y-39.589 E3.40873
G1 X-22.103 Y-39.735 E3.42017
G1 X-21.875 Y-40.190 E3.45757
G1 X-21.860 Y-40.403 E3.47323
G1 X-22.301 Y-41.731 E3.57608
G1 X-21.344 Y-43.641 E3.73305
G1 X-21.092 Y-43.916 E3.76043
G1 X-20.630 Y-44.201 E3.80033
G1 X-20.272 Y-44.303 E3.82772
G1 X-18.286 Y-44.303 E3.97362
G1 X-18.134 Y-44.218 E3.98643
G1 X-17.910 Y-44.197 E4.00300
G1 X-17.768 Y-44.244 E4.01398
G1 X-17.467 Y-44.093 E4.03871
G1 X-17.191 Y-44.104 E4.05898
G1 X-17.017 Y-44.209 E4.07396
G1 X-16.651 Y-44.308 E4.10182
G1 X-14.677 Y-44.270 E4.24687
G1 X-14.080 Y-43.926 E4.29756
G1 X-13.552 Y-43.052 E4.37257
G1 X-13.535 Y-42.638 E4.40304
G1 X-13.224 Y-42.339 E4.43474
G1 X-1.440 Y-42.339 E5.30069
G1 X-0.656 Y-41.555 E5.38221
G1 X-0.656 Y-27.092 E6.44500
G1 X-0.494 Y-26.832 E6.46750
G1 X1.534 Y-25.832 E6.63367
G1 X4.354 Y-24.107 E6.87660
G1 X6.959 Y-22.172 E7.11506
G1 X9.424 Y-19.969 E7.35799
G1 X11.718 Y-17.505 E7.60539
G1 X13.740 Y-14.890 E7.84832
G1 X15.485 Y-12.154 E8.08678
G1 X17.030 Y-9.163 E8.33418
G1 X18.250 Y-6.156 E8.57264
G1 X19.213 Y-2.994 E8.81557
G1 X19.895 Y0.303 E9.06297
G1 X20.264 Y3.588 E9.30590
G1 X20.333 Y6.894 E9.54883
G1 X20.101 Y10.191 E9.79176
G1 X19.571 Y13.454 E10.03470
G1 X18.747 Y16.656 E10.27763
G1 X17.658 Y19.712 E10.51608
G1 X16.272 Y22.714 E10.75901
G1 X14.620 Y25.577 E11.00194
G1 X12.714 Y28.278 E11.24487
G1 X10.571 Y30.795 E11.48780
G1 X8.207 Y33.107 E11.73073
G1 X6.343 Y34.626 E11.90747
G1 X6.304 Y34.754 E11.91733
G1 X2.901 Y37.040 E12.21853
G1 X0.002 Y38.628 E12.46146
G1 X-3.086 Y39.969 E12.70886
G1 X-6.226 Y41.001 E12.95179
G1 X-9.448 Y41.744 E13.19472
G1 X-12.723 Y42.191 E13.43765
G1 X-16.506 Y42.364 E13.71595
G1 X-17.334 Y41.573 E13.80010
G1 X-17.334 Y39.665 E13.94031
G1 X-17.620 Y39.356 E13.97118
G1 X-18.864 Y39.262 E14.06291
G1 X-18.942 Y39.193 E14.07053
G1 X-19.190 Y39.127 E14.08944
G1 X-19.277 Y39.146 E14.09593
G1 X-21.209 Y38.984 E14.23844
G1 X-21.770 Y38.624 E14.28743
G1 X-22.252 Y37.764 E14.35983
G1 X-22.268 Y37.098 E14.40883
G1 X-21.910 Y36.384 E14.46748
G1 X-21.942 Y36.074 E14.49041
G1 X-22.226 Y35.715 E14.52407
G1 X-22.226 Y32.508 E14.75970
G1 X-22.156 Y32.134 E14.78768
G1 X-22.103 Y31.987 E14.79913
G1 X-21.875 Y31.532 E14.83653
G1 X-21.860 Y31.320 E14.85219
G1 X-22.301 Y29.992 E14.95504
G1 X-21.021 Y27.438 E15.16492
G1 X-20.737 Y27.144 E15.19495
G1 X-20.214 Y26.858 E15.23876
G1 X-19.814 Y26.778 E15.26880
G1 X-17.895 Y26.981 E15.41055
G1 X-17.798 Y27.045 E15.41913
G1 X-17.591 Y27.073 E15.43447
G1 X-17.238 Y27.250 E15.46353
G1 X-17.004 Y27.259 E15.48069
G1 X-16.535 Y27.064 E15.51802
G1 X-16.054 Y27.045 E15.55343
G1 X-14.283 Y27.629 E15.69046
G1 X-13.854 Y28.025 E15.73336
G1 X-13.580 Y28.686 E15.78595
G1 X-13.252 Y28.867 E15.81345
G1 X-10.934 Y28.473 E15.98623
G1 X-8.491 Y27.770 E16.17305
G1 X-6.143 Y26.797 E16.35987
G1 X-3.918 Y25.567 E16.54669
G1 X-1.844 Y24.095 E16.73351
G1 X0.051 Y22.401 E16.92033
G1 X1.744 Y20.505 E17.10715
G1 X3.215 Y18.431 E17.29397
G1 X4.444 Y16.205 E17.48079
G1 X5.415 Y13.856 E17.66761
G1 X6.118 Y11.413 E17.85443
G1 X6.542 Y8.906 E18.04125
G1 X6.683 Y6.398 E18.22586
G1 X6.542 Y3.860 E18.41268
G1 X6.111 Y1.324 E18.60171
G1 X5.415 Y-1.090 E18.78632
G1 X4.444 Y-3.439 E18.97315
G1 X3.215 Y-5.665 E19.15996
G1 X1.744 Y-7.739 E19.34678
G1 X0.051 Y-9.635 E19.53360
G1 X-1.844 Y-11.329 E19.72042
G1 X-3.943 Y-12.816 E19.90945
G1 X-6.143 Y-14.030 E20.09406
G1 X-8.491 Y-15.003 E20.28088
G1 X-10.934 Y-15.707 E20.46770
G1 X-13.211 Y-16.094 E20.63739
G1 X-13.742 Y-16.687 F4800.000
G1 X-14.063 Y-16.428 E20.66773 F1080.000
G1 X-14.117 Y-16.077 E20.69383
G1 X-14.569 Y-15.175 E20.76794
G1 X-15.201 Y-14.965 E20.81685
G1 X-15.559 Y-15.145 E20.84626
G1 X-15.844 Y-15.128 E20.86726
G1 X-16.172 Y-14.914 E20.89606
G1 X-16.375 Y-14.848 E20.91173
G1 X-18.178 Y-14.757 E21.04440
G1 X-18.240 Y-14.789 E21.04952
G1 X-18.464 Y-14.802 E21.06602
G1 X-18.818 Y-14.671 E21.09374
G1 X-20.656 Y-14.476 E21.22955
G1 X-21.056 Y-14.660 E21.26192
G1 X-21.510 Y-15.315 E21.32044
G1 X-21.541 Y-15.754 E21.35281
G1 X-21.278 Y-16.277 E21.39582
G1 X-21.310 Y-16.588 E21.41876
G1 X-21.690 Y-17.068 E21.46378
G1 X-21.690 Y-20.058 E21.68344
G1 X-21.610 Y-20.397 E21.70909
G1 X-21.278 Y-21.059 E21.76349
G1 X-21.310 Y-21.369 E21.78642
G1 X-21.690 Y-21.850 E21.83145
G1 X-21.690 Y-24.839 E22.05111
G1 X-21.610 Y-25.179 E22.07676
G1 X-21.278 Y-25.840 E22.13115
G1 X-21.310 Y-26.151 E22.15408
G1 X-21.690 Y-26.631 E22.19911
G1 X-21.690 Y-29.621 E22.41877
G1 X-21.610 Y-29.960 E22.44442
G1 X-21.278 Y-30.622 E22.49881
G1 X-21.310 Y-30.932 E22.52175
G1 X-21.690 Y-31.413 E22.56678
G1 X-21.690 Y-34.402 E22.78644
G1 X-21.610 Y-34.742 E22.81208
G1 X-21.278 Y-35.404 E22.86648
G1 X-21.310 Y-35.714 E22.88941
G1 X-21.690 Y-36.195 E22.93444
G1 X-21.690 Y-39.184 E23.15410
G1 X-21.610 Y-39.523 E23.17975
G1 X-21.116 Y-40.508 E23.26072
G1 X-21.256 Y-40.929 E23.29333
G1 X-21.513 Y-41.058 E23.31440
G1 X-21.723 Y-41.690 E23.36332
G1 X-20.898 Y-43.334 E23.49850
G1 X-20.747 Y-43.499 E23.51493
G1 X-20.412 Y-43.706 E23.54387
G1 X-20.197 Y-43.767 E23.56031
G1 X-18.426 Y-43.767 E23.69049
G1 X-18.189 Y-43.635 E23.71040
G1 X-17.965 Y-43.614 E23.72697
G1 X-17.809 Y-43.665 E23.73898
G1 X-17.443 Y-43.482 E23.76912
G1 X-17.167 Y-43.493 E23.78939
G1 X-16.805 Y-43.712 E23.82051
G1 X-16.585 Y-43.771 E23.83723
G1 X-14.825 Y-43.738 E23.96657
G1 X-14.467 Y-43.531 E23.99698
G1 X-14.081 Y-42.893 E24.05172
G1 X-14.065 Y-42.480 E24.08213
G1 X-14.149 Y-42.312 E24.09593
G1 X-13.835 Y-41.803 E24.13985
G1 X-1.662 Y-41.803 E25.03439
G1 X-1.192 Y-41.333 E25.08330
G1 X-1.192 Y-26.759 E26.15429
G1 X-1.030 Y-26.499 E26.17680
G1 X1.265 Y-25.368 E26.36479
G1 X4.044 Y-23.670 E26.60414
G1 X6.629 Y-21.749 E26.84080
G1 X9.058 Y-19.578 E27.08015
G1 X11.302 Y-17.168 E27.32219
G1 X13.274 Y-14.621 E27.55885
G1 X15.026 Y-11.876 E27.79820
G1 X16.538 Y-8.950 E28.04024
G1 X17.750 Y-5.966 E28.27690
G1 X18.697 Y-2.850 E28.51625
G1 X19.364 Y0.376 E28.75829
G1 X19.729 Y3.612 E28.99763
G1 X19.798 Y6.869 E29.23698
G1 X19.571 Y10.118 E29.47633
G1 X19.049 Y13.333 E29.71568
G1 X18.238 Y16.487 E29.95503
G1 X17.157 Y19.521 E30.19170
G1 X15.791 Y22.478 E30.43105
G1 X14.162 Y25.298 E30.67040
G1 X12.284 Y27.959 E30.90975
G1 X10.171 Y30.438 E31.14910
G1 X7.842 Y32.715 E31.38845
G1 X5.726 Y34.437 E31.58897
G1 X5.703 Y34.513 E31.59475
G1 X2.613 Y36.588 E31.86828
G1 X-0.244 Y38.153 E32.10763
G1 X-3.265 Y39.464 E32.34966
G1 X-6.359 Y40.482 E32.58901
G1 X-9.533 Y41.215 E32.82836
G1 X-12.760 Y41.657 E33.06771
G1 X-16.302 Y41.818 E33.32828
G1 X-16.798 Y41.344 E33.37877
G1 X-16.798 Y38.882 E33.55965
G1 X-16.958 Y38.623 E33.58200
G1 X-17.318 Y38.443 E33.61157
G1 X-17.603 Y38.459 E33.63255
G1 X-18.100 Y38.783 E33.67613
G1 X-18.643 Y38.741 E33.71613
G1 X-18.788 Y38.611 E33.73048
G1 X-19.037 Y38.546 E33.74940
G1 X-19.312 Y38.605 E33.77006
G1 X-21.032 Y38.461 E33.89687
G1 X-21.368 Y38.245 E33.92627
G1 X-21.720 Y37.619 E33.97907
G1 X-21.729 Y37.219 E34.00847
G1 X-21.278 Y36.319 E34.08238
G1 X-21.310 Y36.009 E34.10531
G1 X-21.690 Y35.528 E34.15034
G1 X-21.690 Y32.539 E34.37000
G1 X-21.610 Y32.200 E34.39565
G1 X-21.116 Y31.215 E34.47662
G1 X-21.256 Y30.793 E34.50923
G1 X-21.513 Y30.665 E34.53031
G1 X-21.723 Y30.033 E34.57922
G1 X-20.579 Y27.751 E34.76679
G1 X-20.409 Y27.575 E34.78480
G1 X-20.029 Y27.367 E34.81660
G1 X-19.789 Y27.319 E34.83462
G1 X-18.083 Y27.499 E34.96069
G1 X-17.877 Y27.636 E34.97881
G1 X-17.611 Y27.662 E34.99846
G1 X-17.259 Y27.839 E35.02746
G1 X-17.025 Y27.847 E35.04462
G1 X-16.419 Y27.595 E35.09288
G1 X-16.130 Y27.584 E35.11413
G1 X-14.561 Y28.101 E35.23549
G1 X-14.304 Y28.339 E35.26124
G1 X-14.064 Y28.916 E35.30716
G1 X-14.072 Y29.123 E35.32236
G1 X-13.734 Y29.453 E35.35708
G1 X-13.381 Y29.432 E35.38309
G1 X-10.815 Y28.997 E35.57433
G1 X-8.314 Y28.276 E35.76557
G1 X-5.937 Y27.293 E35.95461
G1 X-3.658 Y26.037 E36.14585
G1 X-1.534 Y24.534 E36.33710
G1 X0.409 Y22.802 E36.52834
G1 X2.145 Y20.863 E36.71958
G1 X3.653 Y18.742 E36.91083
G1 X4.914 Y16.465 E37.10207
G1 X5.912 Y14.062 E37.29331
G1 X6.634 Y11.562 E37.48456
G1 X7.072 Y8.996 E37.67580
G1 X7.220 Y6.398 E37.86704
G1 X7.072 Y3.770 E38.06049
G1 X6.634 Y1.205 E38.25174
G1 X5.912 Y-1.296 E38.44298
G1 X4.927 Y-3.672 E38.63202
G1 X3.669 Y-5.950 E38.82326
G1 X2.164 Y-8.073 E39.01450
G1 X0.430 Y-10.014 E39.20575
G1 X-1.534 Y-11.767 E39.39919
G1 X-3.658 Y-13.271 E39.59044
G1 X-5.937 Y-14.527 E39.78168
G1 X-8.314 Y-15.510 E39.97072
G1 X-10.815 Y-16.230 E40.16196
G1 X-13.380 Y-16.666 E40.35313
G1 X-13.682 Y-16.684 E40.37536
G1 X-14.364 Y-17.258 F4800.000
G1 X-14.707 Y-16.879 E40.41292 F1080.000
G1 X-14.621 Y-16.325 E40.45417
G1 X-14.634 Y-16.242 E40.46032
G1 X-14.949 Y-15.614 E40.51198
G1 X-15.159 Y-15.544 E40.52829
G1 X-15.672 Y-15.801 E40.57044
G1 X-16.029 Y-15.733 E40.59711
G1 X-16.210 Y-15.529 E40.61714
G1 X-16.405 Y-15.402 E40.63428
G1 X-16.473 Y-15.380 E40.63951
G1 X-18.062 Y-15.299 E40.75645
G1 X-18.313 Y-15.427 E40.77709
G1 X-18.608 Y-15.407 E40.79881
G1 X-18.878 Y-15.220 E40.82299
G1 X-18.941 Y-15.196 E40.82794
G1 X-20.566 Y-15.025 E40.94801
G1 X-20.700 Y-15.086 E40.95881
G1 X-20.986 Y-15.499 E40.99574
G1 X-20.996 Y-15.645 E41.00653
G1 X-20.532 Y-16.571 E41.08259
G1 X-20.752 Y-17.041 E41.12069
G1 X-21.039 Y-17.109 E41.14241
G1 X-21.155 Y-17.255 E41.15610
G1 X-21.155 Y-20.026 E41.35978
G1 X-21.117 Y-20.185 E41.37176
G1 X-20.532 Y-21.352 E41.46771
G1 X-20.752 Y-21.822 E41.50581
G1 X-21.039 Y-21.890 E41.52753
G1 X-21.155 Y-22.036 E41.54122
G1 X-21.155 Y-24.808 E41.74490
G1 X-21.117 Y-24.967 E41.75688
G1 X-20.532 Y-26.134 E41.85283
G1 X-20.752 Y-26.604 E41.89093
G1 X-21.039 Y-26.672 E41.91265
G1 X-21.155 Y-26.818 E41.92633
G1 X-21.155 Y-29.589 E42.13002
G1 X-21.117 Y-29.748 E42.14200
G1 X-20.532 Y-30.915 E42.23795
G1 X-20.752 Y-31.385 E42.27605
G1 X-21.039 Y-31.453 E42.29777
G1 X-21.155 Y-31.599 E42.31145
G1 X-21.155 Y-34.371 E42.51514
G1 X-21.117 Y-34.530 E42.52712
G1 X-20.532 Y-35.697 E42.62306
G1 X-20.752 Y-36.167 E42.66117
G1 X-21.039 Y-36.235 E42.68288
G1 X-21.155 Y-36.381 E42.69657
G1 X-21.155 Y-39.153 E42.90026
G1 X-21.117 Y-39.311 E42.91223
G1 X-20.398 Y-40.747 E43.03028
G1 X-20.537 Y-41.168 E43.06289
G1 X-21.074 Y-41.437 E43.10702
G1 X-21.144 Y-41.648 E43.12333
G1 X-20.453 Y-43.028 E43.23672
G1 X-20.403 Y-43.082 E43.24220
G1 X-20.194 Y-43.211 E43.26019
G1 X-20.123 Y-43.231 E43.26567
G1 X-18.565 Y-43.231 E43.38014
G1 X-18.244 Y-43.052 E43.40715
G1 X-18.019 Y-43.031 E43.42371
G1 X-17.851 Y-43.087 E43.43676
G1 X-17.335 Y-42.829 E43.47914
G1 X-16.983 Y-42.893 E43.50544
G1 X-16.806 Y-43.085 E43.52467
G1 X-16.593 Y-43.214 E43.54298
G1 X-16.519 Y-43.234 E43.54856
G1 X-14.973 Y-43.205 E43.66219
G1 X-14.854 Y-43.136 E43.67233
G1 X-14.611 Y-42.734 E43.70679
G1 X-14.606 Y-42.596 E43.71693
G1 X-15.017 Y-41.776 E43.78435
G1 X-14.703 Y-41.268 E43.82826
G1 X-1.884 Y-41.268 E44.77025
G1 X-1.727 Y-41.111 E44.78656
G1 X-1.727 Y-26.425 E45.86576
G1 X-1.565 Y-26.165 E45.88826
G1 X0.996 Y-24.905 E46.09807
G1 X3.735 Y-23.233 E46.33384
G1 X6.300 Y-21.327 E46.56872
G1 X8.691 Y-19.187 E46.80448
G1 X10.886 Y-16.830 E47.04115
G1 X12.843 Y-14.303 E47.27602
G1 X14.568 Y-11.598 E47.51179
G1 X16.046 Y-8.737 E47.74846
G1 X17.249 Y-5.776 E47.98333
G1 X18.181 Y-2.706 E48.21910
G1 X18.833 Y0.448 E48.45576
G1 X19.193 Y3.636 E48.69153
G1 X19.263 Y6.844 E48.92730
G1 X19.040 Y10.044 E49.16307
G1 X18.528 Y13.212 E49.39884
G1 X17.729 Y16.319 E49.63461
G1 X16.652 Y19.341 E49.87037
G1 X15.310 Y22.242 E50.10525
G1 X13.705 Y25.020 E50.34102
G1 X11.853 Y27.640 E50.57679
G1 X9.771 Y30.081 E50.81256
G1 X7.476 Y32.323 E51.04832
G1 X5.108 Y34.249 E51.27263
G1 X5.101 Y34.271 E51.27435
G1 X2.324 Y36.137 E51.52020
G1 X-0.490 Y37.677 E51.75597
G1 X-3.445 Y38.959 E51.99263
G1 X-6.492 Y39.963 E52.22840
G1 X-9.618 Y40.686 E52.46417
G1 X-12.796 Y41.122 E52.69994
G1 X-16.097 Y41.273 E52.94278
G1 X-16.263 Y41.115 E52.95961
G1 X-16.263 Y38.337 E53.16368
G1 X-16.707 Y38.017 E53.20396
G1 X-16.867 Y38.070 E53.21633
G1 X-17.353 Y37.827 E53.25624
G1 X-17.638 Y37.843 E53.27722
G1 X-18.240 Y38.235 E53.33006
G1 X-18.421 Y38.221 E53.34339
G1 X-18.710 Y37.963 E53.37185
G1 X-19.051 Y37.926 E53.39708
G1 X-19.269 Y38.048 E53.41543
G1 X-19.347 Y38.065 E53.42133
G1 X-20.854 Y37.939 E53.53244
G1 X-20.966 Y37.867 E53.54224
G1 X-21.187 Y37.473 E53.57544
G1 X-21.191 Y37.339 E53.58524
G1 X-20.532 Y36.026 E53.69320
G1 X-20.752 Y35.556 E53.73130
G1 X-21.039 Y35.488 E53.75302
G1 X-21.155 Y35.342 E53.76670
G1 X-21.151 Y32.539 E53.97266
G1 X-21.117 Y32.412 E53.98237
G1 X-20.398 Y30.976 E54.10041
G1 X-20.537 Y30.555 E54.13302
G1 X-21.074 Y30.286 E54.17716
G1 X-21.144 Y30.075 E54.19346
G1 X-20.137 Y28.065 E54.35872
G1 X-20.080 Y28.006 E54.36472
G1 X-19.844 Y27.877 E54.38451
G1 X-19.764 Y27.860 E54.39052
G1 X-18.270 Y28.018 E54.50089
G1 X-17.957 Y28.227 E54.52855
G1 X-17.711 Y28.260 E54.54674
G1 X-17.653 Y28.241 E54.55126
G1 X-17.143 Y28.496 E54.59319
G1 X-16.811 Y28.448 E54.61786
G1 X-16.597 Y28.249 E54.63931
G1 X-16.302 Y28.127 E54.66279
G1 X-16.206 Y28.123 E54.66987
G1 X-14.840 Y28.573 E54.77557
G1 X-14.754 Y28.652 E54.78415
G1 X-14.604 Y29.014 E54.81292
G1 X-14.608 Y29.131 E54.82150
G1 X-14.800 Y29.514 E54.85303
G1 X-14.461 Y30.030 E54.89839
G1 X-13.321 Y29.965 E54.98231
G1 X-10.696 Y29.520 E55.17797
G1 X-8.138 Y28.783 E55.37364
G1 X-5.678 Y27.764 E55.56931
G1 X-3.373 Y26.492 E55.76277
G1 X-1.199 Y24.953 E55.95843
G1 X0.788 Y23.181 E56.15410
G1 X2.564 Y21.198 E56.34977
G1 X4.107 Y19.028 E56.54543
G1 X5.397 Y16.698 E56.74110
G1 X6.418 Y14.239 E56.93676
G1 X7.157 Y11.681 E57.13243
G1 X7.605 Y9.057 E57.32810
G1 X7.756 Y6.398 E57.52376
G1 X7.605 Y3.710 E57.72164
G1 X7.157 Y1.085 E57.91730
G1 X6.418 Y-1.473 E58.11297
G1 X5.410 Y-3.905 E58.30643
G1 X4.123 Y-6.236 E58.50210
G1 X2.583 Y-8.408 E58.69776
G1 X0.809 Y-10.394 E58.89343
G1 X-1.199 Y-12.187 E59.09130
G1 X-3.373 Y-13.725 E59.28697
G1 X-5.705 Y-15.010 E59.48264
G1 X-8.138 Y-16.016 E59.67610
G1 X-10.696 Y-16.753 E59.87176
G1 X-13.320 Y-17.199 E60.06736
G1 X-14.304 Y-17.255 E60.13979
G1 E58.13979 F2400.00000
G92 E0
G1 X-3.366 Y-25.224 F4800.000
G1 E0.80000 F2400.00000
G1 X0.201 Y-23.470 E1.09213 F720.000
G1 X2.812 Y-21.876 E1.31693
G1 X5.268 Y-20.052 E1.54173
