; generated by Slic3r 1.2.9 on 2022-04-20 at 19:51:10

; external perimeters extrusion width = 0.40mm
; perimeters extrusion width = 0.67mm
; infill extrusion width = 0.67mm
; solid infill extrusion width = 0.67mm
; top infill extrusion width = 0.67mm

G28 ; home all axes
M104 S190
M190 S70 ; set bed temperature
G1 Z220
G28
G1 X0.000 Y70.000 Z30.300 F8000.000
M109 S190
G1 Z0.2 F2000
G1 X40.000 Y50.000 Z0.1 E10.000
G1 X0 Y0 Z15

G21 ; set units to millimeters
G90 ; use absolute coordinates
M82 ; use absolute distances for extrusion
G92 E0
G1 Z0.300 F4800.000
G1 E-2.00000 F2400.00000
G92 E0
G1 X37.761 Y-20.847 F4800.000
G1 E0.80000 F2400.00000
G1 X40.986 Y-15.004 E1.29045 F1080.000
G1 X41.427 Y-14.114 E1.36342
G1 X42.826 Y-10.935 E1.61865
G1 X43.218 Y-9.909 E1.69939
G1 X44.296 Y-6.607 E1.95462
G1 X44.584 Y-5.547 E2.03535
G1 X45.329 Y-2.155 E2.29058
G1 X45.512 Y-1.071 E2.37132
G1 X45.917 Y2.378 E2.62656
G1 X45.990 Y3.475 E2.70729
G1 X46.052 Y6.947 E2.96252
G1 X46.016 Y8.045 E3.04326
G1 X45.733 Y11.507 E3.29849
G1 X45.589 Y12.596 E3.37923
G1 X44.964 Y16.013 E3.63446
G1 X44.713 Y17.082 E3.71519
G1 X43.753 Y20.420 E3.97043
G1 X43.397 Y21.459 E4.05116
G1 X42.110 Y24.686 E4.30639
G1 X41.653 Y25.685 E4.38713
G1 X40.053 Y28.767 E4.64236
G1 X39.499 Y29.716 E4.72310
G1 X37.601 Y32.625 E4.97833
G1 X36.956 Y33.514 E5.05907
G1 X34.779 Y36.221 E5.31430
G1 X34.049 Y37.042 E5.39503
G1 X31.615 Y39.519 E5.65027
G1 X30.807 Y40.264 E5.73100
G1 X28.139 Y42.488 E5.98623
G1 X27.262 Y43.148 E6.06697
G1 X24.387 Y45.097 E6.32220
G1 X23.448 Y45.668 E6.40294
G1 X20.394 Y47.322 E6.65817
G1 X19.403 Y47.796 E6.73891
G1 X16.200 Y49.140 E6.99414
G1 X15.167 Y49.514 E7.07487
G1 X11.847 Y50.533 E7.33010
G1 X10.782 Y50.803 E7.41084
G1 X7.377 Y51.488 E7.66607
G1 X6.290 Y51.651 E7.74681
G1 X2.834 Y51.995 E8.00204
G1 X1.737 Y52.050 E8.08278
G1 X-1.737 Y52.050 E8.33801
G1 X-2.834 Y51.995 E8.41874
G1 X-6.290 Y51.651 E8.67398
G1 X-7.377 Y51.488 E8.75471
G1 X-10.781 Y50.803 E9.00995
G1 X-11.846 Y50.533 E9.09068
G1 X-15.167 Y49.514 E9.34592
G1 X-16.200 Y49.140 E9.42665
G1 X-19.403 Y47.796 E9.68188
G1 X-20.394 Y47.322 E9.76262
G1 X-23.448 Y45.668 E10.01785
G1 X-24.387 Y45.097 E10.09859
G1 X-27.262 Y43.148 E10.35382
G1 X-28.139 Y42.488 E10.43455
G1 X-30.807 Y40.264 E10.68978
G1 X-31.615 Y39.519 E10.77052
G1 X-34.049 Y37.042 E11.02575
G1 X-34.779 Y36.221 E11.10649
G1 X-36.956 Y33.514 E11.36172
G1 X-37.601 Y32.625 E11.44246
G1 X-39.499 Y29.716 E11.69769
G1 X-40.053 Y28.767 E11.77842
G1 X-41.653 Y25.685 E12.03366
G1 X-42.110 Y24.686 E12.11439
G1 X-43.397 Y21.459 E12.36963
G1 X-43.753 Y20.420 E12.45036
G1 X-44.713 Y17.082 E12.70559
G1 X-44.964 Y16.013 E12.78632
G1 X-45.589 Y12.596 E13.04156
G1 X-45.733 Y11.507 E13.12230
G1 X-46.016 Y8.045 E13.37753
G1 X-46.052 Y6.947 E13.45826
G1 X-45.990 Y3.475 E13.71350
G1 X-45.917 Y2.378 E13.79423
G1 X-45.512 Y-1.071 E14.04947
G1 X-45.329 Y-2.154 E14.13020
G1 X-44.584 Y-5.547 E14.38543
G1 X-44.296 Y-6.607 E14.46617
G1 X-43.218 Y-9.909 E14.72140
G1 X-42.826 Y-10.935 E14.80214
G1 X-41.427 Y-14.114 E15.05737
G1 X-40.986 Y-15.004 E15.13034
G1 X-23.692 Y-46.329 E17.75983
G1 X-21.922 Y-48.713 E17.97803
G1 X-19.581 Y-50.540 E18.19624
G1 X-16.839 Y-51.680 E18.41444
G1 X-14.000 Y-52.050 E18.62483
G1 X14.000 Y-52.050 E20.68244
G1 X16.943 Y-51.651 E20.90065
G1 X19.673 Y-50.486 E21.11885 F1080.000
G1 X21.996 Y-48.636 E21.33705
G1 X23.692 Y-46.329 E21.54744
G1 X37.732 Y-20.899 E23.68208
G1 X37.292 Y-20.588 F4800.000
G1 X40.517 Y-14.745 E24.17253 F1080.000
G1 X40.936 Y-13.898 E24.24196
G1 X42.336 Y-10.719 E24.49720
G1 X42.709 Y-9.743 E24.57403
G1 X43.787 Y-6.441 E24.82926
G1 X44.061 Y-5.432 E24.90609
G1 X44.806 Y-2.040 E25.16132
G1 X44.980 Y-1.009 E25.23815
G1 X45.385 Y2.441 E25.49339
G1 X45.455 Y3.484 E25.57021
G1 X45.516 Y6.957 E25.82544
G1 X45.483 Y8.002 E25.90227
G1 X45.199 Y11.463 E26.15751
G1 X45.062 Y12.500 E26.23434
G1 X44.437 Y15.916 E26.48957
G1 X44.198 Y16.934 E26.56640
G1 X43.238 Y20.272 E26.82163
G1 X42.899 Y21.261 E26.89846
G1 X41.613 Y24.487 E27.15369
G1 X41.178 Y25.438 E27.23052
G1 X39.577 Y28.521 E27.48576
G1 X39.050 Y29.424 E27.56259
G1 X37.153 Y32.332 E27.81782
G1 X36.539 Y33.179 E27.89465
G1 X34.362 Y35.885 E28.14988
G1 X33.667 Y36.666 E28.22671
G1 X31.233 Y39.144 E28.48194
G1 X30.464 Y39.852 E28.55877
G1 X27.796 Y42.076 E28.81400
G1 X26.961 Y42.705 E28.89083
G1 X24.086 Y44.654 E29.14607
G1 X23.193 Y45.197 E29.22290
G1 X20.138 Y46.851 E29.47813
G1 X19.196 Y47.302 E29.55496
G1 X15.993 Y48.646 E29.81019
G1 X15.010 Y49.002 E29.88702
G1 X11.689 Y50.021 E30.14225
G1 X10.676 Y50.278 E30.21908
G1 X7.271 Y50.963 E30.47431
G1 X6.237 Y51.118 E30.55114
G1 X2.781 Y51.462 E30.80638
G1 X1.737 Y51.514 E30.88321
G1 X-1.737 Y51.514 E31.13844
G1 X-2.781 Y51.462 E31.21527
G1 X-6.237 Y51.118 E31.47050
G1 X-7.271 Y50.963 E31.54733
G1 X-10.676 Y50.278 E31.80256
G1 X-11.689 Y50.021 E31.87939
G1 X-15.010 Y49.002 E32.13463
G1 X-15.993 Y48.646 E32.21145
G1 X-19.196 Y47.302 E32.46668
G1 X-20.138 Y46.851 E32.54352
G1 X-23.193 Y45.197 E32.79875
G1 X-24.086 Y44.654 E32.87558
G1 X-26.961 Y42.705 E33.13081
G1 X-27.796 Y42.076 E33.20764
G1 X-30.464 Y39.852 E33.46287
G1 X-31.233 Y39.144 E33.53970
G1 X-33.667 Y36.666 E33.79493
G1 X-34.362 Y35.885 E33.87176
G1 X-36.539 Y33.179 E34.12700
G1 X-37.153 Y32.332 E34.20382
G1 X-39.050 Y29.424 E34.45906
G1 X-39.577 Y28.521 E34.53589
G1 X-41.178 Y25.438 E34.79112
G1 X-41.613 Y24.487 E34.86795
G1 X-42.899 Y21.261 E35.12318
G1 X-43.238 Y20.272 E35.20001
G1 X-44.198 Y16.934 E35.45525
G1 X-44.437 Y15.916 E35.53207
G1 X-45.062 Y12.500 E35.78731
G1 X-45.199 Y11.463 E35.86414
G1 X-45.483 Y8.002 E36.11937
G1 X-45.516 Y6.957 E36.19620
G1 X-45.455 Y3.484 E36.45143
G1 X-45.385 Y2.441 E36.52826
G1 X-44.980 Y-1.009 E36.78349
G1 X-44.806 Y-2.040 E36.86032
G1 X-44.061 Y-5.432 E37.11556
G1 X-43.787 Y-6.441 E37.19239
G1 X-42.709 Y-9.743 E37.44762
G1 X-42.336 Y-10.719 E37.52445
G1 X-40.936 Y-13.898 E37.77968
G1 X-40.517 Y-14.745 E37.84912
G1 X-23.223 Y-46.070 E40.47861
G1 X-21.488 Y-48.390 E40.69145
G1 X-19.187 Y-50.149 E40.90428
G1 X-16.494 Y-51.215 E41.11712
G1 X-14.000 Y-51.514 E41.30174
G1 X14.000 Y-51.514 E43.35935
G1 X16.869 Y-51.116 E43.57218
G1 X19.521 Y-49.952 E43.78502 F1080.000
G1 X21.756 Y-48.109 E43.99786
G1 X23.223 Y-46.070 E44.18248
G1 X37.263 Y-20.640 E46.31711
G1 E44.31711 F2400.00000
G92 E0
G1 X29.511 Y-15.111 F4800.000
G1 E0.80000 F2400.00000
G1 X30.736 Y-13.365 E0.95680 F1080.000
G1 X32.506 Y-10.223 E1.22180
G1 X33.956 Y-6.921 E1.48679
G1 X35.072 Y-3.492 E1.75179
G1 X35.842 Y0.031 E2.01679
G1 X36.259 Y3.613 E2.28179
G1 X36.319 Y7.218 E2.54678
G1 X36.022 Y10.812 E2.81178
G1 X35.370 Y14.359 E3.07678
G1 X34.369 Y17.823 E3.34178
G1 X33.030 Y21.172 E3.60677
G1 X31.366 Y24.371 E3.87177
G1 X29.393 Y27.389 E4.13677
G1 X27.131 Y30.197 E4.40177
G1 X24.601 Y32.767 E4.66677
G1 X21.829 Y35.074 E4.93176
G1 X18.842 Y37.094 E5.19676
G1 X15.669 Y38.809 E5.46176
G1 X12.343 Y40.200 E5.72675
G1 X8.894 Y41.255 E5.99175
G1 X5.359 Y41.963 E6.25675
G1 X1.770 Y42.317 E6.52175
G1 X-1.836 Y42.314 E6.78674
G1 X-5.424 Y41.954 E7.05174
G1 X-8.959 Y41.239 E7.31674
G1 X-12.405 Y40.178 E7.58174
G1 X-15.729 Y38.780 E7.84673
G1 X-18.899 Y37.060 E8.11173
G1 X-21.882 Y35.034 E8.37673
G1 X-24.650 Y32.722 E8.64173
G1 X-27.175 Y30.148 E8.90672
G1 X-29.432 Y27.335 E9.17172
G1 X-31.400 Y24.313 E9.43672
G1 X-33.058 Y21.111 E9.70172
G1 X-34.391 Y17.760 E9.96671
G1 X-35.385 Y14.294 E10.23171
G1 X-36.031 Y10.746 E10.49671
G1 X-36.321 Y7.152 E10.76171
G1 X-36.255 Y3.546 E11.02670
G1 X-35.831 Y-0.035 E11.29170
G1 X-35.054 Y-3.556 E11.55670
G1 X-33.956 Y-6.921 E11.81682
G1 X-33.849 Y-7.173 E11.83690
G1 X-32.476 Y-10.282 E12.08669
G1 X-30.736 Y-13.365 E12.34681
G1 X-28.663 Y-16.316 E12.61181
G1 X-26.262 Y-19.095 E12.88169
G1 X-23.644 Y-21.574 E13.14668
G1 X-20.792 Y-23.781 E13.41168
G1 X-17.794 Y-25.663 E13.67180
G1 X-15.500 Y-26.807 E13.86018
G1 X-15.339 Y-27.066 E13.88260
G1 X-15.339 Y-41.533 E14.94574
G1 X-14.555 Y-42.317 E15.02726
G1 X14.555 Y-42.317 E17.16639
G1 X15.339 Y-41.533 E17.24790
G1 X15.339 Y-27.066 E18.31105 F1080.000
G1 X15.500 Y-26.807 E18.33346
G1 X17.794 Y-25.663 E18.52185
G1 X20.792 Y-23.781 E18.78197
G1 X23.644 Y-21.574 E19.04696
G1 X26.308 Y-19.046 E19.31684
G1 X28.622 Y-16.368 E19.57696
G1 X29.476 Y-15.161 E19.68563
G1 X29.073 Y-14.803 F4800.000
G1 X30.276 Y-13.090 E19.83950 F1080.000
G1 X32.021 Y-9.995 E20.10059
G1 X33.451 Y-6.742 E20.36168
G1 X34.551 Y-3.364 E20.62277
G1 X35.311 Y0.107 E20.88386
G1 X35.724 Y3.636 E21.14495
G1 X35.784 Y7.188 E21.40605
G1 X35.493 Y10.729 E21.66714
G1 X34.851 Y14.223 E21.92823
G1 X33.867 Y17.637 E22.18932
G1 X32.549 Y20.937 E22.45041
G1 X30.910 Y24.089 E22.71150
G1 X28.967 Y27.064 E22.97259
G1 X26.739 Y29.831 E23.23369
G1 X24.248 Y32.364 E23.49478
G1 X21.517 Y34.638 E23.75587
G1 X18.575 Y36.630 E24.01696
G1 X15.450 Y38.320 E24.27805
G1 X12.173 Y39.692 E24.53914
G1 X8.776 Y40.733 E24.80023
G1 X5.292 Y41.432 E25.06133
G1 X1.757 Y41.782 E25.32242
G1 X-1.796 Y41.780 E25.58351
G1 X-5.332 Y41.426 E25.84460
G1 X-8.814 Y40.723 E26.10569
G1 X-12.210 Y39.679 E26.36678
G1 X-15.486 Y38.303 E26.62787
G1 X-18.609 Y36.609 E26.88897
G1 X-21.549 Y34.614 E27.15006
G1 X-24.277 Y32.337 E27.41115
G1 X-26.766 Y29.802 E27.67224
G1 X-28.991 Y27.032 E27.93333
G1 X-30.930 Y24.055 E28.19442
G1 X-32.565 Y20.900 E28.45552
G1 X-33.880 Y17.600 E28.71661
G1 X-34.860 Y14.185 E28.97770
G1 X-35.498 Y10.689 E29.23879
G1 X-35.786 Y7.148 E29.49988
G1 X-35.721 Y3.596 E29.76097
G1 X-35.305 Y0.067 E30.02206
G1 X-34.541 Y-3.403 E30.28316
G1 X-33.437 Y-6.780 E30.54425
G1 X-32.003 Y-10.031 E30.80534
G1 X-30.276 Y-13.090 E31.06350
G1 X-28.233 Y-15.996 E31.32459
G1 X-25.884 Y-18.715 E31.58861
G1 X-23.305 Y-21.159 E31.84970
G1 X-20.496 Y-23.335 E32.11080
G1 X-17.521 Y-25.202 E32.36896
G1 X-14.964 Y-26.475 E32.57881
G1 X-14.803 Y-26.734 E32.60122
G1 X-14.803 Y-41.311 E33.67246
G1 X-14.333 Y-41.782 E33.72137
G1 X14.333 Y-41.782 E35.82789
G1 X14.803 Y-41.311 E35.87680 F1080.000
G1 X14.803 Y-26.734 E36.94803
G1 X14.964 Y-26.475 E36.97045
G1 X17.521 Y-25.202 E37.18030
G1 X20.496 Y-23.335 E37.43846
G1 X23.305 Y-21.159 E37.69955
G1 X25.912 Y-18.686 E37.96357
G1 X28.208 Y-16.028 E38.22173
G1 X29.038 Y-14.852 E38.32747
G1 E36.32747 F2400.00000
G92 E0
G1 X14.268 Y-41.089 F4800.000
G1 E0.80000 F2400.00000
G1 X14.268 Y-26.402 E1.87932 F1080.000
G1 X14.429 Y-26.143 E1.90174
G1 X17.247 Y-24.741 E2.13305
G1 X20.211 Y-22.880 E2.39024
G1 X22.976 Y-20.735 E2.64743
G1 X25.515 Y-18.326 E2.90461
G1 X27.803 Y-15.677 E3.16180
G1 X29.816 Y-12.815 E3.41898
G1 X31.536 Y-9.767 E3.67617
G1 X32.946 Y-6.564 E3.93335
G1 X34.028 Y-3.249 E4.18956
G1 X34.779 Y0.169 E4.44675
G1 X35.189 Y3.658 E4.70491
G1 X35.250 Y7.144 E4.96112
G1 X34.965 Y10.632 E5.21830
G1 X34.333 Y14.088 E5.47647
G1 X33.364 Y17.451 E5.73365
G1 X32.067 Y20.702 E5.99084
G1 X30.454 Y23.808 E6.24802
G1 X28.542 Y26.739 E6.50521
G1 X26.348 Y29.465 E6.76239
G1 X23.894 Y31.961 E7.01958
G1 X21.206 Y34.202 E7.27676
G1 X18.308 Y36.165 E7.53395
G1 X15.231 Y37.831 E7.79114
G1 X12.003 Y39.184 E8.04832
G1 X8.657 Y40.210 E8.30551
G1 X5.226 Y40.900 E8.56269
G1 X1.743 Y41.246 E8.81988
G1 X-1.757 Y41.246 E9.07706
G1 X-5.239 Y40.898 E9.33425
G1 X-8.670 Y40.207 E9.59143
G1 X-12.015 Y39.179 E9.84862
G1 X-15.243 Y37.825 E10.10580
G1 X-18.320 Y36.158 E10.36299
G1 X-21.216 Y34.194 E10.62018
G1 X-23.904 Y31.952 E10.87736
G1 X-26.357 Y29.455 E11.13455
G1 X-28.549 Y26.728 E11.39173
G1 X-30.461 Y23.796 E11.64892
G1 X-32.073 Y20.690 E11.90610
G1 X-33.369 Y17.439 E12.16329
G1 X-34.336 Y14.075 E12.42047
G1 X-34.965 Y10.632 E12.67766
G1 X-35.250 Y7.144 E12.93485
G1 X-35.188 Y3.645 E13.19203
G1 X-34.779 Y0.169 E13.44922
G1 X-34.028 Y-3.249 E13.70640
G1 X-32.941 Y-6.576 E13.96359
G1 X-31.530 Y-9.779 E14.22077
G1 X-29.809 Y-12.826 E14.47796
G1 X-27.794 Y-15.688 E14.73514
G1 X-25.506 Y-18.336 E14.99233
G1 X-22.966 Y-20.744 E15.24951
G1 X-20.200 Y-22.888 E15.50670
G1 X-17.247 Y-24.741 E15.76291
G1 X-14.429 Y-26.143 E15.99422
G1 X-14.268 Y-26.402 E16.01664
G1 X-14.268 Y-41.089 E17.09596
G1 X-14.111 Y-41.246 E17.11227
G1 X14.111 Y-41.246 E19.18618
G1 X14.225 Y-41.132 E19.19807
G1 E17.19807 F2400.00000
G92 E0
G1 X-13.700 Y-25.871 F4800.000
G1 E0.80000 F2400.00000
G1 X-13.700 Y-40.678 E1.88817 F216.000
G1 X13.700 Y-40.678 E3.90169
G1 X13.700 Y-25.871 E4.98986
G1 X16.964 Y-24.249 E5.25766
G1 X19.880 Y-22.419 E5.51070
G1 X22.601 Y-20.308 E5.76374
G1 X25.099 Y-17.938 E6.01679
G1 X27.351 Y-15.333 E6.26983
G1 X29.332 Y-12.517 E6.52287
G1 X31.025 Y-9.518 E6.77591
G1 X32.413 Y-6.367 E7.02896
G1 X33.481 Y-3.093 E7.28200
G1 X34.220 Y0.270 E7.53504
G1 X34.621 Y3.690 E7.78808
G1 X34.682 Y7.133 E8.04112
G1 X34.401 Y10.565 E8.29417
G1 X33.781 Y13.952 E8.54721
G1 X32.829 Y17.261 E8.80025
G1 X31.553 Y20.459 E9.05329
G1 X29.967 Y23.516 E9.30633
G1 X28.086 Y26.400 E9.55938
G1 X25.928 Y29.083 E9.81242
G1 X23.514 Y31.539 E10.06546
G1 X20.869 Y33.744 E10.31850
G1 X18.019 Y35.676 E10.57155
G1 X14.991 Y37.316 E10.82459
G1 X11.816 Y38.648 E11.07763
G1 X8.524 Y39.658 E11.33067
G1 X5.148 Y40.337 E11.58371
G1 X1.722 Y40.678 E11.83676
G1 X-1.722 Y40.678 E12.08980
G1 X-5.148 Y40.337 E12.34284
G1 X-8.524 Y39.658 E12.59588
G1 X-11.816 Y38.648 E12.84892
G1 X-14.991 Y37.316 E13.10197
G1 X-18.019 Y35.676 E13.35501
G1 X-20.869 Y33.744 E13.60805
G1 X-23.514 Y31.539 E13.86109
G1 X-25.928 Y29.083 E14.11414
G1 X-28.086 Y26.400 E14.36718
G1 X-29.967 Y23.516 E14.62022
G1 X-31.553 Y20.459 E14.87326
G1 X-32.829 Y17.261 E15.12630
G1 X-33.781 Y13.952 E15.37935
G1 X-34.401 Y10.565 E15.63239
G1 X-34.682 Y7.133 E15.88543
G1 X-34.621 Y3.690 E16.13847
G1 X-34.220 Y0.270 E16.39151
G1 X-33.481 Y-3.093 E16.64456
G1 X-32.413 Y-6.367 E16.89760
G1 X-31.025 Y-9.518 E17.15064
G1 X-29.332 Y-12.517 E17.40368
G1 X-27.351 Y-15.333 E17.65673
G1 X-25.099 Y-17.938 E17.90977
G1 X-22.601 Y-20.308 E18.16281
G1 X-19.880 Y-22.419 E18.41585
G1 X-16.964 Y-24.249 E18.66889
G1 X-13.754 Y-25.844 E18.93228
G1 X-13.305 Y-25.932 F4800.000
G1 X-13.164 Y-25.539 F4800.000
G1 X-13.164 Y-40.143 E20.00549 F720.000
G1 X13.164 Y-40.143 E21.94029
G1 X13.164 Y-25.539 E23.01349
G1 X16.701 Y-23.781 E23.30373
G1 X19.573 Y-21.979 E23.55286
G1 X22.252 Y-19.901 E23.80199
G1 X24.712 Y-17.568 E24.05112
G1 X26.928 Y-15.003 E24.30026
G1 X28.879 Y-12.230 E24.54939
G1 X30.546 Y-9.278 E24.79852
G1 X31.912 Y-6.175 E25.04765
G1 X32.964 Y-2.953 E25.29678
G1 X33.691 Y0.359 E25.54591
G1 X34.086 Y3.726 E25.79504
G1 X34.146 Y7.115 E26.04418
G1 X33.869 Y10.494 E26.29331
G1 X33.259 Y13.829 E26.54244
G1 X32.322 Y17.087 E26.79157
G1 X31.066 Y20.236 E27.04070
G1 X29.504 Y23.245 E27.28983
G1 X27.652 Y26.085 E27.53896
G1 X25.527 Y28.726 E27.78810
G1 X23.151 Y31.145 E28.03723
G1 X20.547 Y33.316 E28.28636
G1 X17.741 Y35.218 E28.53549
G1 X14.760 Y36.832 E28.78462
G1 X11.633 Y38.143 E29.03375
G1 X8.392 Y39.138 E29.28288
G1 X5.069 Y39.807 E29.53201
G1 X1.695 Y40.143 E29.78115
G1 X-1.695 Y40.143 E30.03028
G1 X-5.069 Y39.807 E30.27941
G1 X-8.392 Y39.138 E30.52854
G1 X-11.633 Y38.143 E30.77767
G1 X-14.760 Y36.832 E31.02680
G1 X-17.741 Y35.218 E31.27593
G1 X-20.547 Y33.316 E31.52507
G1 X-23.151 Y31.145 E31.77420
G1 X-25.527 Y28.726 E32.02333
G1 X-27.652 Y26.085 E32.27246
G1 X-29.504 Y23.245 E32.52159
G1 X-31.066 Y20.236 E32.77072
G1 X-32.322 Y17.087 E33.01985
G1 X-33.259 Y13.829 E33.26899
G1 X-33.869 Y10.494 E33.51812
G1 X-34.146 Y7.115 E33.76725
G1 X-34.086 Y3.726 E34.01638
G1 X-33.691 Y0.359 E34.26551
G1 X-32.964 Y-2.953 E34.51464
G1 X-31.912 Y-6.175 E34.76377
G1 X-30.546 Y-9.278 E35.01291
G1 X-28.879 Y-12.230 E35.26204
G1 X-26.928 Y-15.003 E35.51117
G1 X-24.712 Y-17.568 E35.76030
G1 X-22.252 Y-19.901 E36.00943
G1 X-19.573 Y-21.979 E36.25856
G1 X-16.701 Y-23.781 E36.50769
G1 X-13.218 Y-25.512 E36.79352
G1 X-12.629 Y-25.207 F4800.000
G1 X-12.629 Y-39.607 E37.85176 F720.000
G1 X12.629 Y-39.607 E39.70784
G1 X12.629 Y-25.207 E40.76608
G1 X16.439 Y-23.313 E41.07875
G1 X19.266 Y-21.540 E41.32397
G1 X21.903 Y-19.494 E41.56919
G1 X24.324 Y-17.198 E41.81442
G1 X26.505 Y-14.673 E42.05964
G1 X28.426 Y-11.944 E42.30486
G1 X30.066 Y-9.038 E42.55008
