; generated by Slic3r 1.2.9 on 2022-05-11 at 15:45:42

; external perimeters extrusion width = 0.40mm
; perimeters extrusion width = 0.67mm
; infill extrusion width = 0.67mm
; solid infill extrusion width = 0.67mm
; top infill extrusion width = 0.67mm
; support material extrusion width = 0.40mm

G28 ; home all axes
M104 S190
M190 S70 ; set bed temperature
G1 Z220
G28
G1 X0.000 Y70.000 Z30.300 F8000.000
M109 S190
G1 Z0.2 F2000
G1 X40.000 Y50.000 Z0.1 E10.000
G1 X0 Y0 Z15

G21 ; set units to millimeters
G90 ; use absolute coordinates
M82 ; use absolute distances for extrusion
G92 E0
G1 Z0.300 F4800.000
G1 E-2.00000 F2400.00000
G92 E0
G1 X4.866 Y-25.224 F4800.000
G1 E0.80000 F2400.00000
G1 X4.866 Y-39.629 E1.85853 F720.000
G1 X16.124 Y-39.629 E2.68580
G1 X16.124 Y-18.914 E4.20804
G1 X14.731 Y-18.837 E4.31053
G1 X12.040 Y-18.392 E4.51097
G1 X9.395 Y-17.656 E4.71276
G1 X6.857 Y-16.642 E4.91357
G1 X4.419 Y-15.349 E5.11636
G1 X2.147 Y-13.806 E5.31820
G1 X0.055 Y-12.027 E5.52001
G1 X-1.832 Y-10.032 E5.72182
G1 X-3.493 Y-7.845 E5.92363
G1 X-4.908 Y-5.491 E6.12543
G1 X-6.055 Y-3.011 E6.32624
G1 X-6.936 Y-0.396 E6.52904
G1 X-7.525 Y2.287 E6.73087
G1 X-7.821 Y5.017 E6.93266
G1 X-7.821 Y7.749 E7.13347
G1 X-7.525 Y10.479 E7.33526
G1 X-6.936 Y13.162 E7.53707
G1 X-6.060 Y15.765 E7.73888
G1 X-4.908 Y18.258 E7.94069
G1 X-3.493 Y20.611 E8.14250
G1 X-1.832 Y22.799 E8.34431
G1 X0.055 Y24.793 E8.54612
G1 X2.147 Y26.573 E8.74794
G1 X4.419 Y28.115 E8.94977
G1 X6.857 Y29.409 E9.15256
G1 X9.395 Y30.422 E9.35337
G1 X12.040 Y31.159 E9.55516
G1 X14.731 Y31.603 E9.75560
G1 X16.124 Y31.680 E9.85809
G1 X16.124 Y39.565 E10.43750
G1 X14.439 Y39.488 E10.56143
G1 X11.408 Y39.072 E10.78623
G1 X8.428 Y38.382 E11.01103
G1 X5.523 Y37.424 E11.23583
G1 X2.717 Y36.206 E11.46064
G1 X0.033 Y34.738 E11.68544
G1 X-2.507 Y33.032 E11.91024
G1 X-4.880 Y31.103 E12.13504
G1 X-7.069 Y28.965 E12.35984
G1 X-9.054 Y26.638 E12.58465
G1 X-10.820 Y24.140 E12.80945
G1 X-12.351 Y21.492 E13.03425
G1 X-13.636 Y18.715 E13.25905
G1 X-14.662 Y15.833 E13.48385
G1 X-15.423 Y12.870 E13.70866
G1 X-15.911 Y9.850 E13.93346
G1 X-16.123 Y6.799 E14.15826
G1 X-16.056 Y3.740 E14.38306
G1 X-15.712 Y0.701 E14.60787
G1 X-15.093 Y-2.295 E14.83267
G1 X-14.204 Y-5.222 E15.05747
G1 X-13.053 Y-8.057 E15.28227
G1 X-11.650 Y-10.775 E15.50707
G1 X-10.004 Y-13.354 E15.73188
G1 X-8.132 Y-15.773 E15.95668
G1 X-6.047 Y-18.012 E16.18148
G1 X-3.768 Y-20.052 E16.40628
G1 X-1.312 Y-21.876 E16.63108
G1 X1.299 Y-23.470 E16.85589
G1 X4.812 Y-25.198 E17.14361
G1 X4.331 Y-25.558 F4800.000
G1 X4.331 Y-40.164 E18.21699 F720.000
G1 X16.659 Y-40.164 E19.12298
G1 X16.659 Y-18.407 E20.72182
G1 X14.790 Y-18.304 E20.85942
G1 X12.156 Y-17.869 E21.05560
G1 X9.566 Y-17.147 E21.25313
G1 X7.082 Y-16.156 E21.44968
G1 X4.696 Y-14.890 E21.64820
G1 X2.472 Y-13.379 E21.84576
G1 X0.424 Y-11.638 E22.04331
G1 X-1.423 Y-9.685 E22.24085
G1 X-3.049 Y-7.544 E22.43839
G1 X-4.434 Y-5.240 E22.63593
G1 X-5.556 Y-2.812 E22.83249
G1 X-6.419 Y-0.252 E23.03101
G1 X-6.996 Y2.373 E23.22857
G1 X-7.285 Y5.046 E23.42610
G1 X-7.285 Y7.720 E23.62265
G1 X-6.996 Y10.393 E23.82019
G1 X-6.419 Y13.018 E24.01773
G1 X-5.562 Y15.566 E24.21527
G1 X-4.434 Y18.006 E24.41282
G1 X-3.049 Y20.311 E24.61036
G1 X-1.423 Y22.452 E24.80791
G1 X0.424 Y24.404 E25.00545
G1 X2.472 Y26.146 E25.20299
G1 X4.696 Y27.656 E25.40055
G1 X7.082 Y28.922 E25.59908
G1 X9.566 Y29.914 E25.79563
G1 X12.156 Y30.635 E25.99316
G1 X14.790 Y31.070 E26.18934
G1 X16.659 Y31.174 E26.32694
G1 X16.659 Y40.125 E26.98477
G1 X14.390 Y40.022 E27.15169
G1 X11.311 Y39.599 E27.38007
G1 X8.284 Y38.898 E27.60846
G1 X5.332 Y37.925 E27.83685
G1 X2.481 Y36.688 E28.06523
G1 X-0.246 Y35.196 E28.29362
G1 X-2.825 Y33.463 E28.52201
G1 X-5.237 Y31.503 E28.75039
G1 X-7.461 Y29.331 E28.97878
G1 X-9.478 Y26.967 E29.20716
G1 X-11.272 Y24.429 E29.43555
G1 X-12.827 Y21.739 E29.66394
G1 X-14.132 Y18.918 E29.89232
G1 X-15.175 Y15.990 E30.12071
G1 X-15.948 Y12.980 E30.34910
G1 X-16.444 Y9.912 E30.57748
G1 X-16.659 Y6.811 E30.80587
G1 X-16.591 Y3.704 E31.03426
G1 X-16.242 Y0.616 E31.26264
G1 X-15.613 Y-2.428 E31.49103
G1 X-14.710 Y-5.401 E31.71942
G1 X-13.540 Y-8.281 E31.94780
G1 X-12.114 Y-11.042 E32.17619
G1 X-10.443 Y-13.662 E32.40458
G1 X-8.540 Y-16.120 E32.63296
G1 X-6.423 Y-18.395 E32.86135
G1 X-4.107 Y-20.467 E33.08974
G1 X-1.612 Y-22.321 E33.31812
G1 X1.041 Y-23.940 E33.54651
G1 X4.277 Y-25.531 E33.81152
G1 X3.795 Y-25.891 F4800.000
G1 X3.795 Y-40.700 E34.89975 F216.000
G1 X17.195 Y-40.700 E35.88446
G1 X17.195 Y-17.901 E37.55990
G1 X14.849 Y-17.770 E37.73260
G1 X12.272 Y-17.345 E37.92452
G1 X9.738 Y-16.639 E38.11779
G1 X7.308 Y-15.669 E38.31009
G1 X4.973 Y-14.430 E38.50434
G1 X2.797 Y-12.953 E38.69763
G1 X0.793 Y-11.249 E38.89090
G1 X-1.014 Y-9.338 E39.08418
G1 X-2.605 Y-7.243 E39.27746
G1 X-3.960 Y-4.989 E39.47073
G1 X-5.058 Y-2.614 E39.66303
G1 X-5.902 Y-0.109 E39.85729
G1 X-6.466 Y2.460 E40.05057
G1 X-6.750 Y5.075 E40.24384
G1 X-6.750 Y7.692 E40.43614
G1 X-6.466 Y10.306 E40.62941
G1 X-5.902 Y12.875 E40.82269
G1 X-5.063 Y15.368 E41.01596
G1 X-3.960 Y17.755 E41.20924
G1 X-2.605 Y20.010 E41.40252
G1 X-1.014 Y22.104 E41.59580
G1 X0.793 Y24.015 E41.78907
G1 X2.797 Y25.719 E41.98235
G1 X4.973 Y27.196 E42.17564
G1 X7.308 Y28.435 E42.36989
G1 X9.738 Y29.405 E42.56218
G1 X12.272 Y30.111 E42.75546
G1 X14.849 Y30.537 E42.94738
G1 X17.195 Y30.667 E43.12008
G1 X17.195 Y40.686 E43.85634
G1 X14.342 Y40.556 E44.06625
G1 X11.214 Y40.127 E44.29822
G1 X8.139 Y39.415 E44.53019
G1 X5.141 Y38.426 E44.76216
G1 X2.245 Y37.169 E44.99413
G1 X-0.524 Y35.654 E45.22610
G1 X-3.144 Y33.894 E45.45807
G1 X-5.594 Y31.903 E45.69004
G1 X-7.852 Y29.698 E45.92201
G1 X-9.901 Y27.296 E46.15398
G1 X-11.723 Y24.718 E46.38596
G1 X-13.303 Y21.986 E46.61793
G1 X-14.628 Y19.121 E46.84990
G1 X-15.688 Y16.147 E47.08187
G1 X-16.473 Y13.089 E47.31384
G1 X-16.976 Y9.973 E47.54581
G1 X-17.195 Y6.824 E47.77778
G1 X-17.126 Y3.668 E48.00975
G1 X-16.771 Y0.532 E48.24172
G1 X-16.132 Y-2.560 E48.47369
G1 X-15.215 Y-5.580 E48.70566
G1 X-14.028 Y-8.505 E48.93764
G1 X-12.579 Y-11.310 E49.16961
G1 X-10.881 Y-13.971 E49.40158
G1 X-8.949 Y-16.467 E49.63355
G1 X-6.798 Y-18.777 E49.86552
G1 X-4.446 Y-20.883 E50.09749
G1 X-1.912 Y-22.765 E50.32946
G1 X0.782 Y-24.410 E50.56143
G1 X3.741 Y-25.865 E50.80372
G1 X4.190 Y-25.952 F4800.000
G1 X4.896 Y-24.923 F4800.000
G1 X11.321 Y-18.499 E51.47211 F360.000
G1 X10.728 Y-18.333 E51.51739
G1 X4.388 Y-24.673 E52.17696
G1 X3.880 Y-24.424 E52.21863
G1 X10.135 Y-18.168 E52.86937
G1 X9.542 Y-18.003 E52.91466
G1 X3.371 Y-24.174 E53.55658
G1 X2.863 Y-23.924 E53.59825
G1 X8.985 Y-17.802 E54.23513
G1 X8.443 Y-17.585 E54.27805
G1 X2.355 Y-23.674 E54.91143
G1 X1.846 Y-23.424 E54.95310
G1 X7.901 Y-17.369 E55.58298
G1 X7.359 Y-17.153 E55.62590
G1 X1.342 Y-23.170 E56.25185
G1 X0.871 Y-22.882 E56.29243
G1 X6.817 Y-16.936 E56.91098
G1 X6.319 Y-16.676 E56.95231
G1 X0.401 Y-22.595 E57.56804
G1 X-0.070 Y-22.307 E57.60862
G1 X5.824 Y-16.413 E58.22179
G1 X5.328 Y-16.150 E58.26304
G1 X-0.541 Y-22.020 E58.87366
G1 X-1.012 Y-21.733 E58.91424
G1 X4.833 Y-15.888 E59.52230
G1 X4.338 Y-15.625 E59.56355
G1 X-1.460 Y-21.422 E60.16668
G1 X-1.895 Y-21.099 E60.20654
G1 X3.883 Y-15.321 E60.80767
G1 X3.432 Y-15.014 E60.84783
G1 X-2.330 Y-20.776 E61.44722
G1 X-2.765 Y-20.453 E61.48709
G1 X2.980 Y-14.707 E62.08477
G1 X2.529 Y-14.401 E62.12492
G1 X-3.200 Y-20.129 E62.72087
G1 X-3.633 Y-19.804 E62.76070
G1 X2.077 Y-14.094 E63.35468
G1 X1.660 Y-13.753 E63.39432
G1 X-4.033 Y-19.446 E63.98652
G1 X-4.433 Y-19.088 E64.02602
G1 X1.250 Y-13.405 E64.61722
G1 X0.840 Y-13.056 E64.65679
G1 X-4.833 Y-18.729 E65.24700
G1 X-5.233 Y-18.371 E65.28650
G1 X0.430 Y-12.708 E65.87570
G1 X0.021 Y-12.359 E65.91527
G1 X-5.633 Y-18.013 E66.50347
G1 X-6.018 Y-17.640 E66.54291
G1 X-0.363 Y-11.985 E67.13121
G1 X-0.732 Y-11.595 E67.17066
G1 X-6.384 Y-17.247 E67.75864
G1 X-6.749 Y-16.854 E67.79811
G1 X-1.100 Y-11.206 E68.38578
G1 X-1.469 Y-10.816 E68.42523
G1 X-7.115 Y-16.462 E69.01258
G1 X-7.481 Y-16.069 E69.05205
G1 X-1.838 Y-10.426 E69.63909
G1 X-2.189 Y-10.019 E69.67864
G1 X-7.846 Y-15.677 E70.26717
G1 X-8.184 Y-15.256 E70.30685
G1 X-2.516 Y-9.588 E70.89642
G1 X-2.843 Y-9.157 E70.93623
G1 X-8.514 Y-14.828 E71.52618
G1 X-8.845 Y-14.401 E71.56594
G1 X-3.171 Y-8.726 E72.15626
G1 X-3.498 Y-8.295 E72.19607
G1 X-9.176 Y-13.973 E72.78677
G1 X-9.507 Y-13.546 E72.82652
G1 X-3.814 Y-7.853 E73.41874
G1 X-4.099 Y-7.380 E73.45939
G1 X-9.830 Y-13.110 E74.05557
G1 X-10.125 Y-12.647 E74.09596
G1 X-4.384 Y-6.906 E74.69324
G1 X-4.668 Y-6.432 E74.73389
G1 X-10.420 Y-12.184 E75.33228
G1 X-10.716 Y-11.721 E75.37268
G1 X-4.953 Y-5.959 E75.97217
G1 X-5.228 Y-5.476 E76.01306
G1 X-11.011 Y-11.259 E76.61462
G1 X-11.306 Y-10.796 E76.65502
G1 X-5.468 Y-4.958 E77.26235
G1 X-5.708 Y-4.439 E77.30437
G1 X-11.574 Y-10.306 E77.91467
G1 X-11.833 Y-9.806 E77.95607
G1 X-5.948 Y-3.920 E78.56830
G1 X-6.187 Y-3.402 E78.61032
G1 X-12.091 Y-9.306 E79.22447
G1 X-12.349 Y-8.806 E79.26586
G1 X-6.411 Y-2.867 E79.88365
G1 X-6.602 Y-2.300 E79.92768
G1 X-12.607 Y-8.305 E80.55245
G1 X-12.851 Y-7.791 E80.59433
G1 X-6.793 Y-1.733 E81.22460
G1 X-6.984 Y-1.165 E81.26863
G1 X-13.070 Y-7.252 E81.90181
G1 X-13.289 Y-6.713 E81.94463
G1 X-7.175 Y-0.598 E82.58071
G1 X-7.331 Y0.004 E82.62649
G1 X-13.508 Y-6.173 E83.26916
G1 X-13.727 Y-5.634 E83.31197
G1 X-7.467 Y0.626 E83.96321
G1 X-7.604 Y1.248 E84.01003
G1 X-13.939 Y-5.087 E84.66905
G1 X-14.115 Y-4.506 E84.71377
G1 X-7.740 Y1.869 E85.37696
G1 X-7.861 Y2.507 E85.42470
G1 X-14.292 Y-3.924 E86.09373
G1 X-14.468 Y-3.342 E86.13845
G1 X-7.935 Y3.191 E86.81813
G1 X-8.009 Y3.875 E86.86875
G1 X-14.645 Y-2.761 E87.55908
G1 X-14.812 Y-2.169 E87.60429
G1 X-8.083 Y4.559 E88.30426
G1 X-8.143 Y5.258 E88.35586
G1 X-14.942 Y-1.541 E89.06316
G1 X-15.071 Y-0.912 E89.11036
G1 X-8.143 Y6.016 E89.83117
G1 X-8.143 Y6.775 E89.88694
G1 X-15.201 Y-0.284 E90.62126
G1 X-15.331 Y0.344 E90.66846
G1 X-8.143 Y7.533 E91.41628
G1 X-8.093 Y8.340 E91.47579
G1 X-15.434 Y1.000 E92.23947
G1 X-15.512 Y1.681 E92.28990
G1 X-8.001 Y9.191 E93.07119
G1 X-7.909 Y10.041 E93.13412
G1 X-15.589 Y2.362 E93.93303
G1 X-15.666 Y3.043 E93.98346
G1 X-7.784 Y10.924 E94.80337
G1 X-7.571 Y11.896 E94.87656
G1 X-15.737 Y3.730 E95.72608
G1 X-15.753 Y4.472 E95.78069
G1 X-7.357 Y12.868 E96.65410
G1 X-7.065 Y13.919 E96.73432
G1 X-15.769 Y5.214 E97.63982
G1 X-15.785 Y5.956 E97.69442
G1 X-6.680 Y15.061 E98.64161
G1 X-6.257 Y16.243 F4800.000
G1 X-15.799 Y6.701 E99.63423 F360.000
G1 X-15.742 Y7.516 E99.69431
G1 X-5.606 Y17.652 E100.74882
G1 X-4.785 Y19.231 F4800.000
G1 X-15.686 Y8.330 E101.88284 F360.000
G1 X-15.629 Y9.145 E101.94292
G1 X-3.536 Y21.238 E103.20097
G1 X-9.906 Y24.726 F4800.000
G1 X-1.228 Y33.404 E104.10374 F360.000
G1 X0.886 Y34.760 F4800.000
G1 X-11.231 Y22.643 E105.36429 F360.000
G1 X-12.199 Y20.917 F4800.000
G1 X2.560 Y35.676 E106.89969 F360.000
G1 X3.992 Y36.349 F4800.000
G1 X-12.851 Y19.506 E108.65194 F360.000
G1 X-13.448 Y18.151 F4800.000
G1 X5.332 Y36.931 E110.60559 F360.000
G1 X6.535 Y37.375 F4800.000
G1 X-13.867 Y16.973 E112.72804 F360.000
G1 X-14.287 Y15.795 F4800.000
G1 X7.666 Y37.748 E115.01183 F360.000
G1 X8.780 Y38.104 E115.09782
G1 X-14.576 Y14.748 E117.52754
G1 X-14.838 Y13.728 E117.60501
G1 X9.766 Y38.332 E120.16461
G1 X10.753 Y38.561 E120.23911
G1 X-15.100 Y12.708 E122.92860
G1 X-15.250 Y11.799 E122.99638
G1 X11.725 Y38.774 E125.80263
G1 X12.604 Y38.895 E125.86789
G1 X-15.397 Y10.895 E128.78079
G1 X-15.543 Y9.990 E128.84818
G1 X13.483 Y39.015 E131.86773
G1 X14.362 Y39.136 E131.93300
G1 X2.585 Y27.360 E133.15810
G1 X4.673 Y28.690 F4800.000
G1 X15.178 Y39.195 E134.25094 F360.000
G1 X15.802 Y39.060 E134.29790
G1 X6.288 Y29.547 E135.28763
G1 X7.610 Y30.110 F4800.000
G1 X15.802 Y38.302 E136.13990 F360.000
G1 X15.802 Y37.544 E136.19567
G1 X8.872 Y30.613 E136.91665
G1 X9.968 Y30.951 E137.00102
G1 X15.802 Y36.786 E137.60797
G1 X15.802 Y36.027 E137.66374
G1 X11.019 Y31.244 E138.16136
G1 X12.038 Y31.504 E138.23871
G1 X15.802 Y35.269 E138.63034
G1 X15.802 Y34.511 E138.68612
G1 X12.946 Y31.654 E138.98327
G1 X13.854 Y31.804 E139.05099
G1 X15.802 Y33.753 E139.25365
G1 X15.802 Y32.994 E139.30943
G1 X14.740 Y31.932 E139.41993
G1 X15.543 Y31.977 E139.47908
G1 X15.802 Y32.236 E139.50606
G1 X-5.436 Y29.955 F4800.000
G1 X-7.028 Y28.362 E139.67174 F360.000
G1 E137.67174 F2400.00000
G92 E0
G1 X5.188 Y-25.390 F4800.000
G1 E0.80000 F2400.00000
G1 X11.914 Y-18.664 E1.49973 F360.000
G1 X12.551 Y-18.785 E1.54741
G1 X5.188 Y-26.148 E2.31338
G1 X5.188 Y-26.906 E2.36915
G1 X13.202 Y-18.893 E3.20282
G1 X13.852 Y-19.000 E3.25134
G1 X5.188 Y-27.665 E4.15271
G1 X5.188 Y-28.423 E4.20848
G1 X14.503 Y-19.108 E5.17755
G1 X15.191 Y-19.178 E5.22841
G1 X5.188 Y-29.181 E6.26904
G1 X5.188 Y-29.940 E6.32482
G1 X15.802 Y-19.325 E7.42903
G1 X15.802 Y-20.084 E7.48481
G1 X5.188 Y-30.698 E8.58902
G1 X5.188 Y-31.456 E8.64480
G1 X15.802 Y-20.842 E9.74901
G1 X15.802 Y-21.600 E9.80479
G1 X5.188 Y-32.214 E10.90900
G1 X5.188 Y-32.973 E10.96478
G1 X15.802 Y-22.358 E12.06899
G1 X15.802 Y-23.117 E12.12477
G1 X5.188 Y-33.731 E13.22898
G1 X5.188 Y-34.489 E13.28476
G1 X15.802 Y-23.875 E14.38897
G1 X15.802 Y-24.633 E14.44475
G1 X5.188 Y-35.247 E15.54896
G1 X5.188 Y-36.006 E15.60474
G1 X15.802 Y-25.391 E16.70895
G1 X15.802 Y-26.150 E16.76473
G1 X5.188 Y-36.764 E17.86894
G1 X5.188 Y-37.522 E17.92472
G1 X15.802 Y-26.908 E19.02893
G1 X15.802 Y-27.666 E19.08471
G1 X5.188 Y-38.280 E20.18893
G1 X5.188 Y-39.039 E20.24470
G1 X15.802 Y-28.424 E21.34892
G1 X15.802 Y-29.183 E21.40469
G1 X5.678 Y-39.307 E22.45796
G1 X6.436 Y-39.307 E22.51374
G1 X15.802 Y-29.941 E23.48813
G1 X15.802 Y-30.699 E23.54391
G1 X7.194 Y-39.307 E24.43941
G1 X7.952 Y-39.307 E24.49519
G1 X15.802 Y-31.457 E25.31181
G1 X15.802 Y-32.216 E25.36759
G1 X8.711 Y-39.307 E26.10533
G1 X9.469 Y-39.307 E26.16111
G1 X15.802 Y-32.974 E26.81996
G1 X15.802 Y-33.732 E26.87574
G1 X10.227 Y-39.307 E27.45572
G1 X10.985 Y-39.307 E27.51150
G1 X15.802 Y-34.490 E28.01259
G1 X15.802 Y-35.249 E28.06837
G1 X11.744 Y-39.307 E28.49058
G1 X12.502 Y-39.307 E28.54636
G1 X15.802 Y-36.007 E28.88969
G1 X15.802 Y-36.765 E28.94547
G1 X13.260 Y-39.307 E29.20991
G1 X14.018 Y-39.307 E29.26569
G1 X15.802 Y-37.523 E29.45126
G1 X15.802 Y-38.282 E29.50704
G1 X14.777 Y-39.307 E29.61372
G1 X15.535 Y-39.307 E29.66950
G1 X15.802 Y-39.040 E29.69730
G1 Z0.300 F4800.000
G1 E27.69730 F2400.00000
G92 E0
G1 X14.373 Y-41.436 F4800.000
G1 E0.80000 F2400.00000
G1 X14.988 Y-42.664 E0.90088 F1080.000
G1 X16.187 Y-42.664 E0.98894
G1 X15.571 Y-41.436 E1.08982
G1 X16.770 Y-41.436 E1.17788
G1 X17.385 Y-42.664 E1.27876
G1 X18.583 Y-42.664 E1.36681
G1 X17.968 Y-41.436 E1.46770
G1 X19.087 Y-41.278 E1.55075
G1 X18.003 Y-39.116 E1.72853
G1 X19.087 Y-38.888 E1.80993
G1 X18.003 Y-36.725 E1.98771
G1 X19.087 Y-36.497 E2.06911
G1 X18.003 Y-34.334 E2.24689
G1 X19.087 Y-34.106 E2.32829
G1 X18.003 Y-31.943 E2.50607
G1 X19.087 Y-31.715 E2.58747
G1 X18.003 Y-29.553 E2.76524
G1 X19.087 Y-29.325 E2.84665
G1 X18.003 Y-27.162 E3.02442
G1 X19.087 Y-26.934 E3.10583
G1 X18.003 Y-24.771 E3.28360
G1 X19.087 Y-24.543 E3.36500
G1 X18.003 Y-22.380 E3.54278
G1 X19.087 Y-22.152 E3.62418
G1 X18.003 Y-19.989 E3.80196
G1 X19.087 Y-19.761 E3.88336
G1 X18.003 Y-17.599 E4.06114
G1 X19.087 Y-17.371 E4.14254
G1 X18.387 Y-15.974 E4.25737
G1 X17.175 Y-15.947 F4800.000
G1 X17.796 Y-17.185 E4.35912 F1080.000
G1 X16.568 Y-17.126 E4.44946
G1 X15.953 Y-15.899 E4.55037
G1 X15.336 Y-17.058 F4800.000
G1 X14.696 Y-15.783 E4.65523 F1080.000
G1 X13.703 Y-16.192 E4.73417
G1 X14.047 Y-16.878 E4.79061
G1 E2.79061 F2400.00000
G92 E0
G1 X14.086 Y28.469 F4800.000
G1 E0.80000 F2400.00000
G1 X13.703 Y29.233 E0.86276 F1080.000
G1 X14.635 Y29.765 E0.94160
G1 X15.224 Y28.590 E1.03822
G1 X16.375 Y28.683 E1.12312
G1 X15.787 Y29.858 E1.21970
G1 X16.953 Y29.922 E1.30552
G1 X17.555 Y28.719 E1.40439
G1 X18.741 Y28.745 E1.49152
G1 X18.003 Y30.217 E1.61251
G1 X19.087 Y30.445 E1.69391
G1 X18.003 Y32.607 E1.87169
G1 X19.087 Y32.835 E1.95309
G1 X18.003 Y34.998 E2.13087
G1 X19.087 Y35.226 E2.21227
G1 X18.003 Y37.389 E2.39005
G1 Z0.400 F4800.000
