;FLAVOR:Marlin
;TIME:13478
;Filament used: 6.49373m
;Layer height: 0.2
;MINX:-25.141
;MINY:-21.83
;MINZ:0.3
;MAXX:21.747
;MAXY:21.83
;MAXZ:55.77
;Generated with Cura_SteamEngine 4.13.1
M140 S65
M105
M190 S65
M104 S200
M105
M109 S200
M82 ;absolute extrusion mode
M190 S65 ; set bed temperature
M104 S190 ; set temperature
G28 ; home all axes
G1 Z100 F9000
M109 S190 ; wait for temperature to be reached
G21 ; set units to millimeters
G90 ; use absolute coordinates
M82 ; use absolute distances for extrusion
G92 E0

G1 Z0.300 F4800.000
G1 X0.000 Y70.000 F4800.000
G1 X40.000 Y50.000 E10.000 F1080.000

G1 Z5 F5000 ; lift nozzle
G92 E0
G92 E0
G1 F750 E-6.5
;LAYER_COUNT:278
;LAYER:0
M107
G0 F3600 X-10.481 Y-20.15 Z0.3
;TYPE:SKIRT
G1 F750 E0
G1 F900 X-10.481 Y20.15 E2.41269
G1 X-10.521 Y20.514 E2.43461
G1 X-10.639 Y20.86 E2.4565
G1 X-10.829 Y21.173 E2.47842
G1 X-11.082 Y21.438 E2.50035
G1 X-11.386 Y21.641 E2.52224
G1 X-11.728 Y21.773 E2.54419
G1 X-12.161 Y21.83 E2.57033
G1 X-23.461 Y21.83 E3.24684
G1 X-23.825 Y21.79 E3.26877
G1 X-24.171 Y21.672 E3.29065
G1 X-24.484 Y21.482 E3.31257
G1 X-24.749 Y21.229 E3.33451
G1 X-24.952 Y20.925 E3.35639
G1 X-25.084 Y20.583 E3.37834
G1 X-25.141 Y20.15 E3.40449
G1 X-25.141 Y-20.15 E5.81718
G1 X-25.101 Y-20.514 E5.8391
G1 X-24.983 Y-20.86 E5.86099
G1 X-24.793 Y-21.173 E5.88291
G1 X-24.54 Y-21.438 E5.90484
G1 X-24.236 Y-21.641 E5.92673
G1 X-23.894 Y-21.773 E5.94867
G1 X-23.461 Y-21.83 E5.97482
G1 X-12.161 Y-21.83 E6.65133
G1 X-11.797 Y-21.79 E6.67325
G1 X-11.451 Y-21.672 E6.69514
G1 X-11.138 Y-21.482 E6.71706
G1 X-10.873 Y-21.229 E6.739
G1 X-10.67 Y-20.925 E6.76088
G1 X-10.538 Y-20.583 E6.78283
G1 X-10.481 Y-20.15 E6.80897
G0 F3600 X-10.961 Y-20.15
G1 F900 X-10.961 Y20.15 E9.22166
G1 X-11.001 Y20.457 E9.2402
G1 X-11.118 Y20.743 E9.2587
G1 X-11.304 Y20.99 E9.27721
G1 X-11.547 Y21.181 E9.29571
G1 X-11.831 Y21.304 E9.31424
G1 X-12.161 Y21.35 E9.33419
G1 X-23.461 Y21.35 E10.0107
G1 X-23.768 Y21.31 E10.02924
G1 X-24.054 Y21.193 E10.04774
G1 X-24.301 Y21.007 E10.06625
G1 X-24.492 Y20.764 E10.08475
G1 X-24.615 Y20.48 E10.10328
G1 X-24.661 Y20.15 E10.12323
G1 X-24.661 Y-20.15 E12.53592
G1 X-24.621 Y-20.457 E12.55445
G1 X-24.504 Y-20.743 E12.57295
G1 X-24.318 Y-20.99 E12.59146
G1 X-24.075 Y-21.181 E12.60997
G1 X-23.791 Y-21.304 E12.6285
G1 X-23.461 Y-21.35 E12.64844
G1 X-12.161 Y-21.35 E13.32496
G1 X-11.854 Y-21.31 E13.34349
G1 X-11.568 Y-21.193 E13.36199
G1 X-11.321 Y-21.007 E13.3805
G1 X-11.13 Y-20.764 E13.39901
G1 X-11.007 Y-20.48 E13.41753
G1 X-10.961 Y-20.15 E13.43748
G0 F3600 X-11.441 Y-20.15
G1 F900 X-11.441 Y20.15 E15.85017
G1 X-11.481 Y20.386 E15.8645
G1 X-11.596 Y20.596 E15.87884
G1 X-11.773 Y20.756 E15.89312
G1 X-11.993 Y20.85 E15.90744
G1 X-12.161 Y20.87 E15.91757
G1 X-23.461 Y20.87 E16.59408
G1 X-23.697 Y20.83 E16.60841
G1 X-23.907 Y20.715 E16.62275
G1 X-24.067 Y20.538 E16.63703
G1 X-24.161 Y20.318 E16.65136
G1 X-24.181 Y20.15 E16.66148
G1 X-24.181 Y-20.15 E19.07418
G1 X-24.141 Y-20.386 E19.08851
G1 X-24.026 Y-20.596 E19.10284
G1 X-23.849 Y-20.756 E19.11712
G1 X-23.629 Y-20.85 E19.13145
G1 X-23.461 Y-20.87 E19.14158
G1 X-12.161 Y-20.87 E19.81809
G1 X-11.925 Y-20.83 E19.83242
G1 X-11.715 Y-20.715 E19.84675
G1 X-11.555 Y-20.538 E19.86104
G1 X-11.461 Y-20.318 E19.87536
G1 X-11.441 Y-20.15 E19.88549
G0 F3600 X-11.921 Y-20.15
G1 F900 X-11.921 Y20.15 E22.29818
G1 X-11.96 Y20.281 E22.30636
G1 X-12.065 Y20.37 E22.3146
G1 X-12.161 Y20.39 E22.32047
G1 X-23.461 Y20.39 E22.99698
G1 X-23.592 Y20.351 E23.00517
G1 X-23.681 Y20.246 E23.01341
G1 X-23.701 Y20.15 E23.01928
G1 X-23.701 Y-20.15 E25.43197
G1 X-23.662 Y-20.281 E25.44015
G1 X-23.557 Y-20.37 E25.44839
G1 X-23.461 Y-20.39 E25.45426
G1 X-12.161 Y-20.39 E26.13077
G1 X-12.03 Y-20.351 E26.13896
G1 X-11.941 Y-20.246 E26.1472
G1 X-11.921 Y-20.15 E26.15307
G1 F750 E19.65307
G0 F3600 X7.087 Y-20.15
G1 F750 E26.15307
G1 F900 X7.127 Y-20.514 E26.17499
G1 X7.245 Y-20.86 E26.19688
G1 X7.435 Y-21.173 E26.2188
G1 X7.688 Y-21.438 E26.24073
G1 X7.992 Y-21.641 E26.26262
G1 X8.334 Y-21.773 E26.28456
G1 X8.767 Y-21.83 E26.31071
G1 X20.067 Y-21.83 E26.98722
G1 X20.431 Y-21.79 E27.00914
G1 X20.777 Y-21.672 E27.03103
G1 X21.09 Y-21.482 E27.05295
G1 X21.355 Y-21.229 E27.07489
G1 X21.558 Y-20.925 E27.09677
G1 X21.69 Y-20.583 E27.11872
G1 X21.747 Y-20.15 E27.14486
G1 X21.747 Y20.15 E29.55755
G1 X21.707 Y20.514 E29.57948
G1 X21.589 Y20.86 E29.60136
G1 X21.399 Y21.173 E29.62328
G1 X21.146 Y21.438 E29.64522
G1 X20.842 Y21.641 E29.6671
G1 X20.5 Y21.773 E29.68905
G1 X20.067 Y21.83 E29.7152
G1 X8.767 Y21.83 E30.39171
G1 X8.403 Y21.79 E30.41363
G1 X8.057 Y21.672 E30.43552
G1 X7.744 Y21.482 E30.45744
G1 X7.479 Y21.229 E30.47937
G1 X7.276 Y20.925 E30.50126
G1 X7.144 Y20.583 E30.52321
G1 X7.087 Y20.15 E30.54935
G1 X7.087 Y-20.15 E32.96204
G0 F3600 X7.567 Y-20.15
G1 F900 X7.607 Y-20.457 E32.98058
G1 X7.724 Y-20.743 E32.99908
G1 X7.91 Y-20.99 E33.01759
G1 X8.153 Y-21.181 E33.03609
G1 X8.437 Y-21.304 E33.05462
G1 X8.767 Y-21.35 E33.07457
G1 X20.067 Y-21.35 E33.75108
G1 X20.374 Y-21.31 E33.76961
G1 X20.66 Y-21.193 E33.78811
G1 X20.907 Y-21.007 E33.80662
G1 X21.098 Y-20.764 E33.82513
G1 X21.221 Y-20.48 E33.84366
G1 X21.267 Y-20.15 E33.86361
G1 X21.267 Y20.15 E36.2763
G1 X21.227 Y20.457 E36.29483
G1 X21.11 Y20.743 E36.31333
G1 X20.924 Y20.99 E36.33184
G1 X20.681 Y21.181 E36.35035
G1 X20.397 Y21.304 E36.36887
G1 X20.067 Y21.35 E36.38882
G1 X8.767 Y21.35 E37.06533
G1 X8.46 Y21.31 E37.08387
G1 X8.174 Y21.193 E37.10237
G1 X7.927 Y21.007 E37.12088
G1 X7.736 Y20.764 E37.13938
G1 X7.613 Y20.48 E37.15791
G1 X7.567 Y20.15 E37.17786
G1 X7.567 Y-20.15 E39.59055
G0 F3600 X8.047 Y-20.15
G1 F900 X8.087 Y-20.386 E39.60488
G1 X8.202 Y-20.596 E39.61921
G1 X8.379 Y-20.756 E39.6335
G1 X8.599 Y-20.85 E39.64782
G1 X8.767 Y-20.87 E39.65795
G1 X20.067 Y-20.87 E40.33446
G1 X20.303 Y-20.83 E40.34879
G1 X20.513 Y-20.715 E40.36313
G1 X20.673 Y-20.538 E40.37741
G1 X20.767 Y-20.318 E40.39173
G1 X20.787 Y-20.15 E40.40186
G1 X20.787 Y20.15 E42.81455
G1 X20.747 Y20.386 E42.82888
G1 X20.632 Y20.596 E42.84322
G1 X20.455 Y20.756 E42.8575
G1 X20.235 Y20.85 E42.87182
G1 X20.067 Y20.87 E42.88195
G1 X8.767 Y20.87 E43.55846
G1 X8.531 Y20.83 E43.57279
G1 X8.321 Y20.715 E43.58713
G1 X8.161 Y20.538 E43.60141
G1 X8.067 Y20.318 E43.61574
G1 X8.047 Y20.15 E43.62586
G1 X8.047 Y-20.15 E46.03855
G0 F3600 X8.527 Y-20.15
G1 F900 X8.566 Y-20.281 E46.04674
G1 X8.671 Y-20.37 E46.05498
G1 X8.767 Y-20.39 E46.06085
G1 X20.067 Y-20.39 E46.73736
G1 X20.198 Y-20.351 E46.74554
G1 X20.287 Y-20.246 E46.75378
G1 X20.307 Y-20.15 E46.75965
G1 X20.307 Y20.15 E49.17234
G1 X20.268 Y20.281 E49.18053
G1 X20.163 Y20.37 E49.18877
G1 X20.067 Y20.39 E49.19464
G1 X8.767 Y20.39 E49.87115
G1 X8.636 Y20.351 E49.87933
G1 X8.547 Y20.246 E49.88757
G1 X8.527 Y20.15 E49.89344
G1 X8.527 Y-20.15 E52.30613
G1 F750 E45.80613
;MESH:Print Fan Mount.obj
G0 F3600 X10.327 Y-18.59
G0 X9.457 Y19.49
G1 F750 E52.30613
G0 F3600 X9.157 Y19.76
;TYPE:WALL-OUTER
G1 F900 X9.157 Y-19.76 E54.67213
G1 X19.677 Y-19.76 E55.30194
G1 X19.677 Y19.76 E57.66793
G1 X9.157 Y19.76 E58.29775
G0 F3600 X9.157 Y19.56
G0 X9.637 Y19.28
;TYPE:WALL-INNER
G1 F900 X9.637 Y-19.28 E60.60627
G1 X19.197 Y-19.28 E61.17861
G1 X19.197 Y19.28 E63.48713
G1 X9.637 Y19.28 E64.05947
G0 F3600 X10.117 Y18.8
G1 F900 X10.117 Y-18.8 E66.31051
G1 X18.717 Y-18.8 E66.82538
G1 X18.717 Y18.8 E69.07643
G1 X10.117 Y18.8 E69.59129
G0 F3600 X10.559 Y18.58
;TYPE:SKIN
G1 F900 X10.56 Y-18.58 E71.816
G0 F3600 X11.04 Y-18.58
G1 F900 X11.039 Y18.58 E74.0407
G0 F3600 X11.519 Y18.58
G1 F900 X11.52 Y-18.58 E76.2654
G0 F3600 X12 Y-18.58
G1 F900 X11.999 Y18.58 E78.49011
G0 F3600 X12.479 Y18.58
G1 F900 X12.48 Y-18.58 E80.71481
G0 F3600 X12.96 Y-18.58
G1 F900 X12.959 Y18.58 E82.93952
G0 F3600 X13.439 Y18.58
G1 F900 X13.44 Y-18.58 E85.16422
G0 F3600 X13.92 Y-18.58
G1 F900 X13.919 Y18.58 E87.38892
G0 F3600 X14.399 Y18.58
G1 F900 X14.4 Y-18.58 E89.61363
G0 F3600 X14.88 Y-18.579
G1 F900 X14.879 Y18.58 E91.83827
G0 F3600 X15.359 Y18.58
G1 F900 X15.36 Y-18.579 E94.06292
G0 F3600 X15.84 Y-18.579
G1 F900 X15.839 Y18.58 E96.28756
G0 F3600 X16.319 Y18.58
G1 F900 X16.32 Y-18.579 E98.5122
G0 F3600 X16.8 Y-18.579
G1 F900 X16.799 Y18.58 E100.73685
G0 F3600 X17.279 Y18.58
G1 F900 X17.28 Y-18.579 E102.96149
G0 F3600 X17.76 Y-18.579
G1 F900 X17.759 Y18.58 E105.18614
G0 F3600 X18.239 Y18.58
G1 F900 X18.24 Y-18.579 E107.41078
G1 X18.24 Y-18.679
G0 F3600 X18.24 Y-19.07
G1 F750 E100.91078
;MESH:Body1.3mf
G0 F3600 X10.299 Y-18.618
G0 X9.377 Y19.49
G0 X-12.771 Y19.49
G1 F750 E107.41078
G0 F3600 X-12.551 Y19.76
;TYPE:WALL-OUTER
G1 F900 X-23.071 Y19.76 E108.04059
G1 X-23.071 Y-19.76 E110.40659
G1 X-12.551 Y-19.76 E111.0364
G1 X-12.551 Y19.76 E113.40239
G0 F3600 X-12.751 Y19.76
G0 X-13.031 Y19.28
;TYPE:WALL-INNER
G1 F900 X-22.591 Y19.28 E113.97473
G1 X-22.591 Y-19.28 E116.28325
G1 X-13.031 Y-19.28 E116.85559
G1 X-13.031 Y19.28 E119.16411
G0 F3600 X-13.511 Y18.8
G1 F900 X-22.111 Y18.8 E119.67898
G1 X-22.111 Y-18.8 E121.93003
G1 X-13.511 Y-18.8 E122.44489
G1 X-13.511 Y18.8 E124.69594
G0 F3600 X-21.6 Y18.69
G0 X-21.6 Y18.579
;TYPE:SKIN
G1 F900 X-21.599 Y-18.58 E126.92058
G0 F3600 X-21.119 Y-18.58
G1 F900 X-21.12 Y18.579 E129.14523
G0 F3600 X-20.64 Y18.579
G1 F900 X-20.639 Y-18.58 E131.36987
G0 F3600 X-20.159 Y-18.58
G1 F900 X-20.16 Y18.579 E133.59452
G0 F3600 X-19.68 Y18.579
G1 F900 X-19.679 Y-18.58 E135.81916
G0 F3600 X-19.199 Y-18.58
G1 F900 X-19.2 Y18.579 E138.0438
G0 F3600 X-18.72 Y18.579
G1 F900 X-18.719 Y-18.58 E140.26845
G0 F3600 X-18.239 Y-18.58
G1 F900 X-18.24 Y18.579 E142.49309
G0 F3600 X-17.76 Y18.579
G1 F900 X-17.759 Y-18.58 E144.71774
G0 F3600 X-17.279 Y-18.58
G1 F900 X-17.28 Y18.579 E146.94238
G0 F3600 X-16.8 Y18.579
G1 F900 X-16.799 Y-18.58 E149.16702
G0 F3600 X-16.319 Y-18.58
G1 F900 X-16.32 Y18.579 E151.39167
G0 F3600 X-15.84 Y18.579
G1 F900 X-15.839 Y-18.58 E153.61631
G0 F3600 X-15.359 Y-18.58
G1 F900 X-15.36 Y18.579 E155.84096
G0 F3600 X-14.88 Y18.579
G1 F900 X-14.879 Y-18.58 E158.0656
G0 F3600 X-14.399 Y-18.58
G1 F900 X-14.4 Y18.58 E160.2903
G0 F3600 X-13.92 Y18.58
G1 F900 X-13.919 Y-18.58 E162.51501
G1 X-13.919 Y-18.68
G0 F3600 X-13.919 Y-19.07
G1 F750 E156.01501
;MESH:NONMESH
G0 F600 X-13.919 Y-19.07 Z0.6
G0 F3600 X-12.771 Y19.49
G0 X9.377 Y19.49
G1 F750 E162.51501
G0 F3600 X9.117 Y19.8
;TIME_ELAPSED:192.842857
;LAYER:1
M106 S255
;TYPE:WALL-OUTER
;MESH:Print Fan Mount.obj
G1 F900 X9.117 Y-19.8 E164.49066
G1 X19.717 Y-19.8 E165.0195
G1 X19.717 Y19.8 E166.99515
G1 X9.117 Y19.8 E167.52398
G0 F5400 X9.117 Y19.6
G0 X9.517 Y19.4
;TYPE:WALL-INNER
G1 F1350 X9.517 Y-19.4 E169.45972
G1 X19.317 Y-19.4 E169.94865
G1 X19.317 Y19.4 E171.88439
G1 X9.517 Y19.4 E172.37331
G0 F5400 X9.917 Y19
G1 F1350 X9.917 Y-19 E174.26914
G1 X18.917 Y-19 E174.71815
G1 X18.917 Y19 E176.61398
G1 X9.917 Y19 E177.06299
G0 F5400 X10.317 Y18.6
G1 F1350 X10.317 Y-18.6 E178.91891
G1 X18.517 Y-18.6 E179.32801
G1 X18.517 Y18.6 E181.18392
G1 X10.317 Y18.6 E181.59302
G0 F5400 X10.799 Y18.42
;TYPE:SKIN
G1 F900 X10.8 Y-18.42 E183.43098
G0 F5400 X11.2 Y-18.42
G1 F900 X11.199 Y18.42 E185.26893
G0 F5400 X11.599 Y18.42
G1 F900 X11.6 Y-18.42 E187.10689
G0 F5400 X12 Y-18.42
G1 F900 X11.999 Y18.42 E188.94484
G0 F5400 X12.399 Y18.42
G1 F900 X12.4 Y-18.42 E190.7828
G0 F5400 X12.8 Y-18.42
G1 F900 X12.799 Y18.42 E192.62075
G0 F5400 X13.199 Y18.42
G1 F900 X13.2 Y-18.42 E194.45871
G0 F5400 X13.6 Y-18.42
G1 F900 X13.599 Y18.42 E196.29666
G0 F5400 X13.999 Y18.42
G1 F900 X14 Y-18.42 E198.13462
G0 F5400 X14.4 Y-18.42
G1 F900 X14.399 Y18.42 E199.97257
G0 F5400 X14.799 Y18.42
G1 F900 X14.8 Y-18.42 E201.81053
G0 F5400 X15.2 Y-18.419
G1 F900 X15.199 Y18.42 E203.64843
G0 F5400 X15.599 Y18.42
G1 F900 X15.6 Y-18.419 E205.48634
G0 F5400 X16 Y-18.419
G1 F900 X15.999 Y18.42 E207.32424
G0 F5400 X16.399 Y18.42
G1 F900 X16.4 Y-18.419 E209.16215
G0 F5400 X16.8 Y-18.419
G1 F900 X16.799 Y18.42 E211.00005
G0 F5400 X17.199 Y18.42
G1 F900 X17.2 Y-18.419 E212.83796
G0 F5400 X17.6 Y-18.419
G1 F900 X17.599 Y18.42 E214.67586
G0 F5400 X17.999 Y18.42
G1 F900 X18 Y-18.419 E216.51377
G1 X18 Y-18.519
G0 F5400 X18 Y-18.79
G1 F750 E210.01377
;MESH:Body1.3mf
G0 F5400 X10.499 Y-18.418
G0 X9.337 Y19.53
G0 X-12.731 Y19.53
G1 F750 E216.51377
G0 F5400 X-12.511 Y19.8
;TYPE:WALL-OUTER
G1 F900 X-23.111 Y19.8 E217.04261
G1 X-23.111 Y-19.8 E219.01826
G1 X-12.511 Y-19.8 E219.54709
G1 X-12.511 Y19.8 E221.52275
G0 F5400 X-12.711 Y19.8
G0 X-12.911 Y19.4
;TYPE:WALL-INNER
G1 F1350 X-22.711 Y19.4 E222.01167
G1 X-22.711 Y-19.4 E223.94741
G1 X-12.911 Y-19.4 E224.43633
G1 X-12.911 Y19.4 E226.37207
G0 F5400 X-13.311 Y19
G1 F1350 X-22.311 Y19 E226.82108
G1 X-22.311 Y-19 E228.71691
G1 X-13.311 Y-19 E229.16592
G1 X-13.311 Y19 E231.06175
G0 F5400 X-13.711 Y18.6
G1 F1350 X-21.911 Y18.6 E231.47085
G1 X-21.911 Y-18.6 E233.32677
G1 X-13.711 Y-18.6 E233.73587
G1 X-13.711 Y18.6 E235.59178
G0 F5400 X-21.6 Y18.49
G0 X-21.6 Y18.419
;TYPE:SKIN
G1 F900 X-21.599 Y-18.42 E237.42969
G0 F5400 X-21.199 Y-18.42
G1 F900 X-21.2 Y18.419 E239.26759
G0 F5400 X-20.8 Y18.419
G1 F900 X-20.799 Y-18.42 E241.1055
G0 F5400 X-20.399 Y-18.42
G1 F900 X-20.4 Y18.419 E242.9434
G0 F5400 X-20 Y18.419
G1 F900 X-19.999 Y-18.42 E244.78131
G0 F5400 X-19.599 Y-18.42
G1 F900 X-19.6 Y18.419 E246.61921
G0 F5400 X-19.2 Y18.419
G1 F900 X-19.199 Y-18.42 E248.45712
G0 F5400 X-18.799 Y-18.42
G1 F900 X-18.8 Y18.419 E250.29502
G0 F5400 X-18.4 Y18.419
G1 F900 X-18.399 Y-18.42 E252.13293
G0 F5400 X-17.999 Y-18.42
G1 F900 X-18 Y18.419 E253.97083
G0 F5400 X-17.6 Y18.419
G1 F900 X-17.599 Y-18.42 E255.80874
G0 F5400 X-17.199 Y-18.42
G1 F900 X-17.2 Y18.419 E257.64664
G0 F5400 X-16.8 Y18.419
G1 F900 X-16.799 Y-18.42 E259.48455
G0 F5400 X-16.399 Y-18.42
G1 F900 X-16.4 Y18.419 E261.32245
G0 F5400 X-16 Y18.419
G1 F900 X-15.999 Y-18.42 E263.16036
G0 F5400 X-15.599 Y-18.42
G1 F900 X-15.6 Y18.419 E264.99827
G0 F5400 X-15.2 Y18.419
G1 F900 X-15.199 Y-18.42 E266.83617
G0 F5400 X-14.799 Y-18.42
G1 F900 X-14.8 Y18.42 E268.67413
G0 F5400 X-14.4 Y18.42
G1 F900 X-14.399 Y-18.42 E270.51208
G0 F5400 X-13.999 Y-18.42
G1 F900 X-14 Y18.42 E272.35004
G1 X-14 Y18.52
G0 F5400 X-14 Y18.79
G1 F750 E265.85004
;MESH:NONMESH
G0 F600 X-14 Y18.79 Z0.9
G0 F5400 X-12.731 Y19.53
G0 X9.337 Y19.53
G1 F750 E272.35004
G0 F5400 X9.117 Y19.8
;TIME_ELAPSED:331.324096
;LAYER:2
;TYPE:WALL-OUTER
;MESH:Print Fan Mount.obj
G1 F900 X9.117 Y-19.8 E274.32569
G1 X19.717 Y-19.8 E274.85452
G1 X19.717 Y-6.588 E275.51367
G1 X17.517 Y-6.587 E275.62343
G1 X17.517 Y-4.782 E275.71348
G1 X19.717 Y-4.782 E275.82324
G1 X19.717 Y4.472 E276.28493
G1 X17.517 Y4.472 E276.39468
G1 X17.517 Y6.159 E276.47885
G1 X19.717 Y6.159 E276.58861
G1 X19.717 Y19.8 E277.26916
G1 X9.117 Y19.8 E277.798
G0 F7200 X9.117 Y19.6
G0 X9.517 Y19.4
;TYPE:WALL-INNER
G1 F1800 X9.517 Y-19.4 E279.73374
G1 X19.317 Y-19.4 E280.22266
G1 X19.317 Y-6.988 E280.8419
G1 X17.117 Y-6.987 E280.95166
G1 X17.117 Y-4.382 E281.08162
G1 X19.317 Y-4.382 E281.19138
G1 X19.317 Y4.072 E281.61315
G1 X17.117 Y4.072 E281.72291
G1 X17.117 Y6.559 E281.84698
G1 X19.317 Y6.559 E281.95674
G1 X19.317 Y19.4 E282.59738
G1 X9.517 Y19.4 E283.08631
G0 F7200 X9.917 Y19
G1 F1800 X9.917 Y-19 E284.98214
G1 X18.917 Y-19 E285.43115
G1 X18.917 Y-7.388 E286.01047
G1 X16.717 Y-7.387 E286.12023
G1 X16.717 Y-3.982 E286.29011
G1 X18.917 Y-3.982 E286.39986
G1 X18.917 Y3.672 E286.78172
G1 X16.717 Y3.672 E286.89148
G1 X16.717 Y6.959 E287.05547
G1 X18.917 Y6.959 E287.16523
G1 X18.917 Y19 E287.76596
G1 X9.917 Y19 E288.21497
G0 F7200 X10.399 Y18.82
;TYPE:SKIN
G1 F900 X10.4 Y-18.82 E290.09284
G0 F7200 X10.8 Y-18.82
G1 F900 X10.799 Y18.82 E291.9707
G0 F7200 X11.199 Y18.82
G1 F900 X11.2 Y-18.82 E293.84857
G0 F7200 X11.6 Y-18.82
G1 F900 X11.599 Y18.82 E295.72644
G0 F7200 X11.999 Y18.82
G1 F900 X12 Y-18.82 E297.60431
G0 F7200 X12.4 Y-18.82
G1 F900 X12.399 Y18.82 E299.48217
G0 F7200 X12.799 Y18.82
G1 F900 X12.8 Y-18.82 E301.36004
G0 F7200 X13.2 Y-18.82
G1 F900 X13.199 Y18.82 E303.23791
G0 F7200 X13.599 Y18.82
G1 F900 X13.6 Y-18.82 E305.11578
G0 F7200 X14 Y-18.82
G1 F900 X13.999 Y18.82 E306.99364
G0 F7200 X14.399 Y18.82
G1 F900 X14.4 Y-18.82 E308.87151
