; generated by Slic3r 1.2.9 on 2022-04-13 at 17:07:27

; external perimeters extrusion width = 0.40mm
; perimeters extrusion width = 0.67mm
; infill extrusion width = 0.67mm
; solid infill extrusion width = 0.67mm
; top infill extrusion width = 0.67mm

G28 ; home all axes
M104 S190
M190 S70 ; set bed temperature
G1 Z220
G28
G1 X0.000 Y70.000 Z30.300 F8000.000
M109 S190
G1 Z0.2 F2000
G1 X40.000 Y50.000 E10.000
G1 X0 Y0 Z15

G21 ; set units to millimeters
G90 ; use absolute coordinates
M82 ; use absolute distances for extrusion
G92 E0
G1 Z0.300 F4800.000
G1 E-2.00000 F2400.00000
G92 E0
G1 X0.000 Y31.071 F4800.000
G1 E0.80000 F2400.00000
G1 X-17.000 Y31.071 E1.93569 F1080.000
G1 X-18.240 Y31.002 E2.01864
G1 X-18.907 Y30.926 E2.06352
G1 X-21.324 Y30.375 E2.22913
G1 X-21.958 Y30.153 E2.27401
G1 X-24.192 Y29.077 E2.43963
G1 X-24.761 Y28.720 E2.48451
G1 X-26.699 Y27.174 E2.65014
G1 X-27.174 Y26.699 E2.69502
G1 X-28.720 Y24.761 E2.86064
G1 X-29.077 Y24.192 E2.90552
G1 X-30.153 Y21.958 E3.07114
G1 X-30.375 Y21.324 E3.11602
G1 X-30.926 Y18.907 E3.28164
G1 X-31.002 Y18.240 E3.32652
G1 X-31.071 Y17.000 E3.40946
G1 X-31.071 Y-17.000 E5.68084
G1 X-31.002 Y-18.239 E5.76377
G1 X-30.926 Y-18.907 E5.80867
G1 X-30.375 Y-21.324 E5.97429
G1 X-30.153 Y-21.959 E6.01919
G1 X-29.077 Y-24.192 E6.18479
G1 X-28.720 Y-24.761 E6.22967
G1 X-27.174 Y-26.699 E6.39529
G1 X-26.699 Y-27.174 E6.44017
G1 X-24.761 Y-28.720 E6.60579
G1 X-24.192 Y-29.077 E6.65068
G1 X-21.958 Y-30.153 E6.81629
G1 X-21.324 Y-30.375 E6.86120
G1 X-18.907 Y-30.926 E7.02678
G1 X-18.240 Y-31.002 E7.07167
G1 X-17.000 Y-31.071 E7.15461
G1 X17.000 Y-31.071 E9.42600
G1 X18.240 Y-31.002 E9.50894
G1 X18.907 Y-30.926 E9.55382 F1080.000
G1 X21.324 Y-30.375 E9.71944
G1 X21.958 Y-30.153 E9.76433
G1 X24.192 Y-29.077 E9.92994
G1 X24.761 Y-28.720 E9.97482
G1 X26.699 Y-27.174 E10.14044
G1 X27.174 Y-26.699 E10.18532
G1 X28.720 Y-24.761 E10.35094
G1 X29.077 Y-24.192 E10.39582
G1 X30.153 Y-21.958 E10.56145
G1 X30.375 Y-21.324 E10.60633
G1 X30.926 Y-18.907 E10.77194
G1 X31.002 Y-18.240 E10.81682
G1 X31.071 Y-17.000 E10.89977
G1 X31.071 Y17.000 E13.17115
G1 X31.002 Y18.240 E13.25410
G1 X30.926 Y18.907 E13.29897
G1 X30.375 Y21.324 E13.46459
G1 X30.153 Y21.958 E13.50947
G1 X29.077 Y24.192 E13.67509
G1 X28.720 Y24.761 E13.71997
G1 X27.174 Y26.699 E13.88559
G1 X26.699 Y27.174 E13.93047
G1 X24.761 Y28.720 E14.09609
G1 X24.235 Y29.050 E14.13761
G1 X21.958 Y30.153 E14.30658
G1 X21.324 Y30.375 E14.35146
G1 X18.907 Y30.926 E14.51707
G1 X18.240 Y31.002 E14.56195
G1 X17.000 Y31.071 E14.64490
G1 X0.060 Y31.071 E15.77658
G1 X0.000 Y30.536 F4800.000
G1 X-17.000 Y30.536 E16.91227 F1080.000
G1 X-18.180 Y30.469 E16.99121
G1 X-18.847 Y30.394 E17.03608
G1 X-21.147 Y29.869 E17.19369
G1 X-21.781 Y29.647 E17.23857
G1 X-23.907 Y28.624 E17.39618
G1 X-24.476 Y28.266 E17.44106
G1 X-26.320 Y26.795 E17.59867
G1 X-26.795 Y26.320 E17.64355
G1 X-28.266 Y24.476 E17.80115
G1 X-28.624 Y23.907 E17.84603
G1 X-29.647 Y21.781 E18.00365
G1 X-29.869 Y21.147 E18.04852
G1 X-30.394 Y18.847 E18.20613
G1 X-30.469 Y18.180 E18.25101
G1 X-30.536 Y17.000 E18.32994
G1 X-30.536 Y-17.000 E20.60132
G1 X-30.469 Y-18.179 E20.68024
G1 X-30.394 Y-18.847 E20.72513
G1 X-29.869 Y-21.147 E20.88274
G1 X-29.647 Y-21.782 E20.92764
G1 X-28.624 Y-23.907 E21.08523
G1 X-28.266 Y-24.476 E21.13011
G1 X-26.795 Y-26.320 E21.28772
G1 X-26.320 Y-26.795 E21.33259
G1 X-24.476 Y-28.266 E21.49021
G1 X-23.907 Y-28.624 E21.53510
G1 X-21.781 Y-29.647 E21.69270
G1 X-21.147 Y-29.869 E21.73760
G1 X-18.847 Y-30.394 E21.89517
G1 X-18.180 Y-30.469 E21.94006
G1 X-17.000 Y-30.536 E22.01899
G1 X17.000 Y-30.536 E24.29037
G1 X18.180 Y-30.469 E24.36930
G1 X18.847 Y-30.394 E24.41418 F1080.000
G1 X21.147 Y-29.869 E24.57179
G1 X21.781 Y-29.647 E24.61668
G1 X23.907 Y-28.624 E24.77428
G1 X24.476 Y-28.266 E24.81916
G1 X26.320 Y-26.795 E24.97677
G1 X26.795 Y-26.320 E25.02165
G1 X28.266 Y-24.476 E25.17926
G1 X28.624 Y-23.907 E25.22414
G1 X29.647 Y-21.781 E25.38175
G1 X29.869 Y-21.147 E25.42663
G1 X30.394 Y-18.847 E25.58423
G1 X30.469 Y-18.180 E25.62911
G1 X30.536 Y-17.000 E25.70804
G1 X30.536 Y17.000 E27.97943
G1 X30.469 Y18.180 E28.05836
G1 X30.394 Y18.847 E28.10324
G1 X29.869 Y21.147 E28.26084
G1 X29.647 Y21.781 E28.30572
G1 X28.624 Y23.907 E28.46333
G1 X28.266 Y24.476 E28.50821
G1 X26.795 Y26.320 E28.66582
G1 X26.320 Y26.795 E28.71070
G1 X24.476 Y28.266 E28.86831
G1 X23.950 Y28.597 E28.90982
G1 X21.781 Y29.647 E29.07078
G1 X21.147 Y29.869 E29.11566
G1 X18.847 Y30.394 E29.27326
G1 X18.180 Y30.469 E29.31814
G1 X17.000 Y30.536 E29.39707
G1 X0.060 Y30.536 E30.52876
G1 X0.000 Y21.339 F4800.000
G1 X-17.038 Y21.339 E31.66696 F1080.000
G1 X-17.892 Y21.247 E31.72438
G1 X-18.039 Y21.214 E31.73443
G1 X-18.815 Y20.942 E31.78936
G1 X-18.950 Y20.877 E31.79940
G1 X-19.647 Y20.439 E31.85433
G1 X-19.764 Y20.346 E31.86438
G1 X-20.346 Y19.764 E31.91930
G1 X-20.439 Y19.647 E31.92935
G1 X-20.877 Y18.950 E31.98428
G1 X-20.942 Y18.815 E31.99433
G1 X-21.214 Y18.039 E32.04925
G1 X-21.247 Y17.892 E32.05930
G1 X-21.339 Y17.038 E32.11672
G1 X-21.339 Y-17.038 E34.39313
G1 X-21.247 Y-17.892 E34.45055
G1 X-21.214 Y-18.039 E34.46060
G1 X-20.942 Y-18.815 E34.51553
G1 X-20.877 Y-18.950 E34.52558
G1 X-20.439 Y-19.647 E34.58050
G1 X-20.346 Y-19.764 E34.59055
G1 X-19.764 Y-20.346 E34.64547
G1 X-19.647 Y-20.439 E34.65552
G1 X-18.950 Y-20.877 E34.71045
G1 X-18.815 Y-20.942 E34.72050
G1 X-18.039 Y-21.214 E34.77542
G1 X-17.892 Y-21.247 E34.78547
G1 X-17.113 Y-21.335 E34.83788
G1 X17.113 Y-21.335 E37.12431
G1 X17.892 Y-21.247 E37.17672 F1080.000
G1 X18.039 Y-21.214 E37.18677
G1 X18.815 Y-20.942 E37.24170
G1 X18.950 Y-20.877 E37.25174
G1 X19.647 Y-20.439 E37.30667
G1 X19.764 Y-20.346 E37.31672
G1 X20.346 Y-19.764 E37.37164
G1 X20.439 Y-19.647 E37.38169
G1 X20.877 Y-18.950 E37.43662
G1 X20.942 Y-18.815 E37.44667
G1 X21.214 Y-18.039 E37.50159
G1 X21.247 Y-17.892 E37.51164
G1 X21.335 Y-17.113 E37.56405
G1 X21.339 Y17.038 E39.84547
G1 X21.247 Y17.892 E39.90289
G1 X21.214 Y18.039 E39.91294
G1 X20.942 Y18.815 E39.96787
G1 X20.877 Y18.950 E39.97791
G1 X20.439 Y19.647 E40.03284
G1 X20.346 Y19.764 E40.04289
G1 X19.764 Y20.346 E40.09781
G1 X19.647 Y20.439 E40.10786
G1 X18.950 Y20.877 E40.16279
G1 X18.815 Y20.942 E40.17284
G1 X18.039 Y21.214 E40.22776
G1 X17.892 Y21.247 E40.23781
G1 X17.038 Y21.339 E40.29523
G1 X0.060 Y21.339 E41.42943
G1 X0.000 Y20.803 F4800.000
G1 X-17.068 Y20.801 E42.56963 F1080.000
G1 X-17.890 Y20.698 E42.62503
G1 X-18.610 Y20.446 E42.67593
G1 X-19.336 Y20.002 E42.73284
G1 X-19.946 Y19.407 E42.78974
G1 X-20.407 Y18.691 E42.84664
G1 X-20.698 Y17.890 E42.90354
G1 X-20.803 Y17.023 E42.96194
G1 X-20.803 Y-17.023 E45.23634
G1 X-20.718 Y-17.802 E45.28874
G1 X-20.446 Y-18.610 E45.34565
G1 X-20.002 Y-19.336 E45.40255
G1 X-19.336 Y-20.002 E45.46544
G1 X-18.610 Y-20.446 E45.52234
G1 X-17.890 Y-20.698 E45.57325
G1 X-17.068 Y-20.801 E45.62864
G1 X17.023 Y-20.803 E47.90604
G1 X17.802 Y-20.718 E47.95845 F1080.000
G1 X18.610 Y-20.446 E48.01535
G1 X19.407 Y-19.946 E48.07824
G1 X20.002 Y-19.336 E48.13514
G1 X20.407 Y-18.691 E48.18605
G1 X20.698 Y-17.890 E48.24295
G1 X20.801 Y-17.068 E48.29835
G1 X20.803 Y17.023 E50.57575
G1 X20.718 Y17.802 E50.62816
G1 X20.446 Y18.610 E50.68506
G1 X20.002 Y19.336 E50.74196
G1 X19.336 Y20.002 E50.80485
G1 X18.610 Y20.446 E50.86175
G1 X17.890 Y20.698 E50.91266
G1 X17.068 Y20.801 E50.96805
G1 X0.060 Y20.803 E52.10425
G1 X0.000 Y20.268 F4800.000
G1 X-17.023 Y20.267 E53.24144 F1080.000
G1 X-17.742 Y20.183 E53.28983
G1 X-18.404 Y19.951 E53.33672
G1 X-19.026 Y19.564 E53.38560
G1 X-19.546 Y19.049 E53.43449
G1 X-19.938 Y18.431 E53.48337
G1 X-20.183 Y17.742 E53.53226
G1 X-20.268 Y17.008 E53.58164
G1 X-20.268 Y-17.008 E55.85403
G1 X-20.189 Y-17.712 E55.90142
G1 X-19.951 Y-18.404 E55.95031
G1 X-19.546 Y-19.049 E56.00119
G1 X-19.026 Y-19.564 E56.05007
G1 X-18.431 Y-19.938 E56.09696
G1 X-17.742 Y-20.183 E56.14585
G1 X-17.008 Y-20.268 E56.19523
G1 X17.023 Y-20.267 E58.46862
G1 X17.742 Y-20.183 E58.51701 F1080.000
G1 X18.404 Y-19.951 E58.56390
G1 X19.049 Y-19.546 E58.61478
G1 X19.545 Y-19.049 E58.66167
G1 X19.938 Y-18.431 E58.71055
G1 X20.183 Y-17.742 E58.75944
G1 X20.267 Y-17.023 E58.80782
G1 X20.268 Y17.008 E61.08121
G1 X20.189 Y17.712 E61.12860
G1 X19.951 Y18.404 E61.17749
G1 X19.564 Y19.026 E61.22637
G1 X19.026 Y19.564 E61.27725
G1 X18.404 Y19.951 E61.32614
G1 X17.742 Y20.183 E61.37303
G1 X17.023 Y20.267 E61.42141
G1 X0.060 Y20.268 E62.55460
G1 E60.55460 F2400.00000
G92 E0
G1 X-19.700 Y0.268 F4800.000
G1 E0.80000 F2400.00000
G1 X-19.700 Y-16.983 E1.95246 F216.000
G1 X-19.630 Y-17.600 E1.99395
G1 X-19.447 Y-18.125 E2.03111
G1 X-19.108 Y-18.684 E2.07476
G1 X-18.682 Y-19.109 E2.11496
G1 X-18.171 Y-19.431 E2.15533
G1 X-17.600 Y-19.630 E2.19569
G1 X-16.983 Y-19.700 E2.23718
G1 X17.033 Y-19.694 E4.50966
G1 X17.600 Y-19.630 E4.54779 F216.000
G1 X18.171 Y-19.431 E4.58816
G1 X18.682 Y-19.109 E4.62852
G1 X19.109 Y-18.682 E4.66888
G1 X19.431 Y-18.171 E4.70925
G1 X19.630 Y-17.600 E4.74961
G1 X19.700 Y-16.983 E4.79111
G1 X19.700 Y16.983 E7.06024
G1 X19.630 Y17.600 E7.10173
G1 X19.431 Y18.171 E7.14210
G1 X19.109 Y18.682 E7.18246
G1 X18.682 Y19.109 E7.22282
G1 X18.171 Y19.431 E7.26319
G1 X17.600 Y19.630 E7.30355
G1 X16.983 Y19.700 E7.34505
G1 X-16.983 Y19.700 E9.61418
G1 X-17.600 Y19.630 E9.65567
G1 X-18.171 Y19.431 E9.69604
G1 X-18.682 Y19.109 E9.73640
G1 X-19.109 Y18.682 E9.77676
G1 X-19.431 Y18.171 E9.81713
G1 X-19.630 Y17.600 E9.85749
G1 X-19.700 Y16.983 E9.89899
G1 X-19.700 Y0.328 E11.01165
G1 X-19.354 Y0.068 F4800.000
G1 E9.01165 F2400.00000
G92 E0
G1 X13.437 Y-15.051 F4800.000
G1 E0.80000 F2400.00000
G1 X13.325 Y-15.800 E0.85057 F288.000
G1 X13.423 Y-16.454 E0.89478
G1 X13.437 Y-16.549 E0.90114
G1 X13.766 Y-17.231 E0.95171
G1 X14.281 Y-17.785 E1.00228
G1 X14.936 Y-18.164 E1.05285
G1 X15.581 Y-18.311 E1.09706
G1 X15.674 Y-18.332 E1.10342 F288.000
G1 X16.429 Y-18.276 E1.15398
G1 X17.134 Y-17.999 E1.20455
G1 X17.725 Y-17.527 E1.25512
G1 X18.152 Y-16.902 E1.30569
G1 X18.375 Y-16.178 E1.35626
G1 X18.375 Y-15.422 E1.40683
G1 X18.152 Y-14.698 E1.45740
G1 X17.725 Y-14.073 E1.50797
G1 X17.134 Y-13.601 E1.55854
G1 X16.429 Y-13.324 E1.60911
G1 X15.674 Y-13.268 E1.65968
G1 X14.936 Y-13.436 E1.71025
G1 X14.281 Y-13.815 E1.76082
G1 X13.766 Y-14.369 E1.81139
G1 X13.463 Y-14.997 E1.85795
G1 X13.052 Y-15.160 F4800.000
G1 X12.889 Y-15.096 F4800.000
G1 X11.074 Y-16.458 E2.00956 F288.000
G1 X9.323 Y-17.509 E2.14600
G1 X7.473 Y-18.375 E2.28244
G1 X5.985 Y-18.893 E2.38768
G1 X6.031 Y-19.161 E2.40582
G1 X15.607 Y-19.159 E3.04556
G1 X15.639 Y-18.874 E3.06475
G1 X14.738 Y-18.668 E3.12645
G1 X13.943 Y-18.209 E3.18781
G1 X13.318 Y-17.536 E3.24916
G1 X12.920 Y-16.708 E3.31052
G1 X12.783 Y-15.800 E3.37187
G1 X12.880 Y-15.155 E3.41544
G1 X12.302 Y-16.206 F4800.000
G1 X11.373 Y-16.903 E3.49305 F288.000
G1 X9.575 Y-17.983 E3.63318
G1 X8.741 Y-18.373 E3.69465
G1 X8.797 Y-18.625 E3.71187
G1 X13.597 Y-18.624 E4.03251
G1 X12.871 Y-17.841 E4.10386
G1 X12.402 Y-16.868 E4.17601
G1 X12.311 Y-16.265 E4.21673
G1 X15.939 Y-18.850 F4800.000
G1 X15.951 Y-19.159 E4.23741 F288.000
G1 X17.003 Y-19.159 E4.30770
G1 X17.480 Y-19.105 E4.33979
G1 X17.937 Y-18.945 E4.37209
G1 X18.346 Y-18.688 E4.40439
G1 X18.688 Y-18.346 E4.43669
G1 X18.945 Y-17.937 E4.46899
G1 X19.105 Y-17.480 E4.50129
G1 X19.164 Y-16.953 E4.53674
G1 X19.164 Y-16.364 E4.57608
G1 X18.891 Y-16.323 E4.59456
G1 X18.640 Y-17.137 E4.65145
G1 X18.123 Y-17.896 E4.71281
G1 X17.404 Y-18.468 E4.77417
G1 X16.550 Y-18.804 E4.83552
G1 X15.999 Y-18.845 E4.87239
G1 E2.87239 F2400.00000
G92 E0
G1 X18.891 Y-15.277 F4800.000
G1 E0.80000 F2400.00000
G1 X19.164 Y-15.236 E0.81848 F288.000
G1 X19.164 Y-6.003 E1.43527
G1 X18.892 Y-5.961 E1.45366
G1 X18.562 Y-6.997 E1.52636
G1 X17.744 Y-8.869 E1.66280
G1 X16.738 Y-10.646 E1.79924
G1 X15.554 Y-12.311 E1.93568
G1 X15.327 Y-12.569 E1.95866
G1 X15.447 Y-12.770 E1.97428
G1 X15.634 Y-12.728 E1.98708
G1 X16.550 Y-12.796 E2.04844
G1 X17.404 Y-13.132 E2.10979
G1 X18.123 Y-13.704 E2.17115
G1 X18.640 Y-14.463 E2.23250
G1 X18.873 Y-15.220 E2.28539
G1 X18.629 Y-13.423 F4800.000
G1 X18.629 Y-8.819 E2.59293 F288.000
G1 X18.373 Y-8.766 E2.61038
G1 X18.223 Y-9.109 E2.63536
G1 X17.190 Y-10.934 E2.77549
G1 X16.264 Y-12.238 E2.88233
G1 X16.670 Y-12.268 E2.90956
G1 X17.675 Y-12.663 E2.98170
G1 X18.582 Y-13.386 E3.05917
G1 E1.05917 F2400.00000
G92 E0
G1 X18.892 Y5.961 F4800.000
G1 E0.80000 F2400.00000
G1 X19.164 Y6.003 E0.81838 F288.000
G1 X19.164 Y15.300 E1.43945
G1 X18.891 Y15.341 E1.45793
G1 X18.640 Y14.527 E1.51482
G1 X18.123 Y13.768 E1.57618
G1 X17.404 Y13.196 E1.63754
G1 X16.550 Y12.860 E1.69889
G1 X15.634 Y12.791 E1.76025
G1 X15.377 Y12.850 E1.77786
G1 X15.257 Y12.649 E1.79348
G1 X15.554 Y12.311 E1.82358
G1 X16.738 Y10.646 E1.96002
G1 X17.744 Y8.869 E2.09646
G1 X18.562 Y6.997 E2.23290
G1 X18.874 Y6.018 E2.30159
G1 X18.373 Y8.766 F4800.000
G1 X18.629 Y8.819 E2.31904 F288.000
G1 X18.629 Y13.487 E2.63085
G1 X17.675 Y12.727 E2.71232
G1 X16.670 Y12.332 E2.78446
G1 X16.220 Y12.298 E2.81459
G1 X17.190 Y10.934 E2.92640
G1 X18.223 Y9.109 E3.06653
G1 X18.349 Y8.821 E3.08750
G1 X18.891 Y16.387 F4800.000
G1 X19.164 Y16.428 E3.10598 F288.000
G1 X19.164 Y16.953 E3.14105
G1 X19.105 Y17.480 E3.17650
G1 X18.945 Y17.937 E3.20880
G1 X18.688 Y18.346 E3.24110
G1 X18.346 Y18.688 E3.27340
G1 X17.937 Y18.945 E3.30570
G1 X17.480 Y19.105 E3.33800
G1 X16.953 Y19.164 E3.37346
G1 X16.510 Y19.164 E3.40307
G1 X16.460 Y18.903 E3.42085
G1 X17.404 Y18.532 E3.48861
G1 X18.123 Y17.960 E3.54997
G1 X18.640 Y17.201 E3.61132
G1 X18.873 Y16.444 E3.66421
G1 X18.375 Y16.242 F4800.000
G1 X18.152 Y16.966 E3.71478 F288.000
G1 X17.725 Y17.591 E3.76535
G1 X17.134 Y18.063 E3.81592
G1 X16.429 Y18.340 E3.86649
G1 X15.674 Y18.396 E3.91706
G1 X14.936 Y18.228 E3.96763
G1 X14.281 Y17.849 E4.01820
G1 X13.766 Y17.294 E4.06877
G1 X13.437 Y16.612 E4.11934
G1 X13.325 Y15.864 E4.16990
G1 X13.437 Y15.115 E4.22047
G1 X13.766 Y14.433 E4.27104
G1 X14.281 Y13.879 E4.32161
G1 X14.936 Y13.500 E4.37218
G1 X15.581 Y13.353 E4.41639
G1 X15.674 Y13.332 E4.42275 F288.000
G1 X16.429 Y13.388 E4.47332
G1 X17.134 Y13.665 E4.52389
G1 X17.725 Y14.137 E4.57446
G1 X18.152 Y14.762 E4.62503
G1 X18.375 Y15.485 E4.67560
G1 X18.375 Y16.182 E4.72216
G1 X18.675 Y16.507 F4800.000
G1 E2.72216 F2400.00000
G92 E0
G1 X15.382 Y18.879 F4800.000
G1 E0.80000 F2400.00000
G1 X15.350 Y19.164 E0.81919 F288.000
G1 X6.019 Y19.164 E1.44252
G1 X5.974 Y18.897 E1.46067
G1 X7.473 Y18.375 E1.56668
G1 X9.323 Y17.509 E1.70312
G1 X11.074 Y16.458 E1.83956
G1 X12.900 Y15.088 E1.99209
G1 X12.783 Y15.864 E2.04453
G1 X12.920 Y16.772 E2.10589
G1 X13.318 Y17.600 E2.16724
G1 X13.943 Y18.273 E2.22860
G1 X14.738 Y18.732 E2.28995
G1 X15.324 Y18.866 E2.33007
G1 X13.543 Y18.629 F4800.000
G1 X8.788 Y18.629 E2.64768 F288.000
G1 X8.732 Y18.377 E2.66490
G1 X9.575 Y17.983 E2.72705
G1 X11.373 Y16.903 E2.86718
G1 X12.294 Y16.212 E2.94406
G1 X12.402 Y16.932 E2.99268
G1 X12.871 Y17.905 E3.06482
G1 X13.502 Y18.585 E3.12680
G1 E1.12680 F2400.00000
G92 E0
G1 X-5.992 Y18.888 F4800.000
G1 E0.80000 F2400.00000
G1 X-6.031 Y19.164 E0.81863 F288.000
G1 X-15.154 Y19.164 E1.42807
G1 X-15.204 Y18.903 E1.44586
G1 X-14.259 Y18.532 E1.51362
G1 X-13.541 Y17.960 E1.57497
G1 X-13.024 Y17.201 E1.63633
G1 X-12.753 Y16.323 E1.69768
G1 X-12.753 Y15.160 E1.77542
G1 X-11.906 Y15.866 E1.84911
G1 X-10.212 Y17.006 E1.98555
G1 X-8.409 Y17.966 E2.12199
G1 X-6.517 Y18.736 E2.25843
G1 X-6.050 Y18.872 E2.29096
G1 X-8.762 Y18.385 F4800.000
G1 X-8.822 Y18.629 E2.30773 F288.000
G1 X-13.176 Y18.629 E2.59859
G1 X-13.252 Y18.414 E2.61382
G1 X-13.144 Y18.328 E2.62299
G1 X-12.536 Y17.436 E2.69513
G1 X-12.192 Y16.320 E2.77316
G1 X-10.488 Y17.466 E2.91035
G1 X-8.815 Y18.357 E3.03700
G1 X-16.282 Y18.879 F4800.000
G1 X-16.314 Y19.164 E3.05619 F288.000
G1 X-16.953 Y19.164 E3.09889
G1 X-17.480 Y19.105 E3.13434
G1 X-17.937 Y18.945 E3.16664
G1 X-18.346 Y18.688 E3.19894
G1 X-18.688 Y18.346 E3.23124
G1 X-18.945 Y17.937 E3.26354
G1 X-19.105 Y17.480 E3.29584
G1 X-19.164 Y16.953 E3.33130
G1 X-19.164 Y15.979 E3.39635
G1 X-18.867 Y15.957 E3.41627
