; generated by Slic3r 1.2.9 on 2021-10-27 at 13:21:50

; external perimeters extrusion width = 0.40mm
; perimeters extrusion width = 0.67mm
; infill extrusion width = 0.67mm
; solid infill extrusion width = 0.67mm
; top infill extrusion width = 0.67mm

M190 S70 ; set bed temperature
M104 S185 ; set temperature
G28 ; home all axes
G1 Z5 F5000 ; lift nozzle

M109 S185 ; wait for temperature to be reached
G21 ; set units to millimeters
G90 ; use absolute coordinates
M82 ; use absolute distances for extrusion
G92 E0
M106 S255
G1 E-6.00000 F3000.00000
G92 E0
G1 Z0.500 F4800.000
G1 X-4.897 Y10.136 F4800.000
G1 Z0.300 F4800.000
G1 E5.00000 F3000.00000
G1 X-19.576 Y3.044 E6.08909 F1080.000
G1 X-21.500 Y1.677 E6.24676
G1 X-22.500 Y0.677 E6.34123
G1 X-23.871 Y-1.256 E6.49956
G1 X-24.571 Y-4.323 E6.70973
G1 X-24.571 Y-5.823 E6.80994
G1 X-24.174 Y-8.160 E6.96827
G1 X-22.500 Y-10.823 E7.17843
G1 X-21.500 Y-11.823 E7.27291
G1 X-19.567 Y-13.195 E7.43124
G1 X-16.500 Y-13.894 E7.64141
G1 X4.000 Y-13.894 E9.01092
G1 X6.337 Y-13.497 E9.16925
G1 X8.456 Y-12.313 E9.33146 F1080.000
G1 X20.956 Y-2.167 E10.40700
G1 X21.500 Y-1.677 E10.45590
G1 X22.500 Y-0.677 E10.55037
G1 X23.871 Y1.256 E10.70870
G1 X24.571 Y4.323 E10.91887
G1 X24.571 Y5.823 E11.01908
G1 X24.174 Y8.160 E11.17741
G1 X22.500 Y10.823 E11.38757
G1 X21.500 Y11.823 E11.48205
G1 X19.567 Y13.195 E11.64038
G1 X16.500 Y13.894 E11.85055
G1 X4.500 Y13.894 E12.65221
G1 X1.424 Y13.190 E12.86304
G1 X-4.843 Y10.162 E13.32802
G1 X-4.610 Y9.680 F4800.000
G1 X-19.343 Y2.562 E14.42112 F1080.000
G1 X-21.121 Y1.298 E14.56684
G1 X-22.121 Y0.298 E14.66132
G1 X-23.427 Y-1.568 E14.81349
G1 X-24.036 Y-4.323 E15.00196
G1 X-24.036 Y-5.823 E15.10216
G1 X-23.639 Y-8.066 E15.25434
G1 X-22.121 Y-10.445 E15.44281
G1 X-21.121 Y-11.445 E15.53728
G1 X-19.255 Y-12.750 E15.68945
G1 X-16.500 Y-13.359 E15.87792
G1 X4.000 Y-13.359 E17.24743
G1 X6.243 Y-12.962 E17.39961
G1 X8.119 Y-11.897 E17.54369 F1080.000
G1 X20.619 Y-1.751 E18.61923
G1 X21.121 Y-1.298 E18.66443
G1 X22.121 Y-0.298 E18.75890
G1 X23.427 Y1.568 E18.91107
G1 X24.036 Y4.323 E19.09954
G1 X24.036 Y5.823 E19.19975
G1 X23.639 Y8.066 E19.35192
G1 X22.121 Y10.445 E19.54039
G1 X21.121 Y11.445 E19.63487
G1 X19.255 Y12.750 E19.78704
G1 X16.500 Y13.359 E19.97551
G1 X4.500 Y13.359 E20.77718
G1 X1.657 Y12.708 E20.97203
G1 X-4.556 Y9.706 E21.43300
G1 F3840
G1 X-11.471 Y6.365 E15.73300
G1 E15.43300 F3000.00000
G92 E0
G1 Z0.800 F4800.000
G1 X1.365 Y5.582 F4800.000
G1 Z0.300 F4800.000
G1 E5.00000 F3000.00000
G1 X1.161 Y5.089 E5.03559 F1080.000
G1 X1.161 Y-1.670 E5.48718
G1 X0.847 Y-1.984 E5.51682
G1 X-16.766 Y-1.984 E6.69350
G1 X-17.259 Y-2.188 E6.72909
G1 X-18.635 Y-3.565 E6.85915
G1 X-18.839 Y-4.057 E6.89474
G1 X-18.839 Y-6.089 E7.03054
G1 X-18.635 Y-6.582 E7.06613
G1 X-17.259 Y-7.958 E7.19619
G1 X-16.766 Y-8.162 E7.23178
G1 X4.266 Y-8.162 E8.63688
G1 X4.759 Y-7.958 E8.67246
G1 X7.135 Y-5.582 E8.89701 F1080.000
G1 X7.339 Y-5.089 E8.93259
G1 X7.339 Y1.670 E9.38419
G1 X7.653 Y1.984 E9.41383
G1 X16.766 Y1.984 E10.02266
G1 X17.259 Y2.188 E10.05825
G1 X18.635 Y3.565 E10.18832
G1 X18.839 Y4.057 E10.22390
G1 X18.839 Y6.089 E10.35970
G1 X18.635 Y6.582 E10.39529
G1 X17.259 Y7.958 E10.52535
G1 X16.766 Y8.162 E10.56094
G1 X4.234 Y8.162 E11.39819
G1 X3.741 Y7.958 E11.43378
G1 X1.407 Y5.624 E11.65431
G1 X1.819 Y5.278 F4800.000
G1 X1.697 Y4.983 E11.67567 F1080.000
G1 X1.697 Y-2.206 E12.15592
G1 X1.383 Y-2.520 E12.18556
G1 X-16.660 Y-2.520 E13.39091
G1 X-16.955 Y-2.642 E13.41226
G1 X-18.181 Y-3.868 E13.52809
G1 X-18.303 Y-4.163 E13.54944
G1 X-18.303 Y-5.983 E13.67100
G1 X-18.181 Y-6.278 E13.69236
G1 X-16.955 Y-7.504 E13.80819
G1 X-16.660 Y-7.627 E13.82954
G1 X4.160 Y-7.627 E15.22040
G1 X4.455 Y-7.504 E15.24176 F1080.000
G1 X6.681 Y-5.278 E15.45206
G1 X6.803 Y-4.983 E15.47342
G1 X6.803 Y2.206 E15.95367
G1 X7.117 Y2.520 E15.98331
G1 X16.660 Y2.520 E16.62081
G1 X16.955 Y2.642 E16.64217
G1 X18.181 Y3.868 E16.75800
G1 X18.303 Y4.163 E16.77935
G1 X18.303 Y5.983 E16.90091
G1 X18.181 Y6.278 E16.92226
G1 X16.955 Y7.504 E17.03809
G1 X16.660 Y7.627 E17.05944
G1 X4.340 Y7.627 E17.88246
G1 X4.045 Y7.504 E17.90381
G1 X1.861 Y5.321 E18.11011
G1 X2.273 Y4.975 F4800.000
G1 X2.232 Y4.876 E18.11723 F1080.000
G1 X2.232 Y-2.742 E18.62615
G1 X1.918 Y-3.055 E18.65579
G1 X-16.553 Y-3.055 E19.88980
G1 X-16.652 Y-3.096 E19.89692
G1 X-17.727 Y-4.171 E19.99852
G1 X-17.768 Y-4.270 E20.00563
G1 X-17.768 Y-5.876 E20.11296
G1 X-17.727 Y-5.975 E20.12008
G1 X-16.652 Y-7.050 E20.22167
G1 X-16.553 Y-7.091 E20.22879
G1 X4.053 Y-7.091 E21.60542
G1 X4.152 Y-7.050 E21.61253
G1 X6.227 Y-4.975 E21.80861 F1080.000
G1 X6.268 Y-4.876 E21.81572
G1 X6.268 Y2.742 E22.32464
G1 X6.582 Y3.055 E22.35429
G1 X16.553 Y3.055 E23.02045
G1 X16.652 Y3.096 E23.02757
G1 X17.727 Y4.171 E23.12916
G1 X17.768 Y4.270 E23.13628
G1 X17.768 Y5.876 E23.24361
G1 X17.727 Y5.975 E23.25072
G1 X16.652 Y7.050 E23.35232
G1 X16.553 Y7.091 E23.35944
G1 X4.447 Y7.091 E24.16822
G1 X4.348 Y7.050 E24.17534
G1 X2.315 Y5.017 E24.36740
G1 X2.800 Y4.699 F4800.000
G1 X2.800 Y-3.623 E24.92335 F420.000
G1 X-16.376 Y-3.623 E26.20440
G1 X-17.200 Y-4.447 E26.28227
G1 X-17.200 Y-5.699 E26.36588
G1 X-16.376 Y-6.523 E26.44375
G1 X3.876 Y-6.523 E27.79666
G1 X5.700 Y-4.699 E27.96901
G1 X5.700 Y3.623 E28.52496 F420.000
G1 X16.376 Y3.623 E29.23816
G1 X17.200 Y4.447 E29.31603
G1 X17.200 Y5.699 E29.39964
G1 X16.376 Y6.523 E29.47751
G1 X4.624 Y6.523 E30.26258
G1 X2.842 Y4.741 E30.43092
G1 X3.083 Y4.416 F4800.000
G1 X3.336 Y4.477 F4800.000
G1 X3.336 Y-4.159 E31.00783 F840.000
G1 X-16.154 Y-4.159 E32.30984
G1 X-16.664 Y-4.669 E32.35807
G1 X-16.664 Y-5.477 E32.41203
G1 X-16.154 Y-5.988 E32.46026
G1 X3.654 Y-5.988 E33.78353
G1 X5.164 Y-4.477 E33.92623
G1 X5.164 Y4.159 E34.50315 F840.000
G1 X16.154 Y4.159 E35.23731
G1 X16.664 Y4.669 E35.28554
G1 X16.664 Y5.477 E35.33950
G1 X16.154 Y5.988 E35.38773
G1 X4.846 Y5.988 E36.14315
G1 X3.378 Y4.519 E36.28185
G1 F3840
G1 X3.340 Y-3.160 E30.58185
G1 E30.28185 F3000.00000
G92 E0
G1 Z0.800 F4800.000
G1 X-12.533 Y-4.694 F4800.000
G1 Z0.300 F4800.000
G1 E5.00000 F3000.00000
G1 X-15.932 Y-4.694 E5.22705 F840.000
G1 X-16.129 Y-4.891 E5.24564
G1 X-16.129 Y-5.255 E5.26996
G1 X-15.932 Y-5.452 E5.28854
G1 X3.432 Y-5.452 E6.58217
G1 X3.871 Y-5.013 E6.62366
G1 X4.629 Y-4.255 E6.69523 F840.000
G1 X4.629 Y4.694 E7.29311
G1 X15.932 Y4.694 E8.04822
G1 X16.129 Y4.891 E8.06681
G1 X16.129 Y5.255 E8.09113
G1 X15.932 Y5.452 E8.10972
G1 X5.068 Y5.452 E8.83550
G1 X3.871 Y4.255 E8.94856
G1 X3.871 Y-4.694 E9.54644
G1 X-12.473 Y-4.694 E10.63834
G1 X-15.861 Y-5.073 F4800.000
G1 X3.432 Y-5.073 E11.92722 F360.000
G1 X4.250 Y-4.255 F4800.000
G1 X4.250 Y4.255 E12.49576 F360.000
G1 X5.068 Y5.073 F4800.000
G1 X15.861 Y5.073 E13.21679 F360.000
M104 S180 ; set temperature
M140 S64 ; wait for bed temperature to be reached
G1 F3840
G1 X8.181 Y5.073 E7.51679
G1 E7.21679 F3000.00000
G92 E0
G1 Z0.800 F4800.000
G1 X17.300 Y5.073 F4800.000
G1 Z0.500 F4800.000
G1 E5.00000 F3000.00000
G1 X17.300 Y5.740 E5.01981 F1050.000
G1 X16.417 Y6.623 E5.05688
G1 X4.583 Y6.623 E5.40826
G1 X2.700 Y4.740 E5.48732
G1 X2.700 Y-3.523 E5.73267
G1 X-16.417 Y-3.523 E6.30028
G1 X-17.300 Y-4.406 E6.33735
G1 X-17.300 Y-5.740 E6.37697
G1 X-16.417 Y-6.623 E6.41404
G1 X3.917 Y-6.623 E7.01779
G1 X5.800 Y-4.740 E7.09685
G1 X5.800 Y3.523 E7.34220 F1050.000
G1 X16.417 Y3.523 E7.65744
G1 X17.300 Y4.406 E7.69451
G1 X17.300 Y5.013 E7.71254
G1 X16.954 Y5.273 F4800.000
G1 X16.807 Y5.013 F4800.000
G1 X16.807 Y5.536 E7.73987 F2100.000
G1 X16.213 Y6.130 E7.78377
G1 X4.787 Y6.130 E8.38073
G1 X3.193 Y4.536 E8.49852
G1 X3.193 Y-4.016 E8.94532
G1 X-16.213 Y-4.016 E9.95917
G1 X-16.807 Y-4.610 E10.00308
G1 X-16.807 Y-5.536 E10.05146
G1 X-16.213 Y-6.130 E10.09537
G1 X3.713 Y-6.130 E11.13641
G1 X5.307 Y-4.536 E11.25420
G1 X5.307 Y4.016 E11.70100 F2100.000
G1 X16.213 Y4.016 E12.27077
G1 X16.807 Y4.610 E12.31467
G1 X16.807 Y4.953 E12.33260
G1 F3840
G1 X16.807 Y5.536 E11.89984
G1 F3840
G1 X16.213 Y6.130 E11.27614
G1 F3840
G1 X9.957 Y6.130 E6.63260
G1 E6.33260 F3000.00000
G92 E0
G1 Z1.000 F4800.000
G1 X4.679 Y-4.276 F4800.000
G1 Z0.500 F4800.000
G1 E5.00000 F3000.00000
G1 X4.679 Y4.644 E5.46603 F2100.000
G1 X15.953 Y4.644 E6.05503
G1 X16.179 Y4.870 E6.07174
G1 X16.179 Y5.276 E6.09293
G1 X15.953 Y5.502 E6.10964
G1 X5.047 Y5.502 E6.67941
G1 X3.821 Y4.276 E6.77000
G1 X3.821 Y-4.644 E7.23603
G1 X-15.953 Y-4.644 E8.26911
G1 X-16.179 Y-4.870 E8.28582
G1 X-16.179 Y-5.276 E8.30702
G1 X-15.953 Y-5.502 E8.32373
G1 X3.453 Y-5.502 E9.33757
G1 X3.821 Y-5.134 E9.36478
G1 X4.637 Y-4.318 E9.42503 F2100.000
G1 X4.250 Y-4.261 F4800.000
G1 X4.250 Y4.261 E9.87023 F900.000
G1 X5.062 Y5.073 F4800.000
G1 X15.865 Y5.073 E10.43459 F900.000
G1 F3840
G1 X8.185 Y5.073 E4.73459
G1 E4.43459 F3000.00000
G92 E0
G1 Z1.000 F4800.000
G1 X3.438 Y-5.073 F4800.000
G1 Z0.500 F4800.000
G1 E5.00000 F3000.00000
G1 X-15.865 Y-5.073 E6.00845 F900.000
G1 F3840
G1 X-8.185 Y-5.073 E0.30845
G1 E0.00845 F3000.00000
G92 E0
G1 Z1.000 F4800.000
G1 X-17.300 Y-5.073 F4800.000
G1 Z0.700 F4800.000
G1 E5.00000 F3000.00000
G1 X-17.300 Y-5.740 E5.01981 F1050.000
G1 X-16.417 Y-6.623 E5.05688
G1 X3.917 Y-6.623 E5.66063
G1 X5.800 Y-4.740 E5.73969
G1 X5.800 Y3.523 E5.98504 F1050.000
G1 X16.417 Y3.523 E6.30028
G1 X17.300 Y4.406 E6.33735
G1 X17.300 Y5.740 E6.37697
G1 X16.417 Y6.623 E6.41404
G1 X4.583 Y6.623 E6.76541
G1 X2.700 Y4.740 E6.84447
G1 X2.700 Y-3.523 E7.08983
G1 X-16.417 Y-3.523 E7.65744
G1 X-17.300 Y-4.406 E7.69451
G1 X-17.300 Y-5.013 E7.71254
G1 X-16.954 Y-5.273 F4800.000
G1 X-16.807 Y-5.013 F4800.000
G1 X-16.807 Y-5.536 E7.73987 F2100.000
G1 X-16.213 Y-6.130 E7.78377
G1 X3.713 Y-6.130 E8.82481
G1 X5.307 Y-4.536 E8.94260
G1 X5.307 Y4.016 E9.38940 F2100.000
G1 X16.213 Y4.016 E9.95917
G1 X16.807 Y4.610 E10.00308
G1 X16.807 Y5.536 E10.05146
G1 X16.213 Y6.130 E10.09537
G1 X4.787 Y6.130 E10.69232
G1 X3.193 Y4.536 E10.81011
G1 X3.193 Y-4.016 E11.25691
G1 X-16.213 Y-4.016 E12.27077
G1 X-16.807 Y-4.610 E12.31467
G1 X-16.807 Y-4.953 E12.33260
G1 X3.453 Y-5.502 F4800.000
G1 X3.821 Y-5.134 E12.35980 F2100.000
G1 X4.679 Y-4.276 E12.42319 F2100.000
G1 X4.679 Y4.644 E12.88922
G1 X15.953 Y4.644 E13.47822
G1 X16.179 Y4.870 E13.49493
G1 X16.179 Y5.276 E13.51612
G1 X15.953 Y5.502 E13.53283
G1 X5.047 Y5.502 E14.10260
G1 X3.821 Y4.276 E14.19319
G1 X3.821 Y-4.644 E14.65922
G1 X-15.953 Y-4.644 E15.69230
G1 X-16.179 Y-4.870 E15.70902
G1 X-16.179 Y-5.276 E15.73021
G1 X-15.953 Y-5.502 E15.74692
G1 X3.393 Y-5.502 E16.75763
G1 X3.438 Y-5.073 F4800.000
G1 X-15.865 Y-5.073 E17.76608 F900.000
G1 X4.250 Y-4.261 F4800.000
G1 X4.250 Y4.261 E18.21127 F900.000
G1 X5.062 Y5.073 F4800.000
G1 X15.865 Y5.073 E18.77563 F900.000
G1 F3840
G1 X8.185 Y5.073 E13.07563
G1 E12.77563 F3000.00000
G92 E0
G1 Z1.200 F4800.000
G1 X17.300 Y5.073 F4800.000
G1 Z0.900 F4800.000
G1 E5.00000 F3000.00000
G1 X17.300 Y5.740 E5.01981 F1050.000
G1 X16.417 Y6.623 E5.05688
G1 X4.583 Y6.623 E5.40826
G1 X2.700 Y4.740 E5.48732
G1 X2.700 Y-3.523 E5.73267
G1 X-16.417 Y-3.523 E6.30028
G1 X-17.300 Y-4.406 E6.33735
G1 X-17.300 Y-5.740 E6.37697
G1 X-16.417 Y-6.623 E6.41404
G1 X3.917 Y-6.623 E7.01779
G1 X5.800 Y-4.740 E7.09685
G1 X5.800 Y3.523 E7.34220 F1050.000
G1 X16.417 Y3.523 E7.65744
G1 X17.300 Y4.406 E7.69451
G1 X17.300 Y5.013 E7.71254
G1 X16.954 Y5.273 F4800.000
G1 X16.807 Y5.013 F4800.000
G1 X16.807 Y5.536 E7.73987 F2100.000
G1 X16.213 Y6.130 E7.78377
G1 X4.787 Y6.130 E8.38073
G1 X3.193 Y4.536 E8.49852
G1 X3.193 Y-4.016 E8.94532
G1 X-16.213 Y-4.016 E9.95917
G1 X-16.807 Y-4.610 E10.00308
G1 X-16.807 Y-5.536 E10.05146
G1 X-16.213 Y-6.130 E10.09537
G1 X3.713 Y-6.130 E11.13641
G1 X5.307 Y-4.536 E11.25420
G1 X5.307 Y4.016 E11.70100 F2100.000
G1 X16.213 Y4.016 E12.27077
G1 X16.807 Y4.610 E12.31467
G1 X16.807 Y4.953 E12.33260
G1 X15.829 Y4.644 F4800.000
G1 X15.953 Y4.644 E12.33905 F2100.000
G1 X16.179 Y4.870 E12.35576
G1 X16.179 Y5.276 E12.37695
G1 X15.953 Y5.502 E12.39366
G1 X5.047 Y5.502 E12.96342
G1 X3.821 Y4.276 E13.05402
G1 X3.821 Y-4.644 E13.52005
G1 X-15.953 Y-4.644 E14.55313
G1 X-16.179 Y-4.870 E14.56984
G1 X-16.179 Y-5.276 E14.59103
G1 X-15.953 Y-5.502 E14.60774
G1 X3.453 Y-5.502 E15.62159
G1 X3.821 Y-5.134 E15.64879
G1 X4.679 Y-4.276 E15.71218 F2100.000
G1 X4.679 Y4.644 E16.17821
G1 X15.769 Y4.644 E16.75763
G1 X15.865 Y5.073 F4800.000
G1 X5.062 Y5.073 E17.32199 F900.000
G1 X4.250 Y4.261 F4800.000
G1 X4.250 Y-4.261 E17.76719 F900.000
G1 X3.438 Y-5.073 F4800.000
G1 X-15.865 Y-5.073 E18.77563 F900.000
G1 F3840
G1 X-8.185 Y-5.073 E13.07563
G1 E12.77563 F3000.00000
G92 E0
G1 Z1.400 F4800.000
G1 X-17.300 Y-5.073 F4800.000
G1 Z1.100 F4800.000
G1 E5.00000 F3000.00000
G1 X-17.300 Y-5.740 E5.01981 F1050.000
G1 X-16.417 Y-6.623 E5.05688
G1 X3.917 Y-6.623 E5.66063
G1 X5.800 Y-4.740 E5.73969
G1 X5.800 Y3.523 E5.98504 F1050.000
G1 X16.417 Y3.523 E6.30028
G1 X17.300 Y4.406 E6.33735
G1 X17.300 Y5.740 E6.37697
G1 X16.417 Y6.623 E6.41404
G1 X4.583 Y6.623 E6.76541
G1 X2.700 Y4.740 E6.84447
G1 X2.700 Y-3.523 E7.08983
G1 X-16.417 Y-3.523 E7.65744
G1 X-17.300 Y-4.406 E7.69451
G1 X-17.300 Y-5.013 E7.71254
G1 X-16.954 Y-5.273 F4800.000
G1 X-16.807 Y-5.013 F4800.000
G1 X-16.807 Y-5.536 E7.73987 F2100.000
G1 X-16.213 Y-6.130 E7.78377
G1 X3.713 Y-6.130 E8.82481
G1 X5.307 Y-4.536 E8.94260
G1 X5.307 Y4.016 E9.38940 F2100.000
G1 X16.213 Y4.016 E9.95917
G1 X16.807 Y4.610 E10.00308
G1 X16.807 Y5.536 E10.05146
G1 X16.213 Y6.130 E10.09537
G1 X4.787 Y6.130 E10.69232
G1 X3.193 Y4.536 E10.81011
G1 X3.193 Y-4.016 E11.25691
G1 X-16.213 Y-4.016 E12.27077
G1 X-16.807 Y-4.610 E12.31467
G1 X-16.807 Y-4.953 E12.33260
G1 X-13.645 Y-5.502 F4800.000
G1 X3.453 Y-5.502 E13.22588 F2100.000
G1 X3.821 Y-5.134 E13.25309
G1 X4.679 Y-4.276 E13.31648 F2100.000
G1 X4.679 Y4.644 E13.78251
G1 X15.953 Y4.644 E14.37151
G1 X16.179 Y4.870 E14.38822
G1 X16.179 Y5.276 E14.40941
G1 X15.953 Y5.502 E14.42612
G1 X5.047 Y5.502 E14.99588
G1 X3.821 Y4.276 E15.08648
G1 X3.821 Y-4.644 E15.55251
G1 X-15.953 Y-4.644 E16.58559
G1 X-16.179 Y-4.870 E16.60230
G1 X-16.179 Y-5.276 E16.62349
G1 X-15.953 Y-5.502 E16.64020
G1 X-13.705 Y-5.502 E16.75763
G1 X-15.865 Y-5.073 F4800.000
G1 X3.438 Y-5.073 E17.76608 F900.000
G1 X4.250 Y-4.261 F4800.000
G1 X4.250 Y4.261 E18.21127 F900.000
G1 X5.062 Y5.073 F4800.000
G1 X15.865 Y5.073 E18.77563 F900.000
G1 F3840
G1 X8.185 Y5.073 E13.07563
G1 E12.77563 F3000.00000
G92 E0
G1 Z1.600 F4800.000
G1 X17.300 Y5.073 F4800.000
G1 Z1.300 F4800.000
G1 E5.00000 F3000.00000
G1 X17.300 Y5.740 E5.01981 F1050.000
G1 X16.417 Y6.623 E5.05688
G1 X4.583 Y6.623 E5.40826
G1 X2.700 Y4.740 E5.48732
G1 X2.700 Y-3.523 E5.73267
G1 X-16.417 Y-3.523 E6.30028
G1 X-17.300 Y-4.406 E6.33735
G1 X-17.300 Y-5.740 E6.37697
G1 X-16.417 Y-6.623 E6.41404
G1 X3.917 Y-6.623 E7.01779
G1 X5.800 Y-4.740 E7.09685
G1 X5.800 Y3.523 E7.34220 F1050.000
G1 X16.417 Y3.523 E7.65744
G1 X17.300 Y4.406 E7.69451
G1 X17.300 Y5.013 E7.71254
G1 X16.954 Y5.273 F4800.000
G1 X16.807 Y5.013 F4800.000
G1 X16.807 Y5.536 E7.73987 F2100.000
G1 X16.213 Y6.130 E7.78377
G1 X4.787 Y6.130 E8.38073
G1 X3.193 Y4.536 E8.49852
G1 X3.193 Y-4.016 E8.94532
G1 X-16.213 Y-4.016 E9.95917
G1 X-16.807 Y-4.610 E10.00308
G1 X-16.807 Y-5.536 E10.05146
G1 X-16.213 Y-6.130 E10.09537
G1 X3.713 Y-6.130 E11.13641
G1 X5.307 Y-4.536 E11.25420
G1 X5.307 Y4.016 E11.70100 F2100.000
G1 X16.213 Y4.016 E12.27077
G1 X16.807 Y4.610 E12.31467
G1 X16.807 Y4.953 E12.33260
G1 F3840
G1 X16.807 Y5.536 E11.89984
G1 F3840
G1 X16.213 Y6.130 E11.27614
G1 F3840
G1 X9.957 Y6.130 E6.63260
G1 E6.33260 F3000.00000
G92 E0
G1 Z1.800 F4800.000
G1 X4.050 Y-4.905 F4800.000
G1 Z1.300 F4800.000
G1 E5.00000 F3000.00000
G1 X4.679 Y-4.276 E5.04649 F2100.000
G1 X4.679 Y4.644 E5.51252
G1 X15.953 Y4.644 E6.10152
G1 X16.179 Y4.870 E6.11823
G1 X16.179 Y5.276 E6.13942
G1 X15.953 Y5.502 E6.15613
G1 X5.047 Y5.502 E6.72589
G1 X3.821 Y4.276 E6.81649
G1 X3.821 Y-4.644 E7.28252
G1 X-15.953 Y-4.644 E8.31560
G1 X-16.179 Y-4.870 E8.33231
G1 X-16.179 Y-5.276 E8.35350
G1 X-15.953 Y-5.502 E8.37021
G1 X3.453 Y-5.502 E9.38406
G1 X3.821 Y-5.134 E9.41126
G1 X4.007 Y-4.948 E9.42503 F2100.000
G1 X3.438 Y-5.073 F4800.000
