; generated by Slic3r 1.2.9 on 2022-04-13 at 19:05:37

; external perimeters extrusion width = 0.40mm
; perimeters extrusion width = 0.67mm
; infill extrusion width = 0.67mm
; solid infill extrusion width = 0.67mm
; top infill extrusion width = 0.67mm

G28 ; home all axes
M104 S190
M190 S70 ; set bed temperature
G1 Z220
G28
G1 X0.000 Y70.000 Z30.300 F8000.000
M109 S190
G1 Z0.2 F2000
G1 X40.000 Y50.000 Z0.1 E10.000
G1 X0 Y0 Z15

G21 ; set units to millimeters
G90 ; use absolute coordinates
M82 ; use absolute distances for extrusion
G92 E0
G1 Z0.300 F4800.000
G1 E-2.00000 F2400.00000
G92 E0
G1 X0.000 Y31.071 F4800.000
G1 E0.80000 F2400.00000
G1 X-17.000 Y31.071 E2.04926 F1080.000
G1 X-18.240 Y31.002 E2.14050
G1 X-18.907 Y30.926 E2.18987
G1 X-21.324 Y30.375 E2.37204
G1 X-21.958 Y30.153 E2.42142
G1 X-24.192 Y29.077 E2.60360
G1 X-24.761 Y28.720 E2.65296
G1 X-26.699 Y27.174 E2.83515
G1 X-27.174 Y26.699 E2.88452
G1 X-28.720 Y24.761 E3.06670
G1 X-29.077 Y24.192 E3.11607
G1 X-30.153 Y21.958 E3.29826
G1 X-30.375 Y21.324 E3.34762
G1 X-30.926 Y18.907 E3.52980
G1 X-31.002 Y18.240 E3.57917
G1 X-31.071 Y17.000 E3.67041
G1 X-31.071 Y-17.000 E6.16893
G1 X-31.002 Y-18.239 E6.26015
G1 X-30.926 Y-18.907 E6.30953
G1 X-30.375 Y-21.324 E6.49171
G1 X-30.153 Y-21.959 E6.54110
G1 X-29.077 Y-24.192 E6.72327
G1 X-28.720 Y-24.761 E6.77263
G1 X-27.174 Y-26.699 E6.95482
G1 X-26.699 Y-27.174 E7.00418
G1 X-24.761 Y-28.720 E7.18637
G1 X-24.192 Y-29.077 E7.23575
G1 X-21.958 Y-30.153 E7.41792
G1 X-21.324 Y-30.375 E7.46732
G1 X-18.907 Y-30.926 E7.64946
G1 X-18.240 Y-31.002 E7.69884
G1 X-17.000 Y-31.071 E7.79007
G1 X17.000 Y-31.071 E10.28860
G1 X18.240 Y-31.002 E10.37983
G1 X18.907 Y-30.926 E10.42920 F1080.000
G1 X21.324 Y-30.375 E10.61138
G1 X21.958 Y-30.153 E10.66076
G1 X24.192 Y-29.077 E10.84293
G1 X24.761 Y-28.720 E10.89230
G1 X26.699 Y-27.174 E11.07449
G1 X27.174 Y-26.699 E11.12385
G1 X28.720 Y-24.761 E11.30604
G1 X29.077 Y-24.192 E11.35540
G1 X30.153 Y-21.958 E11.53759
G1 X30.375 Y-21.324 E11.58696
G1 X30.926 Y-18.907 E11.76914
G1 X31.002 Y-18.240 E11.81850
G1 X31.071 Y-17.000 E11.90974
G1 X31.071 Y17.000 E14.40826
G1 X31.002 Y18.240 E14.49950
G1 X30.926 Y18.907 E14.54887
G1 X30.375 Y21.324 E14.73105
G1 X30.153 Y21.958 E14.78041
G1 X29.077 Y24.192 E14.96260
G1 X28.720 Y24.761 E15.01197
G1 X27.174 Y26.699 E15.19415
G1 X26.699 Y27.174 E15.24352
G1 X24.761 Y28.720 E15.42570
G1 X24.235 Y29.050 E15.47137
G1 X21.958 Y30.153 E15.65724
G1 X21.324 Y30.375 E15.70660
G1 X18.907 Y30.926 E15.88878
G1 X18.240 Y31.002 E15.93815
G1 X17.000 Y31.071 E16.02939
G1 X0.060 Y31.071 E17.27424
G1 X0.000 Y30.536 F4800.000
G1 X-17.000 Y30.536 E18.52350 F1080.000
G1 X-18.180 Y30.469 E18.61033
G1 X-18.847 Y30.394 E18.65969
G1 X-21.147 Y29.869 E18.83305
G1 X-21.781 Y29.647 E18.88243
G1 X-23.907 Y28.624 E19.05579
G1 X-24.476 Y28.266 E19.10516
G1 X-26.320 Y26.795 E19.27854
G1 X-26.795 Y26.320 E19.32790
G1 X-28.266 Y24.476 E19.50127
G1 X-28.624 Y23.907 E19.55064
G1 X-29.647 Y21.781 E19.72401
G1 X-29.869 Y21.147 E19.77338
G1 X-30.394 Y18.847 E19.94675
G1 X-30.469 Y18.180 E19.99611
G1 X-30.536 Y17.000 E20.08293
G1 X-30.536 Y-17.000 E22.58146
G1 X-30.469 Y-18.179 E22.66826
G1 X-30.394 Y-18.847 E22.71765
G1 X-29.869 Y-21.147 E22.89101
G1 X-29.647 Y-21.782 E22.94040
G1 X-28.624 Y-23.907 E23.11375
G1 X-28.266 Y-24.476 E23.16312
G1 X-26.795 Y-26.320 E23.33649
G1 X-26.320 Y-26.795 E23.38585
G1 X-24.476 Y-28.266 E23.55923
G1 X-23.907 Y-28.624 E23.60861
G1 X-21.781 Y-29.647 E23.78197
G1 X-21.147 Y-29.869 E23.83136
G1 X-18.847 Y-30.394 E24.00469
G1 X-18.180 Y-30.469 E24.05407
G1 X-17.000 Y-30.536 E24.14089
G1 X17.000 Y-30.536 E26.63941
G1 X18.180 Y-30.469 E26.72623
G1 X18.847 Y-30.394 E26.77560 F1080.000
G1 X21.147 Y-29.869 E26.94897
G1 X21.781 Y-29.647 E26.99835
G1 X23.907 Y-28.624 E27.17171
G1 X24.476 Y-28.266 E27.22107
G1 X26.320 Y-26.795 E27.39445
G1 X26.795 Y-26.320 E27.44381
G1 X28.266 Y-24.476 E27.61718
G1 X28.624 Y-23.907 E27.66655
G1 X29.647 Y-21.781 E27.83992
G1 X29.869 Y-21.147 E27.88929
G1 X30.394 Y-18.847 E28.06265
G1 X30.469 Y-18.180 E28.11202
G1 X30.536 Y-17.000 E28.19885
G1 X30.536 Y17.000 E30.69737
G1 X30.469 Y18.180 E30.78419
G1 X30.394 Y18.847 E30.83356
G1 X29.869 Y21.147 E31.00692
G1 X29.647 Y21.781 E31.05629
G1 X28.624 Y23.907 E31.22967
G1 X28.266 Y24.476 E31.27903
G1 X26.795 Y26.320 E31.45240
G1 X26.320 Y26.795 E31.50177
G1 X24.476 Y28.266 E31.67514
G1 X23.950 Y28.597 E31.72080
G1 X21.781 Y29.647 E31.89786
G1 X21.147 Y29.869 E31.94722
G1 X18.847 Y30.394 E32.12059
G1 X18.180 Y30.469 E32.16995
G1 X17.000 Y30.536 E32.25678
G1 X0.060 Y30.536 E33.50163
G1 X0.000 Y21.339 F4800.000
G1 X-17.038 Y21.339 E34.75365 F1080.000
G1 X-17.892 Y21.247 E34.81682
G1 X-18.039 Y21.214 E34.82787
G1 X-18.815 Y20.942 E34.88829
G1 X-18.950 Y20.877 E34.89934
G1 X-19.647 Y20.439 E34.95976
G1 X-19.764 Y20.346 E34.97081
G1 X-20.346 Y19.764 E35.03123
G1 X-20.439 Y19.647 E35.04229
G1 X-20.877 Y18.950 E35.10271
G1 X-20.942 Y18.815 E35.11376
G1 X-21.214 Y18.039 E35.17418
G1 X-21.247 Y17.892 E35.18523
G1 X-21.339 Y17.038 E35.24840
G1 X-21.339 Y-17.038 E37.75244
G1 X-21.247 Y-17.892 E37.81561
G1 X-21.214 Y-18.039 E37.82666
G1 X-20.942 Y-18.815 E37.88708
G1 X-20.877 Y-18.950 E37.89813
G1 X-20.439 Y-19.647 E37.95855
G1 X-20.346 Y-19.764 E37.96960
G1 X-19.764 Y-20.346 E38.03002
G1 X-19.647 Y-20.439 E38.04107
G1 X-18.950 Y-20.877 E38.10149
G1 X-18.815 Y-20.942 E38.11255
G1 X-18.039 Y-21.214 E38.17297
G1 X-17.892 Y-21.247 E38.18402
G1 X-17.113 Y-21.335 E38.24167
G1 X17.113 Y-21.335 E40.75674
G1 X17.892 Y-21.247 E40.81440 F1080.000
G1 X18.039 Y-21.214 E40.82545
G1 X18.815 Y-20.942 E40.88587
G1 X18.950 Y-20.877 E40.89692
G1 X19.647 Y-20.439 E40.95734
G1 X19.764 Y-20.346 E40.96839
G1 X20.346 Y-19.764 E41.02881
G1 X20.439 Y-19.647 E41.03986
G1 X20.877 Y-18.950 E41.10028
G1 X20.942 Y-18.815 E41.11133
G1 X21.214 Y-18.039 E41.17175
G1 X21.247 Y-17.892 E41.18280
G1 X21.335 Y-17.113 E41.24046
G1 X21.339 Y17.038 E43.75002
G1 X21.247 Y17.892 E43.81318
G1 X21.214 Y18.039 E43.82423
G1 X20.942 Y18.815 E43.88465
G1 X20.877 Y18.950 E43.89571
G1 X20.439 Y19.647 E43.95612
G1 X20.346 Y19.764 E43.96718
G1 X19.764 Y20.346 E44.02760
G1 X19.647 Y20.439 E44.03865
G1 X18.950 Y20.877 E44.09907
G1 X18.815 Y20.942 E44.11012
G1 X18.039 Y21.214 E44.17054
G1 X17.892 Y21.247 E44.18159
G1 X17.038 Y21.339 E44.24476
G1 X0.060 Y21.339 E45.49237
G1 X0.000 Y20.803 F4800.000
G1 X-17.068 Y20.801 E46.74660 F1080.000
G1 X-17.890 Y20.698 E46.80753
G1 X-18.610 Y20.446 E46.86353
G1 X-19.336 Y20.002 E46.92612
G1 X-19.946 Y19.407 E46.98871
G1 X-20.407 Y18.691 E47.05130
G1 X-20.698 Y17.890 E47.11390
G1 X-20.803 Y17.023 E47.17814
G1 X-20.803 Y-17.023 E49.67997
G1 X-20.718 Y-17.802 E49.73762
G1 X-20.446 Y-18.610 E49.80021
G1 X-20.002 Y-19.336 E49.86280
G1 X-19.336 Y-20.002 E49.93198
G1 X-18.610 Y-20.446 E49.99457
G1 X-17.890 Y-20.698 E50.05057
G1 X-17.068 Y-20.801 E50.11150
G1 X17.023 Y-20.803 E52.61665
G1 X17.802 Y-20.718 E52.67429 F1080.000
G1 X18.610 Y-20.446 E52.73689
G1 X19.407 Y-19.946 E52.80606
G1 X20.002 Y-19.336 E52.86866
G1 X20.407 Y-18.691 E52.92466
G1 X20.698 Y-17.890 E52.98725
G1 X20.801 Y-17.068 E53.04818
G1 X20.803 Y17.023 E55.55332
G1 X20.718 Y17.802 E55.61097
G1 X20.446 Y18.610 E55.67356
G1 X20.002 Y19.336 E55.73615
G1 X19.336 Y20.002 E55.80533
G1 X18.610 Y20.446 E55.86793
G1 X17.890 Y20.698 E55.92392
G1 X17.068 Y20.801 E55.98486
G1 X0.060 Y20.803 E57.23467
G1 X0.000 Y20.268 F4800.000
G1 X-17.023 Y20.267 E58.48559 F1080.000
G1 X-17.742 Y20.183 E58.53881
G1 X-18.404 Y19.951 E58.59039
G1 X-19.026 Y19.564 E58.64416
G1 X-19.546 Y19.049 E58.69794
G1 X-19.938 Y18.431 E58.75171
G1 X-20.183 Y17.742 E58.80549
G1 X-20.268 Y17.008 E58.85981
G1 X-20.268 Y-17.008 E61.35944
G1 X-20.189 Y-17.712 E61.41156
G1 X-19.951 Y-18.404 E61.46534
G1 X-19.546 Y-19.049 E61.52131
G1 X-19.026 Y-19.564 E61.57508
G1 X-18.431 Y-19.938 E61.62666
G1 X-17.742 Y-20.183 E61.68043
G1 X-17.008 Y-20.268 E61.73476
G1 X17.023 Y-20.267 E64.23549
G1 X17.742 Y-20.183 E64.28871 F1080.000
G1 X18.404 Y-19.951 E64.34029
G1 X19.049 Y-19.546 E64.39626
G1 X19.545 Y-19.049 E64.44783
G1 X19.938 Y-18.431 E64.50161
G1 X20.183 Y-17.742 E64.55538
G1 X20.267 Y-17.023 E64.60860
G1 X20.268 Y17.008 E67.10933
G1 X20.189 Y17.712 E67.16146
G1 X19.951 Y18.404 E67.21523
G1 X19.564 Y19.026 E67.26901
G1 X19.026 Y19.564 E67.32498
G1 X18.404 Y19.951 E67.37875
G1 X17.742 Y20.183 E67.43033
G1 X17.023 Y20.267 E67.48355
G1 X0.060 Y20.268 E68.73006
G1 E66.73006 F2400.00000
G92 E0
G1 X-19.700 Y0.268 F4800.000
G1 E0.80000 F2400.00000
G1 X-19.700 Y-16.983 E2.06770 F216.000
G1 X-19.630 Y-17.600 E2.11335
G1 X-19.447 Y-18.125 E2.15422
G1 X-19.108 Y-18.684 E2.20223
G1 X-18.682 Y-19.109 E2.24646
G1 X-18.171 Y-19.431 E2.29086
G1 X-17.600 Y-19.630 E2.33526
G1 X-16.983 Y-19.700 E2.38090
G1 X17.033 Y-19.694 E4.88063
G1 X17.600 Y-19.630 E4.92257 F216.000
G1 X18.171 Y-19.431 E4.96697
G1 X18.682 Y-19.109 E5.01137
G1 X19.109 Y-18.682 E5.05577
G1 X19.431 Y-18.171 E5.10017
G1 X19.630 Y-17.600 E5.14457
G1 X19.700 Y-16.983 E5.19021
G1 X19.700 Y16.983 E7.68626
G1 X19.630 Y17.600 E7.73190
G1 X19.431 Y18.171 E7.77630
G1 X19.109 Y18.682 E7.82070
G1 X18.682 Y19.109 E7.86510
G1 X18.171 Y19.431 E7.90950
G1 X17.600 Y19.630 E7.95390
G1 X16.983 Y19.700 E7.99954
G1 X-16.983 Y19.700 E10.49559
G1 X-17.600 Y19.630 E10.54123
G1 X-18.125 Y19.447 E10.58210
G1 X-18.684 Y19.108 E10.63012
G1 X-19.109 Y18.682 E10.67434
G1 X-19.431 Y18.171 E10.71874
G1 X-19.630 Y17.600 E10.76314
G1 X-19.700 Y16.983 E10.80879
G1 X-19.700 Y0.328 E12.03272
G1 X-19.354 Y0.068 F4800.000
G1 X-18.867 Y15.957 F4800.000
G1 X-18.744 Y16.772 E12.09327 F288.000
G1 X-18.346 Y17.600 E12.16076
G1 X-17.721 Y18.273 E12.22826
G1 X-16.926 Y18.732 E12.29575
G1 X-16.282 Y18.879 E12.34427
G1 X-16.314 Y19.164 E12.36538
G1 X-16.953 Y19.164 E12.41234
G1 X-17.480 Y19.105 E12.45134
G1 X-17.895 Y18.960 E12.48365
G1 X-18.351 Y18.683 E12.52279
G1 X-18.688 Y18.346 E12.55784
G1 X-18.945 Y17.937 E12.59337
G1 X-19.105 Y17.480 E12.62890
G1 X-19.164 Y16.953 E12.66790
G1 X-19.164 Y15.980 E12.73943
G1 X-18.927 Y15.962 E12.75694
G1 X-18.337 Y15.878 F4800.000
G1 X-18.227 Y15.115 E12.81353 F288.000
G1 X-17.898 Y14.433 E12.86915
G1 X-17.383 Y13.879 E12.92478
G1 X-16.728 Y13.500 E12.98041
G1 X-16.083 Y13.353 E13.02904
G1 X-15.990 Y13.332 E13.03603 F288.000
G1 X-15.235 Y13.388 E13.09166
G1 X-14.530 Y13.665 E13.14729
G1 X-13.938 Y14.137 E13.20291
G1 X-13.512 Y14.762 E13.25854
G1 X-13.289 Y15.485 E13.31417
G1 X-13.289 Y16.242 E13.36979
G1 X-13.512 Y16.966 E13.42542
G1 X-13.938 Y17.591 E13.48105
G1 X-14.530 Y18.063 E13.53667
G1 X-15.235 Y18.340 E13.59230
G1 X-15.990 Y18.396 E13.64793
G1 X-16.728 Y18.228 E13.70355
G1 X-17.383 Y17.849 E13.75918
G1 X-17.898 Y17.294 E13.81481
G1 X-18.227 Y16.612 E13.87043
G1 X-18.328 Y15.937 E13.92064
G1 X-18.674 Y15.662 F4800.000
G1 X-18.866 Y-16.344 F4800.000
G1 X-19.164 Y-16.366 E13.94263 F288.000
G1 X-19.164 Y-16.953 E13.98580
G1 X-19.105 Y-17.480 E14.02480
G1 X-18.960 Y-17.895 E14.05711
G1 X-18.683 Y-18.351 E14.09625
G1 X-18.346 Y-18.688 E14.13130
G1 X-17.937 Y-18.945 E14.16683
G1 X-17.480 Y-19.105 E14.20236
G1 X-16.953 Y-19.164 E14.24135
G1 X-16.367 Y-19.164 E14.28441
G1 X-16.328 Y-18.889 E14.30487
G1 X-17.106 Y-18.660 E14.36450
G1 X-17.859 Y-18.176 E14.43026
G1 X-18.445 Y-17.500 E14.49603
G1 X-18.817 Y-16.686 E14.56179
G1 X-18.857 Y-16.404 E14.58274
G1 X-18.336 Y-16.268 F4800.000
G1 X-18.298 Y-16.533 E14.60244 F288.000
G1 X-17.990 Y-17.207 E14.65689
G1 X-17.505 Y-17.767 E14.71133
G1 X-16.881 Y-18.168 E14.76578
G1 X-16.170 Y-18.377 E14.82023
G1 X-15.430 Y-18.377 E14.87467 F288.000
G1 X-14.719 Y-18.168 E14.92912
G1 X-14.095 Y-17.767 E14.98357
G1 X-13.610 Y-17.207 E15.03801
G1 X-13.302 Y-16.533 E15.09246
G1 X-13.197 Y-15.800 E15.14691
G1 X-13.302 Y-15.067 E15.20135
G1 X-13.610 Y-14.393 E15.25580
G1 X-14.095 Y-13.833 E15.31025
G1 X-14.719 Y-13.432 E15.36469
G1 X-15.430 Y-13.223 E15.41914
G1 X-16.170 Y-13.223 E15.47359
G1 X-16.881 Y-13.432 E15.52803
G1 X-17.505 Y-13.833 E15.58248
G1 X-17.990 Y-14.393 E15.63693
G1 X-18.298 Y-15.067 E15.69137
G1 X-18.403 Y-15.800 E15.74582
G1 X-18.344 Y-16.209 E15.77616
G1 X-18.546 Y-16.434 F4800.000
G1 E13.77616 F2400.00000
G92 E0
G1 X15.940 Y-18.850 F4800.000
G1 E0.80000 F2400.00000
G1 X15.951 Y-19.159 E0.82275 F288.000
G1 X17.003 Y-19.159 E0.90003
G1 X17.480 Y-19.105 E0.93533
G1 X17.937 Y-18.945 E0.97086
G1 X18.346 Y-18.688 E1.00639
G1 X18.688 Y-18.346 E1.04192
G1 X18.945 Y-17.937 E1.07745
G1 X19.105 Y-17.480 E1.11298
G1 X19.164 Y-16.953 E1.15198
G1 X19.164 Y-16.364 E1.19524
G1 X18.891 Y-16.323 E1.21556
G1 X18.640 Y-17.137 E1.27814
G1 X18.123 Y-17.896 E1.34563
G1 X17.404 Y-18.468 E1.41312
G1 X16.550 Y-18.804 E1.48061
G1 X16.000 Y-18.845 E1.52113
G1 X15.639 Y-18.874 F4800.000
G1 X14.738 Y-18.668 E1.58899 F720.000
G1 X13.943 Y-18.209 E1.65649
G1 X13.318 Y-17.536 E1.72398
G1 X12.920 Y-16.708 E1.79147
G1 X12.783 Y-15.800 E1.85896
G1 X12.920 Y-14.892 E1.92645
G1 X13.318 Y-14.064 E1.99394
G1 X13.943 Y-13.391 E2.06144
G1 X14.738 Y-12.932 E2.12893
G1 X15.634 Y-12.727 E2.19642
G1 X16.550 Y-12.796 E2.26391
G1 X17.404 Y-13.132 E2.33140
G1 X18.123 Y-13.704 E2.39890
G1 X18.640 Y-14.463 E2.46639
G1 X18.891 Y-15.277 E2.52896
G1 X19.164 Y-15.236 E2.54929
G1 X19.164 Y15.300 E4.79320
G1 X18.891 Y15.341 E4.81352
G1 X18.640 Y14.527 E4.87610
G1 X18.123 Y13.768 E4.94359
G1 X17.404 Y13.196 E5.01108
G1 X16.550 Y12.860 E5.07857
G1 X15.634 Y12.791 E5.14606
G1 X15.462 Y12.831 E5.15899
G1 X14.738 Y12.996 E5.21356
G1 X13.943 Y13.455 E5.28105
G1 X13.318 Y14.128 E5.34854
G1 X12.920 Y14.956 E5.41603
G1 X12.783 Y15.864 E5.48352
G1 X12.920 Y16.772 E5.55102
G1 X13.318 Y17.600 E5.61851
G1 X13.943 Y18.273 E5.68600
G1 X14.738 Y18.732 E5.75349
G1 X15.382 Y18.879 E5.80202
G1 X15.350 Y19.164 E5.82312
G1 X-15.154 Y19.164 E8.06473
G1 X-15.203 Y18.903 E8.08430
G1 X-14.259 Y18.532 E8.15882
G1 X-13.541 Y17.960 E8.22631
G1 X-13.024 Y17.201 E8.29381
G1 X-12.753 Y16.323 E8.36130
G1 X-12.753 Y15.405 E8.42879
G1 X-13.024 Y14.527 E8.49628
G1 X-13.541 Y13.768 E8.56377
G1 X-14.259 Y13.196 E8.63127
G1 X-15.114 Y12.860 E8.69876
G1 X-16.030 Y12.791 E8.76625
G1 X-16.202 Y12.831 E8.77918
G1 X-16.926 Y12.996 E8.83374
G1 X-17.721 Y13.455 E8.90123
G1 X-18.346 Y14.128 E8.96873
G1 X-18.744 Y14.956 E9.03622
G1 X-18.867 Y15.771 E9.09677
G1 X-19.164 Y15.748 E9.11868
G1 X-19.164 Y-15.234 E11.39547
G1 X-18.866 Y-15.256 E11.41745
G1 X-18.817 Y-14.914 E11.44281
G1 X-18.445 Y-14.100 E11.50857
G1 X-17.859 Y-13.424 E11.57434
G1 X-17.106 Y-12.940 E11.64010
G1 X-16.247 Y-12.688 E11.70587
G1 X-15.353 Y-12.688 E11.77163
G1 X-14.494 Y-12.940 E11.83740
G1 X-13.741 Y-13.424 E11.90316
G1 X-13.155 Y-14.100 E11.96893
G1 X-12.783 Y-14.914 E12.03470
G1 X-12.656 Y-15.800 E12.10046
G1 X-12.783 Y-16.686 E12.16622
G1 X-13.155 Y-17.500 E12.23199
G1 X-13.741 Y-18.176 E12.29776
G1 X-14.494 Y-18.660 E12.36352
G1 X-15.272 Y-18.888 E12.42309
G1 X-15.232 Y-19.164 E12.44355
G1 X15.606 Y-19.159 E14.70975
G1 X15.632 Y-18.933 E14.72644
G1 X13.597 Y-18.624 F4800.000
G1 X12.871 Y-17.841 E14.80492 F288.000
G1 X12.402 Y-16.868 E14.88428
G1 X12.241 Y-15.800 E14.96364
G1 X12.402 Y-14.732 E15.04300
G1 X12.568 Y-14.387 E15.07113
G1 X12.359 Y-14.228 E15.09040
G1 X11.654 Y-14.845 E15.15927
G1 X10.025 Y-15.991 E15.30562
G1 X8.227 Y-16.985 E15.45661
G1 X6.392 Y-17.758 E15.60291
G1 X4.425 Y-18.351 E15.75389
G1 X4.465 Y-18.625 E15.77428
G1 X13.537 Y-18.624 E16.44093
G1 E14.44093 F2400.00000
G92 E0
G1 X14.467 Y-12.444 F4800.000
G1 E0.80000 F2400.00000
G1 X15.593 Y-12.187 E0.88492 F288.000
G1 X16.670 Y-12.268 E0.96428
G1 X17.675 Y-12.663 E1.04363
G1 X18.629 Y-13.423 E1.13325
G1 X18.629 Y-4.383 E1.79755
G1 X18.342 Y-4.352 E1.81878
G1 X18.212 Y-4.949 E1.86365
G1 X17.567 Y-6.897 E2.01440
G1 X16.769 Y-8.656 E2.15640
G1 X15.697 Y-10.476 E2.31162
G1 X14.545 Y-12.026 E2.45348
G1 X14.348 Y-12.240 E2.47488
G1 X14.437 Y-12.393 E2.48787
G1 E0.48787 F2400.00000
G92 E0
G1 X18.342 Y4.352 F4800.000
G1 E0.80000 F2400.00000
G1 X18.629 Y4.383 E0.82123 F288.000
G1 X18.629 Y13.487 E1.49025
G1 X17.675 Y12.727 E1.57987
G1 X16.670 Y12.332 E1.65922
