; generated by Slic3r 1.2.9 on 2021-10-22 at 21:25:40

; external perimeters extrusion width = 0.40mm
; perimeters extrusion width = 0.67mm
; infill extrusion width = 0.67mm
; solid infill extrusion width = 0.67mm
; top infill extrusion width = 0.67mm

M190 S70 ; set bed temperature
M104 S185 ; set temperature
G28 ; home all axes
G1 Z5 F5000 ; lift nozzle

M109 S185 ; wait for temperature to be reached
G21 ; set units to millimeters
G90 ; use absolute coordinates
M82 ; use absolute distances for extrusion
G92 E0
G1 E-6.00000 F3000.00000
G92 E0
G1 Z0.500 F4800.000
G1 X0.000 Y-27.071 F4800.000
G1 Z0.300 F4800.000
G1 E5.00000 F3000.00000
G1 X14.853 Y-27.071 E5.99224 F1080.000
G1 X15.956 Y-26.985 E6.06620
G1 X16.343 Y-26.924 E6.09232 F1080.000
G1 X18.451 Y-26.238 E6.24045
G1 X18.801 Y-26.060 E6.26667
G1 X20.588 Y-24.761 E6.41424
G1 X20.864 Y-24.485 E6.44031
G1 X21.606 Y-23.611 E6.51692
G1 X30.074 Y-11.826 E7.48639
G1 X31.115 Y-9.697 E7.64472
G1 X31.403 Y-7.700 E7.77950
G1 X31.403 Y7.700 E8.80831
G1 X31.006 Y10.037 E8.96664
G1 X30.074 Y11.826 E9.10143
G1 X21.606 Y23.611 E10.07090
G1 X20.864 Y24.485 E10.14750
G1 X20.588 Y24.761 E10.17357
G1 X18.800 Y26.060 E10.32119
G1 X18.451 Y26.238 E10.34736
G1 X16.342 Y26.924 E10.49550
G1 X15.956 Y26.985 E10.52161
G1 X14.853 Y27.071 E10.59558
G1 X-22.647 Y27.071 E13.10078
G1 X-23.751 Y26.985 E13.17475
G1 X-24.137 Y26.924 E13.20085
G1 X-26.246 Y26.238 E13.34900
G1 X-26.595 Y26.060 E13.37517
G1 X-28.382 Y24.762 E13.52274
G1 X-28.659 Y24.485 E13.54886
G1 X-29.957 Y22.698 E13.69642
G1 X-30.136 Y22.349 E13.72265
G1 X-30.821 Y20.240 E13.87078
G1 X-30.882 Y19.854 E13.89690
G1 X-30.969 Y18.750 E13.97086
G1 X-30.969 Y-18.750 E16.47606
G1 X-30.882 Y-19.854 E16.55003
G1 X-30.821 Y-20.240 E16.57617
G1 X-30.136 Y-22.349 E16.72428
G1 X-29.957 Y-22.698 E16.75048
G1 X-28.658 Y-24.485 E16.89807
G1 X-28.382 Y-24.762 E16.92423
G1 X-26.595 Y-26.060 E17.07176
G1 X-26.246 Y-26.238 E17.09794
G1 X-24.137 Y-26.924 E17.24607
G1 X-23.750 Y-26.985 E17.27226
G1 X-22.647 Y-27.071 E17.34615
G1 X-0.060 Y-27.071 E18.85511
G1 X-0.060 Y-26.536 F4800.000
G1 X14.853 Y-26.536 E19.85135 F1080.000
G1 X15.873 Y-26.456 E19.91971
G1 X16.259 Y-26.394 E19.94583 F1080.000
G1 X18.208 Y-25.761 E20.08274
G1 X18.558 Y-25.583 E20.10896
G1 X20.209 Y-24.382 E20.24535
G1 X20.485 Y-24.106 E20.27142
G1 X21.171 Y-23.299 E20.34223
G1 X29.639 Y-11.514 E21.31169
G1 X30.626 Y-9.461 E21.46386
G1 X30.867 Y-7.700 E21.58258
G1 X30.867 Y7.700 E22.61138
G1 X30.470 Y9.943 E22.76356
G1 X29.639 Y11.514 E22.88227
G1 X21.171 Y23.299 E23.85174
G1 X20.485 Y24.106 E23.92254
G1 X20.209 Y24.382 E23.94862
G1 X18.557 Y25.583 E24.08505
G1 X18.208 Y25.761 E24.11122
G1 X16.259 Y26.395 E24.24814
G1 X15.873 Y26.456 E24.27425
G1 X14.853 Y26.536 E24.34261
G1 X-22.647 Y26.536 E26.84782
G1 X-23.668 Y26.456 E26.91618
G1 X-24.054 Y26.395 E26.94229
G1 X-26.003 Y25.761 E27.07921
G1 X-26.352 Y25.583 E27.10538
G1 X-28.003 Y24.383 E27.24177
G1 X-28.280 Y24.106 E27.26789
G1 X-29.480 Y22.455 E27.40428
G1 X-29.658 Y22.105 E27.43049
G1 X-30.292 Y20.156 E27.56741
G1 X-30.353 Y19.770 E27.59352
G1 X-30.433 Y18.750 E27.66189
G1 X-30.433 Y-18.750 E30.16709
G1 X-30.353 Y-19.770 E30.23545
G1 X-30.292 Y-20.157 E30.26159
G1 X-29.658 Y-22.105 E30.39848
G1 X-29.480 Y-22.455 E30.42468
G1 X-28.280 Y-24.106 E30.56109
G1 X-28.003 Y-24.383 E30.58725
G1 X-26.352 Y-25.583 E30.72360
G1 X-26.003 Y-25.761 E30.74978
G1 X-24.054 Y-26.395 E30.88669
G1 X-23.667 Y-26.456 E30.91287
G1 X-22.647 Y-26.536 E30.98116
G1 X-0.120 Y-26.536 E32.48611
G1 F3840
G1 X7.560 Y-26.536 E26.78611
G1 E26.48611 F3000.00000
G92 E0
G1 Z0.800 F4800.000
G1 X-0.120 Y-21.339 F4800.000
G1 Z0.300 F4800.000
G1 E5.00000 F3000.00000
G1 X15.010 Y-21.331 E6.01075 F1080.000
G1 X15.552 Y-21.245 E6.04742 F1080.000
G1 X15.753 Y-21.180 E6.06154
G1 X16.290 Y-20.906 E6.10180
G1 X16.460 Y-20.782 E6.11586
G1 X16.885 Y-20.357 E6.15600
G1 X17.009 Y-20.187 E6.17006
G1 X17.282 Y-19.650 E6.21031
G1 X17.348 Y-19.449 E6.22443
G1 X17.442 Y-18.803 E6.26810
G1 X17.442 Y-9.353 E6.89939
G1 X17.755 Y-9.039 E6.92904
G1 X24.886 Y-9.039 E7.40541
G1 X25.671 Y-8.255 E7.47952
G1 X25.671 Y-4.145 E7.75404
G1 X24.847 Y-3.322 E7.83184
G1 X24.847 Y-2.878 E7.86149
G1 X25.671 Y-2.055 E7.93929
G1 X25.671 Y2.055 E8.21381
G1 X24.847 Y2.878 E8.29161
G1 X24.847 Y3.322 E8.32126
G1 X25.671 Y4.145 E8.39906
G1 X25.671 Y8.255 E8.67358
G1 X24.886 Y9.039 E8.74769
G1 X17.755 Y9.039 E9.22407
G1 X17.442 Y9.353 E9.25371
G1 X17.442 Y18.803 E9.88500
G1 X17.348 Y19.449 E9.92867
G1 X17.282 Y19.650 E9.94279
G1 X17.009 Y20.187 E9.98304
G1 X16.885 Y20.357 E9.99710
G1 X16.460 Y20.782 E10.03725
G1 X16.290 Y20.906 E10.05132
G1 X15.753 Y21.180 E10.09157
G1 X15.552 Y21.245 E10.10569
G1 X14.905 Y21.339 E10.14935
G1 X-22.700 Y21.339 E12.66156
G1 X-23.347 Y21.245 E12.70523
G1 X-23.548 Y21.180 E12.71935
G1 X-24.085 Y20.906 E12.75960
G1 X-24.334 Y20.703 E12.78112
G1 X-24.680 Y20.357 E12.81374
G1 X-24.803 Y20.187 E12.82780
G1 X-25.077 Y19.650 E12.86807
G1 X-25.143 Y19.449 E12.88218
G1 X-25.236 Y18.802 E12.92585
G1 X-25.236 Y-18.802 E15.43807
G1 X-25.143 Y-19.449 E15.48174
G1 X-25.077 Y-19.650 E15.49585
G1 X-24.803 Y-20.187 E15.53611
G1 X-24.680 Y-20.357 E15.55017
G1 X-24.334 Y-20.703 E15.58279
G1 X-24.084 Y-20.906 E15.60432
G1 X-23.548 Y-21.180 E15.64457
G1 X-23.347 Y-21.245 E15.65869
G1 X-22.700 Y-21.339 E15.70236
G1 X-0.180 Y-21.339 E17.20680
G1 X-0.180 Y-20.803 F4800.000
G1 X14.884 Y-20.803 E18.21317 F1080.000
G1 X15.427 Y-20.723 E18.24981 F1080.000
G1 X15.547 Y-20.684 E18.25828
G1 X16.009 Y-20.448 E18.29291
G1 X16.111 Y-20.374 E18.30134
G1 X16.476 Y-20.008 E18.33585
G1 X16.551 Y-19.906 E18.34429
G1 X16.786 Y-19.445 E18.37891
G1 X16.825 Y-19.324 E18.38738
G1 X16.906 Y-18.782 E18.42403
G1 X16.906 Y-8.817 E19.08970
G1 X17.220 Y-8.503 E19.11934
G1 X24.664 Y-8.503 E19.61668
G1 X25.135 Y-8.033 E19.66114
G1 X25.135 Y-4.367 E19.90602
G1 X24.664 Y-3.897 E19.95049
G1 X17.220 Y-3.897 E20.44783
G1 X16.906 Y-3.583 E20.47747
G1 X16.906 Y-2.617 E20.54198
G1 X17.220 Y-2.303 E20.57162
G1 X24.664 Y-2.303 E21.06896
G1 X25.135 Y-1.833 E21.11342
G1 X25.135 Y1.833 E21.35830
G1 X24.664 Y2.303 E21.40277
G1 X17.220 Y2.303 E21.90011
G1 X16.906 Y2.617 E21.92975
G1 X16.906 Y3.583 E21.99426
G1 X17.220 Y3.897 E22.02390
G1 X24.664 Y3.897 E22.52124
G1 X25.135 Y4.367 E22.56570
G1 X25.135 Y8.033 E22.81059
G1 X24.664 Y8.503 E22.85505
G1 X17.220 Y8.503 E23.35239
G1 X16.906 Y8.817 E23.38203
G1 X16.906 Y18.782 E24.04770
G1 X16.825 Y19.324 E24.08434
G1 X16.786 Y19.445 E24.09282
G1 X16.551 Y19.906 E24.12744
G1 X16.476 Y20.008 E24.13587
G1 X16.111 Y20.374 E24.17039
G1 X16.009 Y20.448 E24.17883
G1 X15.547 Y20.684 E24.21345
G1 X15.427 Y20.723 E24.22192
G1 X14.884 Y20.803 E24.25856
G1 X-22.679 Y20.803 E26.76797
G1 X-23.221 Y20.723 E26.80461
G1 X-23.342 Y20.683 E26.81309
G1 X-23.804 Y20.448 E26.84771
G1 X-23.956 Y20.324 E26.86082
G1 X-24.271 Y20.008 E26.89062
G1 X-24.345 Y19.906 E26.89906
G1 X-24.581 Y19.445 E26.93369
G1 X-24.620 Y19.324 E26.94215
G1 X-24.701 Y18.781 E26.97880
G1 X-24.701 Y-18.781 E29.48821
G1 X-24.620 Y-19.324 E29.52485
G1 X-24.581 Y-19.445 E29.53332
G1 X-24.345 Y-19.906 E29.56795
G1 X-24.271 Y-20.008 E29.57638
G1 X-23.956 Y-20.324 E29.60619
G1 X-23.804 Y-20.448 E29.61930
G1 X-23.342 Y-20.684 E29.65392
G1 X-23.221 Y-20.723 E29.66239
G1 X-22.679 Y-20.803 E29.69903
G1 X-0.240 Y-20.803 E31.19807
G1 X-0.240 Y-20.268 F4800.000
G1 X14.884 Y-20.266 E32.20844 F1080.000
G1 X15.341 Y-20.187 E32.23945 F1080.000
G1 X15.762 Y-19.965 E32.27122
G1 X16.093 Y-19.625 E32.30289
G1 X16.290 Y-19.239 E32.33188
G1 X16.369 Y-18.781 E32.36289
G1 X16.370 Y-8.282 E33.06434
G1 X16.684 Y-7.968 E33.09398
G1 X24.443 Y-7.968 E33.61228
G1 X24.599 Y-7.811 E33.62710
G1 X24.599 Y-4.589 E33.84234
G1 X24.443 Y-4.432 E33.85716
G1 X16.684 Y-4.432 E34.37546
G1 X16.370 Y-4.118 E34.40510
G1 X16.370 Y-2.082 E34.54118
G1 X16.684 Y-1.768 E34.57082
G1 X24.443 Y-1.768 E35.08912
G1 X24.599 Y-1.611 E35.10394
G1 X24.599 Y1.611 E35.31918
G1 X24.443 Y1.768 E35.33400
G1 X16.684 Y1.768 E35.85230
G1 X16.370 Y2.082 E35.88194
G1 X16.370 Y4.118 E36.01801
G1 X16.684 Y4.432 E36.04766
G1 X24.443 Y4.432 E36.56595
G1 X24.599 Y4.589 E36.58078
G1 X24.599 Y7.811 E36.79601
G1 X24.443 Y7.968 E36.81084
G1 X16.684 Y7.968 E37.32913
G1 X16.370 Y8.282 E37.35878
G1 X16.370 Y18.761 E38.05883
G1 X16.290 Y19.239 E38.09124
G1 X16.068 Y19.659 E38.12301
G1 X15.728 Y19.990 E38.15468
G1 X15.341 Y20.187 E38.18367
G1 X14.863 Y20.268 E38.21607
G1 X-22.658 Y20.268 E40.72268
G1 X-23.096 Y20.200 E40.75230
G1 X-23.523 Y19.990 E40.78408
G1 X-23.887 Y19.625 E40.81852
G1 X-24.098 Y19.199 E40.85030
G1 X-24.165 Y18.760 E40.87992
G1 X-24.165 Y-18.760 E43.38653
G1 X-24.098 Y-19.199 E43.41615
G1 X-23.887 Y-19.625 E43.44793
G1 X-23.523 Y-19.990 E43.48237
G1 X-23.096 Y-20.200 E43.51415
G1 X-22.658 Y-20.268 E43.54377
G1 X-0.300 Y-20.268 E45.03740
G1 X-0.300 Y-19.700 F4800.000
G1 X14.829 Y-19.700 E46.04810 F420.000
G1 X15.119 Y-19.654 E46.06772
G1 X15.411 Y-19.513 E46.08940 F420.000
G1 X15.618 Y-19.306 E46.10892
G1 X15.753 Y-19.042 E46.12874
G1 X15.803 Y-18.726 E46.15009
G1 X15.803 Y-7.400 E46.90676
G1 X24.032 Y-7.400 E47.45650
G1 X24.032 Y-5.000 E47.61683
G1 X15.803 Y-5.000 E48.16657
G1 X15.803 Y-1.200 E48.42043
G1 X24.032 Y-1.200 E48.97017
G1 X24.032 Y1.200 E49.13050
G1 X15.803 Y1.200 E49.68024
G1 X15.803 Y5.000 E49.93410
G1 X24.032 Y5.000 E50.48384
G1 X24.032 Y7.400 E50.64417
G1 X15.803 Y7.400 E51.19391
G1 X15.803 Y18.726 E51.95058
G1 X15.753 Y19.042 E51.97193
G1 X15.618 Y19.306 E51.99175
G1 X15.409 Y19.515 E52.01149
G1 X15.145 Y19.650 E52.03131
G1 X14.829 Y19.700 E52.05266
G1 X-22.624 Y19.700 E54.55471
G1 X-22.940 Y19.650 E54.57607
G1 X-23.204 Y19.515 E54.59589
G1 X-23.413 Y19.306 E54.61562
G1 X-23.547 Y19.042 E54.63544
G1 X-23.597 Y18.726 E54.65679
G1 X-23.597 Y-18.726 E57.15885
G1 X-23.547 Y-19.042 E57.18020
G1 X-23.413 Y-19.306 E57.20002
G1 X-23.204 Y-19.515 E57.21976
G1 X-22.940 Y-19.650 E57.23958
G1 X-22.624 Y-19.700 E57.26093
G1 X-0.360 Y-19.700 E58.74827
G1 X-0.100 Y-19.354 F4800.000
G1 F3840
G1 X7.320 Y-19.700 E53.04827
G1 E52.74827 F3000.00000
G92 E0
G1 Z0.800 F4800.000
G1 X-22.780 Y4.103 F4800.000
G1 Z0.300 F4800.000
G1 E5.00000 F3000.00000
G1 X-22.401 Y5.613 E5.10402 F840.000
G1 X-21.762 Y7.400 E5.23080 F840.000
G1 X-20.951 Y9.115 E5.35757
G1 X-19.975 Y10.743 E5.48433
G1 X-18.845 Y12.267 E5.61111
G1 X-17.570 Y13.673 E5.73788
G1 X-16.164 Y14.947 E5.86465
G1 X-14.640 Y16.078 E5.99142
G1 X-13.013 Y17.053 E6.11819
G1 X-11.297 Y17.865 E6.24496
G1 X-9.511 Y18.504 E6.37173
G1 X-8.000 Y18.882 E6.47576
G1 X-8.035 Y19.164 E6.49474
G1 X-22.582 Y19.164 E7.46656
G1 X-22.772 Y19.134 E7.47942
G1 X-22.885 Y19.077 E7.48790
G1 X-22.974 Y18.988 E7.49631
G1 X-23.032 Y18.875 E7.50479
G1 X-23.062 Y18.684 E7.51765
G1 X-23.062 Y4.137 E8.48947
G1 X-22.839 Y4.110 E8.50444
G1 X-21.642 Y18.531 F4800.000
G1 X-21.523 Y18.629 E8.51476 F288.000
G1 X-22.526 Y18.629 E8.58181
G1 X-22.526 Y17.625 E8.64885
G1 X-22.074 Y18.176 E8.69649
G1 X-21.688 Y18.493 E8.72980 F288.000
G1 F3840
G1 X-21.523 Y18.629 E8.57061
G1 F3840
G1 X-22.526 Y18.629 E7.82574
G1 F3840
G1 X-22.526 Y17.625 E7.08091
G1 F3840
G1 X-22.074 Y18.176 E6.55164
G1 E2.72980 F3000.00000
G92 E0
G1 Z0.800 F4800.000
G1 X-16.856 Y15.633 F4800.000
G1 Z0.300 F4800.000
G1 E5.00000 F3000.00000
G1 X-16.919 Y14.986 E5.04346 F288.000
G1 X-16.505 Y15.362 E5.08085
G1 X-14.938 Y16.524 E5.21114 F288.000
G1 X-13.265 Y17.526 E5.34142
G1 X-11.465 Y18.378 E5.47447
G1 X-11.521 Y18.629 E5.49165
G1 X-18.272 Y18.629 E5.94264
G1 X-17.721 Y18.176 E5.99027
G1 X-17.338 Y17.710 E6.03058
G1 X-17.054 Y17.178 E6.07089
G1 X-16.879 Y16.601 E6.11120
G1 X-16.820 Y16.000 E6.15151
G1 X-16.850 Y15.693 E6.17211
G1 X-19.960 Y11.662 F4800.000
G1 X-19.259 Y12.607 E6.25070 F288.000
G1 X-18.891 Y13.014 E6.28735
G1 X-19.932 Y12.925 E6.35713
G1 X-20.498 Y12.981 E6.39514
G1 X-21.075 Y13.156 E6.43544
G1 X-21.607 Y13.441 E6.47576
G1 X-22.074 Y13.824 E6.51606
G1 X-22.526 Y14.375 E6.56370
G1 X-22.526 Y7.624 E7.01469
G1 X-22.275 Y7.568 E7.03187
G1 X-21.424 Y9.368 E7.16491
G1 X-20.421 Y11.041 E7.29520 F288.000
G1 X-19.996 Y11.614 E7.34289
G1 X-19.924 Y14.001 F4800.000
G1 X-19.509 Y14.036 E7.37074 F288.000
G1 X-19.131 Y14.151 E7.39709
G1 X-18.785 Y14.336 E7.42330
G1 X-18.482 Y14.585 E7.44951
G1 X-18.233 Y14.888 E7.47572
G1 X-18.048 Y15.234 E7.50193
G1 X-17.934 Y15.609 E7.52814
G1 X-17.896 Y16.000 E7.55436
G1 X-17.934 Y16.391 E7.58057
G1 X-18.048 Y16.766 E7.60678
G1 X-18.233 Y17.112 E7.63299
G1 X-18.482 Y17.415 E7.65920
G1 X-18.785 Y17.664 E7.68541
G1 X-19.131 Y17.849 E7.71163
G1 X-19.507 Y17.963 E7.73784
G1 X-19.897 Y18.001 E7.76405
G1 X-20.288 Y17.963 E7.79026
G1 X-20.663 Y17.849 E7.81647
G1 X-21.009 Y17.664 E7.84268
G1 X-21.313 Y17.415 E7.86889
G1 X-21.562 Y17.112 E7.89510
G1 X-21.746 Y16.766 E7.92131
G1 X-21.860 Y16.391 E7.94752
G1 X-21.899 Y16.000 E7.97374
G1 X-21.860 Y15.609 E7.99995
G1 X-21.746 Y15.234 E8.02616
G1 X-21.562 Y14.888 E8.05237
G1 X-21.313 Y14.585 E8.07859
G1 X-21.009 Y14.336 E8.10480
G1 X-20.663 Y14.151 E8.13101
G1 X-20.288 Y14.037 E8.15722
G1 X-19.984 Y14.007 E8.17761 F288.000
G1 X-19.716 Y13.660 F4800.000
G1 X-20.037 Y13.474 F4800.000
G1 X-19.928 Y13.463 E8.18490 F288.000
G1 X-19.407 Y13.508 E8.21980
G1 X-18.926 Y13.654 E8.25344
G1 X-18.486 Y13.888 E8.28671
G1 X-18.102 Y14.204 E8.31996
G1 X-17.786 Y14.589 E8.35322
G1 X-17.551 Y15.028 E8.38648
G1 X-17.407 Y15.504 E8.41974
G1 X-17.358 Y16.000 E8.45301
G1 X-17.407 Y16.496 E8.48627
G1 X-17.551 Y16.972 E8.51953
G1 X-17.786 Y17.411 E8.55279
G1 X-18.102 Y17.796 E8.58605
G1 X-18.486 Y18.112 E8.61931
G1 X-18.926 Y18.346 E8.65257
G1 X-19.402 Y18.491 E8.68583
G1 X-19.897 Y18.540 E8.71908
G1 X-20.393 Y18.491 E8.75234
G1 X-20.869 Y18.346 E8.78560
G1 X-21.308 Y18.112 E8.81886
G1 X-21.693 Y17.796 E8.85212
G1 X-22.009 Y17.411 E8.88538
G1 X-22.244 Y16.972 E8.91864
G1 X-22.388 Y16.496 E8.95190
G1 X-22.437 Y16.000 E8.98516
G1 X-22.388 Y15.504 E9.01843
G1 X-22.244 Y15.028 E9.05169
G1 X-22.009 Y14.589 E9.08495
G1 X-21.693 Y14.204 E9.11821
G1 X-21.308 Y13.888 E9.15146
G1 X-20.869 Y13.654 E9.18473
G1 X-20.393 Y13.509 E9.21798
G1 X-20.096 Y13.480 E9.23789 F288.000
G1 F3840
G1 X-19.928 Y13.463 E9.11237
G1 F3840
G1 X-19.407 Y13.508 E8.72465
G1 F3840
G1 X-18.926 Y13.654 E8.35090
G1 F3840
G1 X-18.486 Y13.888 E7.98137
G1 F3840
G1 X-18.102 Y14.204 E7.61188
G1 F3840
G1 X-17.786 Y14.589 E7.24237
G1 F3840
G1 X-17.551 Y15.028 E6.87286
G1 F3840
G1 X-17.407 Y15.504 E6.50337
G1 F3840
G1 X-17.358 Y16.000 E6.13382
G1 F3840
G1 X-17.407 Y16.496 E5.76428
G1 F3840
G1 X-17.551 Y16.972 E5.39478
G1 F3840
G1 X-17.786 Y17.411 E5.02527
G1 F3840
G1 X-18.102 Y17.796 E4.65576
G1 F3840
G1 X-18.486 Y18.112 E4.28628
G1 F3840
G1 X-18.926 Y18.346 E3.91674
G1 F3840
G1 X-19.402 Y18.491 E3.54727
G1 F3840
G1 X-19.415 Y18.492 E3.53789
G1 E3.23789 F3000.00000
G92 E0
G1 Z0.800 F4800.000
G1 X0.205 Y18.882 F4800.000
G1 Z0.300 F4800.000
G1 E5.00000 F3000.00000
G1 X1.716 Y18.504 E5.10403 F840.000
G1 X3.502 Y17.865 E5.23080
G1 X5.218 Y17.053 E5.35757
G1 X6.845 Y16.078 E5.48433
G1 X8.370 Y14.947 E5.61111
G1 X9.776 Y13.673 E5.73788
G1 X11.050 Y12.267 E5.86465
G1 X12.180 Y10.743 E5.99142
G1 X13.156 Y9.115 E6.11819
G1 X13.967 Y7.400 E6.24496
G1 X14.607 Y5.613 E6.37173
G1 X14.985 Y4.103 E6.47576
G1 X15.267 Y4.137 E6.49475
G1 X15.267 Y5.536 E6.58816 F840.000
G1 X23.496 Y5.536 E7.13790
G1 X23.496 Y6.864 E7.22667
G1 X15.267 Y6.864 E7.77641
G1 X15.267 Y18.684 E8.56605
G1 X15.237 Y18.875 E8.57891
G1 X15.179 Y18.988 E8.58739
G1 X15.090 Y19.077 E8.59580
G1 X14.977 Y19.134 E8.60428
G1 X14.787 Y19.164 E8.61714
G1 X0.240 Y19.164 E9.58896
G1 X0.213 Y18.942 E9.60393
G1 X14.731 Y11.280 F4800.000
G1 X14.731 Y14.375 E9.81070 F288.000
G1 X14.279 Y13.824 E9.85833
G1 X13.813 Y13.441 E9.89864
G1 X13.280 Y13.156 E9.93895
G1 X12.694 Y12.979 E9.97989
G1 X12.068 Y12.925 E10.02184
G1 X11.089 Y13.022 E10.08761
G1 X11.465 Y12.607 E10.12501
G1 X12.626 Y11.041 E10.25530
G1 X13.629 Y9.368 E10.38558
G1 X14.480 Y7.568 E10.51862
G1 X14.731 Y7.624 E10.53580
G1 X14.731 Y11.220 E10.77602 F288.000
G1 X14.240 Y18.208 F4800.000
