;FLAVOR:Marlin
;TIME:4163
;Filament used: 2.27421m
;Layer height: 0.2
;MINX:-14.199
;MINY:-21.83
;MINZ:0.3
;MAXX:12.161
;MAXY:21.83
;MAXZ:38.79
;Generated with Cura_SteamEngine 4.13.1
M140 S65
M105
M190 S65
M104 S200
M105
M109 S200
M82 ;absolute extrusion mode
M190 S65 ; set bed temperature
M104 S190 ; set temperature
G28 ; home all axes
G1 Z100 F9000
M109 S190 ; wait for temperature to be reached
G21 ; set units to millimeters
G90 ; use absolute coordinates
M82 ; use absolute distances for extrusion
G92 E0

G1 Z0.300 F4800.000
G1 X0.000 Y70.000 F4800.000
G1 X40.000 Y50.000 E10.000 F1080.000

G1 Z5 F5000 ; lift nozzle
G92 E0
G92 E0
G1 F750 E-6.5
;LAYER_COUNT:172
;LAYER:0
M107
G0 F3600 X3.405 Y-0.089 Z0.3
;TYPE:SKIRT
G1 F750 E0
G1 F900 X3.335 Y-.829 E0.0445
G1 X3.148 Y-1.549 E0.08904
G1 X2.844 Y-2.246 E0.13456
G1 X2.425 Y-2.899 E0.18101
G1 X1.938 Y-3.445 E0.22481
G1 X1.345 Y-3.928 E0.2706
G1 X0.7 Y-4.302 E0.31524
G1 X-0.024 Y-4.579 E0.36165
G1 X-.717 Y-4.725 E0.40404
G1 X-11.991 Y-4.725 E1.079
G1 X-12.691 Y-4.855 E1.12162
G1 X-13.031 Y-4.99 E1.14352
G1 X-13.428 Y-5.281 E1.17299
G1 X-13.864 Y-5.769 E1.21217
G1 X-14.074 Y-6.244 E1.24326
G1 X-14.199 Y-6.932 E1.28513
G1 X-14.199 Y-19.623 E2.04492
G1 X-14.074 Y-20.311 E2.08678
G1 X-13.941 Y-20.653 E2.10875
G1 X-13.633 Y-21.071 E2.13983
G1 X-13.141 Y-21.501 E2.17895
G1 X-12.691 Y-21.7 E2.20841
G1 X-11.991 Y-21.83 E2.25103
G1 X9.848 Y-21.83 E3.5585
G1 X10.212 Y-21.79 E3.58042
G1 X10.558 Y-21.672 E3.60231
G1 X10.871 Y-21.482 E3.62423
G1 X11.136 Y-21.229 E3.64616
G1 X11.339 Y-20.925 E3.66805
G1 X11.471 Y-20.583 E3.68999
G1 X11.528 Y-20.15 E3.71614
G1 X11.528 Y20.15 E6.12883
G1 X11.488 Y20.514 E6.15075
G1 X11.37 Y20.86 E6.17264
G1 X11.18 Y21.173 E6.19456
G1 X10.927 Y21.438 E6.21649
G1 X10.623 Y21.641 E6.23838
G1 X10.281 Y21.773 E6.26033
G1 X9.848 Y21.83 E6.28647
G1 X-11.991 Y21.83 E7.59393
G1 X-12.691 Y21.7 E7.63656
G1 X-13.031 Y21.565 E7.65846
G1 X-13.428 Y21.274 E7.68793
G1 X-13.864 Y20.786 E7.72711
G1 X-14.074 Y20.311 E7.7582
G1 X-14.199 Y19.623 E7.80006
G1 X-14.199 Y6.987 E8.55656
G1 X-14.074 Y6.299 E8.59842
G1 X-13.941 Y5.957 E8.62039
G1 X-13.639 Y5.545 E8.65097
G1 X-13.148 Y5.111 E8.69021
G1 X-12.679 Y4.905 E8.72087
G1 X-11.991 Y4.78 E8.76274
G1 X-1.448 Y4.78 E9.39393
G1 X-.616 Y4.715 E9.44389
G1 X0.123 Y4.536 E9.48941
G1 X0.817 Y4.245 E9.53447
G1 X1.467 Y3.841 E9.58028
G1 X2.037 Y3.346 E9.62548
G1 X2.518 Y2.773 E9.67027
G1 X2.908 Y2.122 E9.7157
G1 X3.186 Y1.429 E9.7604
G1 X3.355 Y0.68 E9.80637
G1 X3.405 Y-0.089 E9.85251
G0 F3600 X3.886 Y-0.097
G1 F900 X3.81 Y-.907 E9.90122
G1 X3.602 Y-1.711 E9.95093
G1 X3.269 Y-2.472 E10.00066
G1 X2.808 Y-3.191 E10.0518
G1 X2.272 Y-3.791 E10.09996
G1 X1.614 Y-4.328 E10.15081
G1 X0.907 Y-4.737 E10.19971
G1 X0.116 Y-5.041 E10.25044
G1 X-.666 Y-5.205 E10.29828
G1 X-11.991 Y-5.205 E10.97629
G1 X-12.564 Y-5.318 E11.01125
G1 X-12.849 Y-5.437 E11.02974
G1 X-13.295 Y-5.825 E11.06513
G1 X-13.485 Y-6.069 E11.08365
G1 X-13.678 Y-6.622 E11.11871
G1 X-13.719 Y-6.932 E11.13743
G1 X-13.719 Y-19.623 E11.89722
G1 X-13.61 Y-20.187 E11.93161
G1 X-13.492 Y-20.473 E11.95013
G1 X-13.09 Y-20.933 E11.98671
G1 X-12.844 Y-21.12 E12.00521
G1 X-12.309 Y-21.307 E12.03914
G1 X-11.991 Y-21.35 E12.05835
G1 X9.848 Y-21.35 E13.36581
G1 X10.155 Y-21.31 E13.38435
G1 X10.441 Y-21.193 E13.40285
G1 X10.688 Y-21.007 E13.42136
G1 X10.879 Y-20.764 E13.43986
G1 X11.002 Y-20.48 E13.45839
G1 X11.048 Y-20.15 E13.47834
G1 X11.048 Y20.15 E15.89103
G1 X11.008 Y20.457 E15.90956
G1 X10.891 Y20.743 E15.92806
G1 X10.705 Y20.99 E15.94657
G1 X10.462 Y21.181 E15.96508
G1 X10.178 Y21.304 E15.98361
G1 X9.848 Y21.35 E16.00355
G1 X-11.991 Y21.35 E17.31102
G1 X-12.564 Y21.237 E17.34598
G1 X-12.849 Y21.118 E17.36447
G1 X-13.295 Y20.73 E17.39986
G1 X-13.485 Y20.486 E17.41838
G1 X-13.678 Y19.933 E17.45344
G1 X-13.719 Y19.623 E17.47216
G1 X-13.719 Y6.987 E18.22866
G1 X-13.61 Y6.423 E18.26305
G1 X-13.492 Y6.137 E18.28157
G1 X-13.095 Y5.679 E18.31786
G1 X-12.85 Y5.491 E18.33635
G1 X-12.3 Y5.301 E18.37118
G1 X-11.991 Y5.26 E18.38985
G1 X-1.424 Y5.26 E19.02247
G1 X-.545 Y5.192 E19.07525
G1 X0.273 Y4.993 E19.12566
G1 X1.041 Y4.671 E19.17551
G1 X1.752 Y4.229 E19.22563
G1 X2.377 Y3.686 E19.2752
G1 X2.911 Y3.05 E19.32492
G1 X3.34 Y2.336 E19.37479
G1 X3.648 Y1.567 E19.42438
G1 X3.832 Y0.753 E19.47434
G1 X3.886 Y-0.097 E19.52533
G0 F3600 X4.368 Y-.105
G1 F900 X4.284 Y-.992 E19.57867
G1 X4.057 Y-1.869 E19.63291
G1 X3.694 Y-2.698 E19.68709
G1 X3.192 Y-3.481 E19.74277
G1 X2.601 Y-4.143 E19.7959
G1 X1.893 Y-4.721 E19.85062
G1 X1.112 Y-5.173 E19.90464
G1 X0.256 Y-5.501 E19.95952
G1 X-.621 Y-5.685 E20.01317
G1 X-11.991 Y-5.685 E20.69387
G1 X-12.437 Y-5.781 E20.72118
G1 X-12.753 Y-5.963 E20.74302
G1 X-13.097 Y-6.361 E20.77451
G1 X-13.215 Y-6.746 E20.79862
G1 X-13.239 Y-6.932 E20.80985
G1 X-13.239 Y-19.623 E21.56963
G1 X-13.147 Y-20.063 E21.59655
G1 X-12.958 Y-20.389 E21.61911
G1 X-12.557 Y-20.729 E21.65058
G1 X-12.182 Y-20.844 E21.67406
G1 X-11.991 Y-20.87 E21.6856
G1 X9.848 Y-20.87 E22.99307
G1 X10.084 Y-20.83 E23.0074
G1 X10.294 Y-20.715 E23.02173
G1 X10.454 Y-20.538 E23.03602
G1 X10.548 Y-20.318 E23.05034
G1 X10.568 Y-20.15 E23.06047
G1 X10.568 Y20.15 E25.47316
G1 X10.528 Y20.386 E25.48749
G1 X10.413 Y20.596 E25.50182
G1 X10.236 Y20.756 E25.51611
G1 X10.016 Y20.85 E25.53043
G1 X9.848 Y20.87 E25.54056
G1 X-11.991 Y20.87 E26.84802
G1 X-12.437 Y20.774 E26.87533
G1 X-12.753 Y20.592 E26.89717
G1 X-13.097 Y20.194 E26.92866
G1 X-13.215 Y19.809 E26.95277
G1 X-13.239 Y19.623 E26.96399
G1 X-13.239 Y6.987 E27.72049
G1 X-13.147 Y6.547 E27.7474
G1 X-12.96 Y6.224 E27.76975
G1 X-12.56 Y5.88 E27.80133
G1 X-12.177 Y5.764 E27.82529
G1 X-11.991 Y5.74 E27.83652
G1 X-1.412 Y5.74 E28.46986
G1 X-.468 Y5.667 E28.52655
G1 X0.428 Y5.449 E28.58175
G1 X1.255 Y5.102 E28.63545
G1 X2.041 Y4.614 E28.69084
G1 X2.721 Y4.024 E28.74473
G1 X3.305 Y3.327 E28.79917
G1 X3.772 Y2.548 E28.85355
G1 X4.107 Y1.71 E28.90758
G1 X4.308 Y0.82 E28.9622
G1 X4.368 Y-.105 E29.0177
G0 F3600 X4.846 Y-.145
G1 F900 X4.76 Y-1.061 E29.07278
G1 X4.753 Y-1.099 E29.07509
G1 X4.508 Y-2.036 E29.13307
G1 X4.116 Y-2.93 E29.19152
G1 X3.575 Y-3.773 E29.25148
G1 X2.935 Y-4.489 E29.30898
G1 X2.166 Y-5.117 E29.36842
G1 X1.318 Y-5.608 E29.42708
G1 X0.39 Y-5.964 E29.48659
G1 X-.569 Y-6.165 E29.54525
G1 X-11.991 Y-6.165 E30.22906
G1 X-12.31 Y-6.244 E30.24874
G1 X-12.62 Y-6.507 E30.27308
G1 X-12.751 Y-6.87 E30.29618
G1 X-12.759 Y-6.932 E30.29992
G1 X-12.759 Y-19.623 E31.05971
G1 X-12.683 Y-19.939 E31.07917
G1 X-12.415 Y-20.251 E31.10379
G1 X-12.055 Y-20.381 E31.12671
G1 X-11.991 Y-20.39 E31.13058
G1 X9.848 Y-20.39 E32.43804
G1 X9.979 Y-20.351 E32.44622
G1 X10.068 Y-20.246 E32.45446
G1 X10.088 Y-20.15 E32.46033
G1 X10.088 Y20.15 E34.87302
G1 X10.049 Y20.281 E34.88121
G1 X9.944 Y20.37 E34.88945
G1 X9.848 Y20.39 E34.89532
G1 X-11.991 Y20.39 E36.20278
G1 X-12.31 Y20.311 E36.22246
G1 X-12.62 Y20.048 E36.24679
G1 X-12.751 Y19.685 E36.2699
G1 X-12.759 Y19.623 E36.27364
G1 X-12.759 Y6.987 E37.03014
G1 X-12.683 Y6.671 E37.04959
G1 X-12.416 Y6.358 E37.07422
G1 X-12.053 Y6.228 E37.09731
G1 X-11.991 Y6.22 E37.10105
G1 X-1.388 Y6.22 E37.73583
G1 X-.392 Y6.143 E37.79564
G1 X0.571 Y5.908 E37.85498
G1 X1.468 Y5.533 E37.91319
G1 X2.33 Y5 E37.97387
G1 X3.064 Y4.362 E38.03209
G1 X3.692 Y3.613 E38.09061
G1 X4.2 Y2.768 E38.14963
G1 X4.56 Y1.871 E38.2075
G1 X4.572 Y1.831 E38.21
G1 X4.785 Y0.888 E38.26788
G1 X4.848 Y-.1 E38.32715
G1 X4.846 Y-.145 E38.32984
G1 F750 E31.82984
;MESH:HE Fan Duct.stl
G0 F3600 X5.362 Y2.152
G0 X4.23 Y5.682
G0 X-1.315 Y7.981
G0 X-10.987 Y7.992
G0 X-10.987 Y18.618
G0 X9.158 Y19.49
G1 F750 E38.32984
G0 F3600 X9.458 Y19.76
;TYPE:WALL-OUTER
G1 F900 X-11.936 Y19.76 E39.61066
G1 X-12.101 Y19.676 E39.62175
G1 X-12.129 Y19.569 E39.62837
G1 X-12.129 Y7.041 E40.3784
G1 X-12.044 Y6.878 E40.38941
G1 X-11.938 Y6.85 E40.39597
G1 X-1.36 Y6.85 E41.02926
G1 X-.294 Y6.767 E41.09327
G1 X0.751 Y6.514 E41.15764
G1 X0.814 Y6.49 E41.16167
G1 X1.744 Y6.101 E41.22203
G1 X1.804 Y6.069 E41.2261
G1 X2.663 Y5.537 E41.28659
G1 X2.713 Y5.499 E41.29035
G1 X3.474 Y4.841 E41.35058
G1 X3.519 Y4.799 E41.35426
G1 X4.202 Y3.984 E41.41792
G1 X4.239 Y3.928 E41.42194
G1 X4.753 Y3.07 E41.48182
G1 X4.784 Y3.007 E41.48602
G1 X5.156 Y2.078 E41.54593
G1 X5.178 Y2.011 E41.55016
G1 X5.412 Y0.971 E41.61398
G1 X5.48 Y-0.095 E41.67793
G1 X5.476 Y-.163 E41.682
G1 X5.383 Y-1.16 E41.74195
G1 X5.368 Y-1.229 E41.74618
G1 X5.119 Y-2.195 E41.8059
G1 X5.096 Y-2.262 E41.81014
G1 X4.696 Y-3.177 E41.86993
G1 X4.666 Y-3.24 E41.8741
G1 X4.091 Y-4.136 E41.93784
G1 X4.051 Y-4.184 E41.94158
G1 X3.382 Y-4.934 E42.00175
G1 X3.336 Y-4.977 E42.00552
G1 X2.555 Y-5.611 E42.06575
G1 X2.505 Y-5.648 E42.06947
G1 X1.63 Y-6.155 E42.13001
G1 X1.569 Y-6.187 E42.13414
G1 X0.564 Y-6.572 E42.19857
G1 X-.5 Y-6.795 E42.26365
G1 X-11.936 Y-6.795 E42.94831
G1 X-12.101 Y-6.879 E42.95939
G1 X-12.129 Y-6.986 E42.96601
G1 X-12.129 Y-19.569 E43.71933
G1 X-12.046 Y-19.73 E43.73018
G1 X-11.936 Y-19.76 E43.737
G1 X9.458 Y-19.76 E45.01782
G1 X9.458 Y19.76 E47.38382
G0 F3600 X9.258 Y19.76
G1 F750 E40.88382
G0 F3600 X9.158 Y19.49
G0 X8.288 Y12.577
G0 X7.043 Y12.286
G0 X5.042 Y12.577
G1 F750 E47.38382
G0 F3600 X5.043 Y12.278
G1 F900 X5.585 Y12.084 E47.41828
G1 X5.635 Y12.05 E47.4219
G1 X6.039 Y11.711 E47.45348
G1 X6.074 Y11.662 E47.45708
G1 X6.333 Y11.213 E47.48811
G1 X6.352 Y11.162 E47.49137
G1 X6.446 Y10.632 E47.5236
G1 X6.446 Y10.58 E47.52671
G1 X6.347 Y10.028 E47.56028
G1 X6.066 Y9.541 E47.59395
G1 X6.029 Y9.5 E47.59725
G1 X5.603 Y9.142 E47.63057
G1 X5.078 Y8.951 E47.66401
G1 X5.013 Y8.94 E47.66796
G1 X4.491 Y8.939 E47.69921
G1 X4.425 Y8.953 E47.70325
G1 X3.94 Y9.129 E47.73414
G1 X3.882 Y9.164 E47.73819
G1 X3.491 Y9.492 E47.76875
G1 X3.445 Y9.541 E47.77277
G1 X3.186 Y9.99 E47.8038
G1 X3.159 Y10.052 E47.80785
G1 X3.062 Y10.609 E47.8417
G1 X3.16 Y11.173 E47.87597
G1 X3.186 Y11.228 E47.87962
G1 X3.449 Y11.684 E47.91113
G1 X3.492 Y11.727 E47.91477
G1 X3.896 Y12.066 E47.94634
G1 X3.951 Y12.092 E47.94999
G1 X4.444 Y12.27 E47.98137
G1 X4.503 Y12.277 E47.98492
G1 X5.043 Y12.278 E48.01725
G0 F3600 X5.231 Y12.211
G1 F750 E41.51725
G0 F3600 X5.33 Y12.494
G0 X2.528 Y12.391
G0 X-5.285 Y12.461
G0 X-7.099 Y12.56
G1 F750 E48.01725
G0 F3600 X-7.2 Y12.277
G1 F900 X-6.647 Y12.076 E48.05248
G1 X-6.196 Y11.698 E48.08771
G1 X-5.903 Y11.188 E48.12292
G1 X-5.8 Y10.609 E48.15813
G1 X-5.903 Y10.03 E48.19334
G1 X-6.196 Y9.52 E48.22855
G1 X-6.647 Y9.142 E48.26378
G1 X-7.2 Y8.941 E48.29901
G1 X-7.788 Y8.941 E48.33421
G1 X-8.341 Y9.142 E48.36944
G1 X-8.792 Y9.52 E48.40467
G1 X-9.086 Y10.03 E48.43991
G1 X-9.188 Y10.609 E48.47511
G1 X-9.086 Y11.188 E48.5103
G1 X-8.792 Y11.698 E48.54555
G1 X-8.341 Y12.076 E48.58078
G1 X-7.788 Y12.277 E48.616
G1 X-7.2 Y12.277 E48.65121
G0 F3600 X-7.012 Y12.209
G1 F750 E42.15121
G0 F3600 X-6.91 Y12.491
G0 X-6.01 Y11.853
G0 X-5.557 Y10.609
G0 X-6.957 Y7.089
G0 X-1.351 Y7.089
G0 X-.257 Y7.004
G0 X0.902 Y6.713
G0 X1.924 Y6.276
G0 X2.864 Y5.685
G0 X3.693 Y4.964
G0 X4.441 Y4.056
G0 X5.003 Y3.104
G0 X5.409 Y2.074
G0 X5.65 Y1.004
G0 X5.714 Y-.181
G0 X5.601 Y-1.284
G0 X5.32 Y-2.349
G0 X4.875 Y-3.356
G0 X4.232 Y-4.341
G0 X3.493 Y-5.158
G0 X2.636 Y-5.848
G0 X1.668 Y-6.406
G0 X0.632 Y-6.802
G0 X-.475 Y-7.034
G0 X-5.826 Y-7.034
G0 X-7.098 Y-8.659
G1 F750 E48.65121
G0 F3600 X-7.2 Y-8.941
G1 F900 X-6.647 Y-9.142 E48.68643
G1 X-6.196 Y-9.52 E48.72166
G1 X-5.903 Y-10.03 E48.75687
G1 X-5.8 Y-10.609 E48.79208
G1 X-5.903 Y-11.188 E48.82729
G1 X-6.196 Y-11.698 E48.8625
G1 X-6.647 Y-12.076 E48.89773
G1 X-7.2 Y-12.277 E48.93296
G1 X-7.788 Y-12.277 E48.96816
G1 X-8.341 Y-12.076 E49.00339
G1 X-8.792 Y-11.698 E49.03862
G1 X-9.086 Y-11.188 E49.07386
G1 X-9.188 Y-10.609 E49.10906
G1 X-9.086 Y-10.03 E49.14426
G1 X-8.792 Y-9.52 E49.1795
G1 X-8.341 Y-9.142 E49.21473
G1 X-7.788 Y-8.941 E49.24996
G1 X-7.2 Y-8.941 E49.28516
G0 F3600 X-7.012 Y-9.009
G1 F750 E42.78516
G0 F3600 X-6.91 Y-8.727
G0 X-4.787 Y-9.623
G0 X2.048 Y-9.719
G0 X4.427 Y-8.647
G1 F750 E49.28516
G0 F3600 X4.489 Y-8.94
G1 F900 X5.012 Y-8.939 E49.31647
G1 X5.077 Y-8.95 E49.32042
G1 X5.565 Y-9.126 E49.35147
G1 X5.63 Y-9.163 E49.35595
G1 X6.028 Y-9.499 E49.38713
G1 X6.065 Y-9.54 E49.39044
G1 X6.347 Y-10.029 E49.42424
G1 X6.45 Y-10.611 E49.45962
G1 X6.353 Y-11.161 E49.49306
G1 X6.334 Y-11.212 E49.49631
G1 X6.075 Y-11.661 E49.52735
G1 X6.04 Y-11.71 E49.53095
G1 X5.636 Y-12.049 E49.56253
G1 X5.586 Y-12.083 E49.56615
G1 X5.045 Y-12.277 E49.60055
G1 X4.505 Y-12.278 E49.63288
G1 X4.445 Y-12.271 E49.6365
G1 X3.952 Y-12.093 E49.66788
G1 X3.897 Y-12.067 E49.67152
G1 X3.493 Y-11.728 E49.7031
G1 X3.45 Y-11.685 E49.70674
G1 X3.187 Y-11.229 E49.73825
G1 X3.161 Y-11.174 E49.74189
G1 X3.062 Y-10.609 E49.77623
G1 X3.158 Y-10.053 E49.81001
G1 X3.185 Y-9.991 E49.81406
G1 X3.444 Y-9.542 E49.84509
G1 X3.49 Y-9.493 E49.84912
G1 X3.881 Y-9.165 E49.87967
G1 X3.939 Y-9.13 E49.88373
G1 X4.424 Y-8.954 E49.91462
G1 X4.489 Y-8.94 E49.9186
G0 F3600 X4.689 Y-8.94
G1 F750 E43.4186
G0 F3600 X4.688 Y-8.64
G0 X5.109 Y-7.788
G0 X4.938 Y-4.947
G0 X6.218 Y2.466
G0 X8.978 Y19.28
;TYPE:WALL-INNER
G1 F750 E49.9186
G1 F900 X-11.649 Y19.28 E51.1535
G1 X-11.649 Y7.33 E51.86892
G1 X-1.341 Y7.33 E52.48605
G1 X-.218 Y7.243 E52.55348
G1 X0.893 Y6.973 E52.62193
G1 X0.992 Y6.936 E52.62826
G1 X1.95 Y6.535 E52.69043
G1 X2.044 Y6.485 E52.69681
G1 X2.935 Y5.933 E52.75956
G1 X3.015 Y5.872 E52.76558
G1 X3.795 Y5.198 E52.8273
G1 X3.868 Y5.13 E52.83327
G1 X4.587 Y4.271 E52.90033
G1 X4.645 Y4.184 E52.90659
G1 X5.175 Y3.3 E52.9683
G1 X5.223 Y3.202 E52.97483
G1 X5.607 Y2.242 E53.03673
G1 X5.641 Y2.139 E53.04323
G1 X5.889 Y1.039 E53.11073
G1 X5.961 Y-0.094 E53.1787
G1 X5.955 Y-.199 E53.185
G1 X5.858 Y-1.234 E53.24723
G1 X5.835 Y-1.34 E53.25373
G1 X5.579 Y-2.333 E53.31512
G1 X5.544 Y-2.436 E53.32163
G1 X5.133 Y-3.376 E53.38305
G1 X5.086 Y-3.474 E53.38956
G1 X4.479 Y-4.42 E53.45685
G1 X4.415 Y-4.497 E53.46285
G1 X3.726 Y-5.27 E53.52484
G1 X3.652 Y-5.339 E53.5309
G1 X2.849 Y-5.99 E53.59279
G1 X2.769 Y-6.05 E53.59877
G1 X1.862 Y-6.575 E53.66151
G1 X1.767 Y-6.625 E53.66794
G1 X0.7 Y-7.034 E53.73635
G1 X-.45 Y-7.275 E53.8067
G1 X-11.649 Y-7.275 E54.47716
G1 X-11.649 Y-19.28 E55.19588
G1 X8.978 Y-19.28 E56.43078
G1 X8.978 Y19.28 E58.7393
G1 F750 E52.2393
G0 F3600 X8.288 Y12.758
G0 X7.043 Y12.286
G0 X5.126 Y12.758
G1 F750 E58.7393
G1 F900 X5.804 Y12.515 E58.78242
G1 X5.925 Y12.433 E58.79117
G1 X6.394 Y12.04 E58.8278
G1 X6.478 Y11.922 E58.83647
G1 X6.769 Y11.418 E58.87132
G1 X6.817 Y11.289 E58.87956
G1 X6.926 Y10.674 E58.91695
G1 X6.926 Y10.537 E58.92515
G1 X6.805 Y9.861 E58.96627
G1 X6.456 Y9.257 E59.00803
G1 X6.363 Y9.154 E59.01634
G1 X5.847 Y8.72 E59.0567
G1 X5.201 Y8.485 E59.09786
G1 X5.054 Y8.46 E59.10678
G1 X4.441 Y8.459 E59.14348
G1 X4.293 Y8.49 E59.15254
G1 X3.732 Y8.694 E59.18827
G1 X3.602 Y8.772 E59.19735
G1 X3.161 Y9.143 E59.23185
G1 X3.057 Y9.253 E59.24092
G1 X2.757 Y9.774 E59.27691
G1 X2.696 Y9.913 E59.286
G1 X2.575 Y10.609 E59.32829
G1 X2.698 Y11.319 E59.37143
G1 X2.76 Y11.451 E59.38016
G1 X3.065 Y11.979 E59.41666
G1 X3.167 Y12.081 E59.4253
G1 X3.635 Y12.473 E59.46185
G1 X3.767 Y12.536 E59.47061
G1 X4.333 Y12.74 E59.50662
G1 X4.474 Y12.757 E59.51513
G1 X5.126 Y12.758 E59.55416
G1 F750 E53.05416
G0 F3600 X2.528 Y12.391
G0 X-5.285 Y12.461
G0 X-7.115 Y12.757
G1 F750 E59.55416
G1 F900 X-6.404 Y12.498 E59.59946
G1 X-5.822 Y12.011 E59.6449
G1 X-5.445 Y11.355 E59.69019
G1 X-5.312 Y10.609 E59.73556
G1 X-5.445 Y9.863 E59.78093
G1 X-5.822 Y9.207 E59.82622
G1 X-6.404 Y8.72 E59.87166
G1 X-7.115 Y8.461 E59.91696
G1 X-7.873 Y8.461 E59.96234
G1 X-8.584 Y8.72 E60.00764
G1 X-9.165 Y9.207 E60.05303
G1 X-9.544 Y9.863 E60.09838
G1 X-9.675 Y10.609 E60.14373
G1 X-9.544 Y11.355 E60.18907
G1 X-9.165 Y12.011 E60.23443
G1 X-8.584 Y12.498 E60.27982
G1 X-7.873 Y12.757 E60.32512
G1 X-7.115 Y12.757 E60.3705
G1 F750 E53.8705
G0 F3600 X-6.01 Y11.853
G0 X-5.557 Y10.609
G0 X-7.115 Y7.09
G0 X-1.351 Y7.089
G0 X-.257 Y7.004
G0 X0.902 Y6.713
G0 X1.924 Y6.276
G0 X2.864 Y5.685
G0 X3.693 Y4.964
G0 X4.441 Y4.056
G0 X5.003 Y3.104
G0 X5.409 Y2.074
G0 X5.65 Y1.004
G0 X5.714 Y-.181
G0 X5.601 Y-1.284
G0 X5.32 Y-2.349
