; generated by Slic3r 1.2.9 on 2018-03-26 at 21:27:09

; external perimeters extrusion width = 0.40mm
; perimeters extrusion width = 0.67mm
; infill extrusion width = 0.67mm
; solid infill extrusion width = 0.67mm
; top infill extrusion width = 0.67mm

M107
M190 S65 ; set bed temperature
M104 S190 ; set temperature
G28 ; home all axes
G1 Z5 F5000 ; lift nozzle

M109 S190 ; wait for temperature to be reached
G21 ; set units to millimeters
G90 ; use absolute coordinates
M82 ; use absolute distances for extrusion
G92 E0
G1 Z0.400 F4800.000
G1 E-2.00000 F2400.00000
G92 E0
G1 X0.000 Y-16.928 F4800.000
G1 E2.00000 F2400.00000
G1 X38.075 Y-16.928 E6.06979 F1080.000
G1 X40.472 Y-16.531 E6.32948
G1 X42.612 Y-15.382 E6.58917 F1080.000
G1 X44.267 Y-13.603 E6.84886
G1 X45.260 Y-11.386 E7.10855
G1 X45.503 Y-9.513 E7.31040
G1 X45.503 Y10.513 E9.45091
G1 X45.102 Y12.909 E9.71060
G1 X43.949 Y15.047 E9.97029
G1 X42.167 Y16.699 E10.22998
G1 X39.948 Y17.688 E10.48967
G1 X38.075 Y17.928 E10.69153
G1 X-38.075 Y17.928 E18.83111
G1 X-40.472 Y17.531 E19.09080
G1 X-42.612 Y16.382 E19.35049
G1 X-44.267 Y14.603 E19.61018
G1 X-45.260 Y12.386 E19.86987
G1 X-45.503 Y10.515 E20.07153
G1 X-45.503 Y-9.515 E22.21242
G1 X-45.101 Y-11.911 E22.47211
G1 X-43.948 Y-14.049 E22.73180
G1 X-42.166 Y-15.700 E22.99149
G1 X-39.946 Y-16.689 E23.25118
G1 X-38.075 Y-16.928 E23.45285
G1 X-0.060 Y-16.928 E27.51622
G1 X0.000 Y-16.214 F4800.000
G1 X38.075 Y-16.214 E31.58601 F1080.000
G1 X40.350 Y-15.817 E31.83282
G1 X42.355 Y-14.673 E32.07962 F1080.000
G1 X43.855 Y-12.917 E32.32642
G1 X44.670 Y-10.757 E32.57322
G1 X44.789 Y-9.512 E32.70696
G1 X44.789 Y10.512 E34.84721
G1 X44.388 Y12.785 E35.09401
G1 X43.241 Y14.789 E35.34081
G1 X41.482 Y16.285 E35.58762
G1 X39.321 Y17.098 E35.83442
G1 X38.075 Y17.214 E35.96816
G1 X-38.075 Y17.214 E44.10774
G1 X-40.350 Y16.817 E44.35454
G1 X-42.355 Y15.673 E44.60134
G1 X-43.855 Y13.917 E44.84814
G1 X-44.670 Y11.757 E45.09494
G1 X-44.789 Y10.513 E45.22851
G1 X-44.789 Y-9.513 E47.36910
G1 X-44.388 Y-11.787 E47.61590
G1 X-43.240 Y-13.790 E47.86271
G1 X-41.481 Y-15.286 E48.10951
G1 X-39.319 Y-16.098 E48.35631
G1 X-38.075 Y-16.214 E48.48988
G1 X-0.060 Y-16.214 E52.55326
G1 E50.55326 F2400.00000
G92 E0
G1 X-36.243 Y-7.672 F4800.000
G1 E2.00000 F2400.00000
G1 X36.247 Y-7.672 E9.74832 F720.000
G1 X36.247 Y8.672 E11.49524
G1 X-36.245 Y8.672 E19.24377
G1 X-36.243 Y-7.612 E20.98427
G1 X-36.959 Y-8.386 F4800.000
G1 X36.961 Y-8.386 E28.88543 F720.000
G1 X36.961 Y9.386 E30.78502
G1 X-36.960 Y9.386 E38.68629
G1 X-36.958 Y-8.326 E40.57947
G1 X-37.674 Y-9.100 F4800.000
G1 X37.675 Y-9.100 E48.63345 F360.000
G1 X37.675 Y10.100 E50.68571
G1 X-37.675 Y10.100 E58.73973
G1 X-37.661 Y-2.834 E60.12218
G1 X-37.674 Y-9.040 E60.78559
G1 X-37.328 Y-8.900 F4800.000
G1 X-35.466 Y8.236 F4800.000
G1 X-35.809 Y7.893 E60.83777 F360.000
G1 X-35.809 Y6.877 E60.94712
G1 X-34.450 Y8.236 E61.15395
G1 X-33.433 Y8.236 E61.26331
G1 X-35.809 Y5.860 E61.62479
G1 X-35.809 Y4.844 E61.73414
G1 X-32.417 Y8.236 E62.25027
G1 X-31.400 Y8.236 E62.35963
G1 X-35.809 Y3.827 E63.03040
G1 X-35.809 Y2.811 E63.13976
G1 X-30.384 Y8.236 E63.96518
G1 X-29.367 Y8.236 E64.07454
G1 X-35.809 Y1.795 E65.05461
G1 X-35.808 Y0.778 E65.16397
G1 X-28.350 Y8.236 E66.29868
G1 X-27.334 Y8.236 E66.40805
G1 X-35.808 Y-0.238 E67.69741
G1 X-35.808 Y-1.255 E67.80677
G1 X-26.317 Y8.236 E69.25078
G1 X-25.301 Y8.236 E69.36014
G1 X-35.808 Y-2.271 E70.95880
G1 X-35.808 Y-3.288 E71.06816
G1 X-24.284 Y8.236 E72.82147
G1 X-23.268 Y8.236 E72.93083
G1 X-35.808 Y-4.304 E74.83879
G1 X-35.808 Y-5.320 E74.94814
G1 X-22.251 Y8.236 E77.01075
G1 X-21.235 Y8.236 E77.12011
G1 X-35.808 Y-6.337 E79.33737
G1 X-35.690 Y-7.236 E79.43494
G1 X-20.218 Y8.236 E81.78902
G1 X-19.201 Y8.236 E81.89838
G1 X-34.674 Y-7.236 E84.25246
G1 X-33.657 Y-7.236 E84.36183
G1 X-18.185 Y8.236 E86.71591
G1 X-17.168 Y8.236 E86.82527
G1 X-32.641 Y-7.236 E89.17936
G1 X-31.624 Y-7.236 E89.28872
G1 X-16.152 Y8.236 E91.64280
G1 X-15.135 Y8.236 E91.75217
G1 X-30.608 Y-7.236 E94.10625
G1 X-29.591 Y-7.236 E94.21561
G1 X-14.119 Y8.236 E96.56969
G1 X-13.102 Y8.236 E96.67906
G1 X-28.574 Y-7.236 E99.03314
G1 X-27.558 Y-7.236 E99.14250
G1 X-12.086 Y8.236 E101.49658
G1 X-11.069 Y8.236 E101.60595
G1 X-26.541 Y-7.236 E103.96003
G1 X-25.525 Y-7.236 E104.06940
G1 X-10.053 Y8.236 E106.42348
G1 X-9.036 Y8.236 E106.53284
G1 X-24.508 Y-7.236 E108.88692
G1 X-23.492 Y-7.236 E108.99629
G1 X-8.019 Y8.236 E111.35037
G1 X-7.003 Y8.236 E111.45973
G1 X-22.475 Y-7.236 E113.81381
G1 X-21.459 Y-7.236 E113.92318
G1 X-5.986 Y8.236 E116.27726
G1 X-4.970 Y8.236 E116.38663
G1 X-20.442 Y-7.236 E118.74071
G1 X-19.426 Y-7.236 E118.85007
G1 X-3.953 Y8.236 E121.20415
G1 X-2.937 Y8.236 E121.31352
G1 X-18.409 Y-7.236 E123.66760
G1 X-17.392 Y-7.236 E123.77696
G1 X-1.920 Y8.236 E126.13104
G1 X-0.904 Y8.236 E126.24041
G1 X-16.376 Y-7.236 E128.59449
G1 X-15.359 Y-7.236 E128.70385
G1 X0.113 Y8.236 E131.05794
G1 X1.130 Y8.236 E131.16730
G1 X-14.343 Y-7.236 E133.52138
G1 X-13.326 Y-7.236 E133.63075
G1 X2.146 Y8.236 E135.98483
G1 X3.163 Y8.236 E136.09419
G1 X-12.310 Y-7.236 E138.44827
G1 X-11.293 Y-7.236 E138.55764
G1 X4.179 Y8.236 E140.91172
G1 X5.196 Y8.236 E141.02108
G1 X-10.277 Y-7.236 E143.37516
G1 X-9.260 Y-7.236 E143.48453
G1 X6.212 Y8.236 E145.83861
G1 X7.229 Y8.236 E145.94798
G1 X-8.243 Y-7.236 E148.30206
G1 X-7.227 Y-7.236 E148.41142
G1 X8.245 Y8.236 E150.76550
G1 X9.262 Y8.236 E150.87487
G1 X-6.210 Y-7.236 E153.22895
G1 X-5.194 Y-7.236 E153.33831
G1 X10.279 Y8.236 E155.69239
G1 X11.295 Y8.236 E155.80176
G1 X-4.177 Y-7.236 E158.15584
G1 X-3.161 Y-7.236 E158.26520
G1 X12.312 Y8.236 E160.61928
G1 X13.328 Y8.236 E160.72865
G1 X-2.144 Y-7.236 E163.08273
G1 X-1.128 Y-7.236 E163.19210
G1 X14.345 Y8.236 E165.54618
G1 X15.361 Y8.236 E165.65554
G1 X-0.111 Y-7.236 E168.00962
G1 X0.905 Y-7.236 E168.11899
G1 X16.378 Y8.236 E170.47307
G1 X17.394 Y8.236 E170.58243
G1 X1.922 Y-7.236 E172.93651
G1 X2.939 Y-7.236 E173.04588
G1 X18.411 Y8.236 E175.39996
G1 X19.427 Y8.236 E175.50932
G1 X3.955 Y-7.236 E177.86341
G1 X4.972 Y-7.236 E177.97277
G1 X20.444 Y8.236 E180.32685
G1 X21.461 Y8.236 E180.43622
G1 X5.988 Y-7.236 E182.79030
G1 X7.005 Y-7.236 E182.89966
G1 X22.477 Y8.236 E185.25374
G1 X23.494 Y8.236 E185.36311
G1 X8.021 Y-7.236 E187.71719
G1 X9.038 Y-7.236 E187.82655
G1 X24.510 Y8.236 E190.18063
G1 X25.527 Y8.236 E190.29000
G1 X10.054 Y-7.236 E192.64408
G1 X11.071 Y-7.236 E192.75345
G1 X26.543 Y8.236 E195.10753
G1 X27.560 Y8.236 E195.21689
G1 X12.088 Y-7.236 E197.57097
G1 X13.104 Y-7.236 E197.68034
G1 X28.576 Y8.236 E200.03442
G1 X29.593 Y8.236 E200.14378
G1 X14.121 Y-7.236 E202.49786
G1 X15.137 Y-7.236 E202.60723
G1 X30.610 Y8.236 E204.96131
G1 X31.626 Y8.236 E205.07067
G1 X16.154 Y-7.236 E207.42475
G1 X17.170 Y-7.236 E207.53412
G1 X32.643 Y8.236 E209.88820
G1 X33.659 Y8.236 E209.99757
G1 X18.187 Y-7.236 E212.35165
G1 X19.203 Y-7.236 E212.46101
G1 X34.676 Y8.236 E214.81509
G1 X35.692 Y8.236 E214.92446
G1 X20.220 Y-7.236 E217.27854
G1 X21.236 Y-7.236 E217.38790
G1 X35.811 Y7.339 E219.60541
G1 X35.811 Y6.322 E219.71478
G1 X22.253 Y-7.236 E221.77762
G1 X23.270 Y-7.236 E221.88699
G1 X35.811 Y5.305 E223.79516
G1 X35.811 Y4.289 E223.90453
G1 X24.286 Y-7.236 E225.65804
G1 X25.303 Y-7.236 E225.76740
G1 X35.811 Y3.272 E227.36625
G1 X35.811 Y2.256 E227.47561
G1 X26.319 Y-7.236 E228.91979
G1 X27.336 Y-7.236 E229.02916
G1 X35.811 Y1.239 E230.31867
G1 X35.811 Y0.223 E230.42804
G1 X28.352 Y-7.236 E231.56288
G1 X29.369 Y-7.236 E231.67225
G1 X35.811 Y-0.794 E232.65243
G1 X35.811 Y-1.810 E232.76180
G1 X30.385 Y-7.236 E233.58731
G1 X31.402 Y-7.236 E233.69668
G1 X35.811 Y-2.827 E234.36753
G1 X35.811 Y-3.844 E234.47689
G1 X32.419 Y-7.236 E234.99308
G1 X33.435 Y-7.236 E235.10244
G1 X35.811 Y-4.860 E235.46396
G1 X35.811 Y-5.877 E235.57332
G1 X34.452 Y-7.236 E235.78018
G1 X35.468 Y-7.236 E235.88954
G1 X35.811 Y-6.893 E235.94173
M104 S185 ; set temperature
M140 S60 ; wait for bed temperature to be reached
G1 Z0.600 F4800.000
G1 X-37.332 Y-8.179 F4800.000
G1 X37.332 Y-8.179 E239.45244 F2400.000
G1 X37.332 Y9.179 E240.26862
G1 X-37.332 Y9.179 E243.77933
G1 X-37.332 Y-8.119 E244.59269
G1 X-37.960 Y-8.807 F4800.000
G1 X37.960 Y-8.807 E248.16249 F2400.000
G1 X37.960 Y9.807 E249.03776
G1 X-37.960 Y9.807 E252.60756
G1 X-37.960 Y-8.747 E253.48001
G1 E251.48001 F2400.00000
G92 E0
G1 X38.275 Y10.300 F4800.000
G1 E2.00000 F2400.00000
G1 X-38.275 Y10.300 E4.04560 F1200.000
G1 X-38.453 Y10.300 E4.05394 F3600.000
G1 X-38.453 Y-9.300 E4.97554
G1 X-38.275 Y-9.300 E4.98389
G1 X38.275 Y-9.300 E7.02949 F1200.000
G1 X38.453 Y-9.300 E7.03783 F3600.000
G1 X38.453 Y10.300 E7.95943
G1 X38.335 Y10.300 E7.96496
G1 E5.96496 F2400.00000
G92 E0
G1 X36.644 Y8.798 F4800.000
G1 E2.00000 F2400.00000
G1 X36.951 Y8.492 E2.02042 F1200.000
G1 X36.951 Y7.602 E2.06233
G1 X35.755 Y8.798 E2.14202
G1 X34.865 Y8.798 E2.18393
G1 X36.951 Y6.712 E2.32289
G1 X36.951 Y5.822 E2.36480
G1 X33.975 Y8.798 E2.56303
G1 X33.085 Y8.798 E2.60494
G1 X36.951 Y4.932 E2.86244
G1 X36.951 Y4.042 E2.90435
G1 X32.195 Y8.798 E3.22113
G1 X31.305 Y8.798 E3.26304
G1 X36.951 Y3.152 E3.63908
G1 X36.951 Y2.262 E3.68099
G1 X30.415 Y8.798 E4.11631
G1 X29.525 Y8.798 E4.15822
G1 X36.951 Y1.372 E4.65281
G1 X36.951 Y0.482 E4.69472
G1 X28.635 Y8.798 E5.24858
G1 X27.745 Y8.798 E5.29049
G1 X36.951 Y-0.408 E5.90362
G1 X36.951 Y-1.298 E5.94553
G1 X26.855 Y8.798 E6.61793
G1 X25.965 Y8.798 E6.65984
G1 X36.951 Y-2.188 E7.39151
G1 X36.951 Y-3.078 E7.43342
G1 X25.075 Y8.798 E8.22436
G1 X24.185 Y8.798 E8.26627
G1 X36.951 Y-3.968 E9.11648
G1 X36.951 Y-4.858 E9.15839
G1 X23.295 Y8.798 E10.06788
G1 X22.405 Y8.798 E10.10979
G1 X36.951 Y-5.748 E11.07854
G1 X36.951 Y-6.638 E11.12046
G1 X21.515 Y8.798 E12.14848
G1 X20.625 Y8.798 E12.19039
G1 X36.951 Y-7.528 E13.27769
G1 X36.332 Y-7.798 E13.30952
G1 X19.735 Y8.798 E14.41484
G1 X18.845 Y8.798 E14.45675
G1 X35.442 Y-7.798 E15.56208
G1 X34.552 Y-7.798 E15.60399
G1 X17.955 Y8.798 E16.70931
G1 X17.065 Y8.798 E16.75122
G1 X33.662 Y-7.798 E17.85655
G1 X32.772 Y-7.798 E17.89846
G1 X16.176 Y8.798 E19.00378
G1 X15.286 Y8.798 E19.04569
G1 X31.882 Y-7.798 E20.15102
G1 X30.992 Y-7.798 E20.19293
G1 X14.396 Y8.798 E21.29825
G1 X13.506 Y8.798 E21.34016
G1 X30.102 Y-7.798 E22.44549
G1 X29.212 Y-7.798 E22.48740
G1 X12.616 Y8.798 E23.59272
G1 X11.726 Y8.798 E23.63463
G1 X28.322 Y-7.798 E24.73996
G1 X27.432 Y-7.798 E24.78187
G1 X10.836 Y8.798 E25.88719
G1 X9.946 Y8.798 E25.92910
G1 X26.542 Y-7.798 E27.03443
G1 X25.652 Y-7.798 E27.07634
G1 X9.056 Y8.798 E28.18166
G1 X8.166 Y8.798 E28.22357
G1 X24.762 Y-7.798 E29.32890
G1 X23.872 Y-7.798 E29.37081
G1 X7.276 Y8.798 E30.47613
G1 X6.386 Y8.798 E30.51804
G1 X22.982 Y-7.798 E31.62337
G1 X22.092 Y-7.798 E31.66528
G1 X5.496 Y8.798 E32.77060
G1 X4.606 Y8.798 E32.81251
G1 X21.203 Y-7.798 E33.91784
G1 X20.313 Y-7.798 E33.95975
G1 X3.716 Y8.798 E35.06507
G1 X2.826 Y8.798 E35.10698
G1 X19.423 Y-7.798 E36.21231
G1 X18.533 Y-7.798 E36.25422
G1 X1.936 Y8.798 E37.35954
G1 X1.046 Y8.798 E37.40145
G1 X17.643 Y-7.798 E38.50678
G1 X16.753 Y-7.798 E38.54869
G1 X0.156 Y8.798 E39.65401
G1 X-0.734 Y8.798 E39.69592
G1 X15.863 Y-7.798 E40.80125
G1 X14.973 Y-7.798 E40.84316
G1 X-1.624 Y8.798 E41.94848
G1 X-2.514 Y8.798 E41.99039
G1 X14.083 Y-7.798 E43.09571
G1 X13.193 Y-7.798 E43.13763
G1 X-3.404 Y8.798 E44.24295
G1 X-4.293 Y8.798 E44.28486
G1 X12.303 Y-7.798 E45.39018
G1 X11.413 Y-7.798 E45.43210
G1 X-5.183 Y8.798 E46.53742
G1 X-6.073 Y8.798 E46.57933
G1 X10.523 Y-7.798 E47.68465
G1 X9.633 Y-7.798 E47.72657
G1 X-6.963 Y8.798 E48.83189
G1 X-7.853 Y8.798 E48.87380
G1 X8.743 Y-7.798 E49.97912
G1 X7.853 Y-7.798 E50.02104
G1 X-8.743 Y8.798 E51.12636
G1 X-9.633 Y8.798 E51.16827
G1 X6.963 Y-7.798 E52.27359
G1 X6.073 Y-7.798 E52.31550
G1 X-10.523 Y8.798 E53.42083
G1 X-11.413 Y8.798 E53.46274
G1 X5.183 Y-7.798 E54.56806
G1 X4.293 Y-7.798 E54.60997
G1 X-12.303 Y8.798 E55.71530
G1 X-13.193 Y8.798 E55.75721
G1 X3.403 Y-7.798 E56.86253
G1 X2.513 Y-7.798 E56.90444
G1 X-14.083 Y8.798 E58.00977
G1 X-14.973 Y8.798 E58.05168
G1 X1.624 Y-7.798 E59.15700
G1 X0.734 Y-7.798 E59.19891
G1 X-15.863 Y8.798 E60.30424
G1 X-16.753 Y8.798 E60.34615
G1 X-0.156 Y-7.798 E61.45147
G1 X-1.046 Y-7.798 E61.49338
G1 X-17.643 Y8.798 E62.59871
G1 X-18.533 Y8.798 E62.64062
G1 X-1.936 Y-7.798 E63.74594
G1 X-2.826 Y-7.798 E63.78785
G1 X-19.423 Y8.798 E64.89318
G1 X-20.313 Y8.798 E64.93509
G1 X-3.716 Y-7.798 E66.04041
G1 X-4.606 Y-7.798 E66.08232
G1 X-21.203 Y8.798 E67.18765
G1 X-22.093 Y8.798 E67.22956
G1 X-5.496 Y-7.798 E68.33488
G1 X-6.386 Y-7.798 E68.37679
G1 X-22.983 Y8.798 E69.48212
G1 X-23.872 Y8.798 E69.52403
G1 X-7.276 Y-7.798 E70.62935
G1 X-8.166 Y-7.798 E70.67126
G1 X-24.762 Y8.798 E71.77659
G1 X-25.652 Y8.798 E71.81850
G1 X-9.056 Y-7.798 E72.92382
G1 X-9.946 Y-7.798 E72.96573
G1 X-26.542 Y8.798 E74.07106
G1 X-27.432 Y8.798 E74.11297
G1 X-10.836 Y-7.798 E75.21829
G1 X-11.726 Y-7.798 E75.26020
G1 X-28.322 Y8.798 E76.36553
G1 X-29.212 Y8.798 E76.40744
G1 X-12.616 Y-7.798 E77.51276
G1 X-13.506 Y-7.798 E77.55467
G1 X-30.102 Y8.798 E78.66000
G1 X-30.992 Y8.798 E78.70191
G1 X-14.396 Y-7.798 E79.80723
G1 X-15.286 Y-7.798 E79.84914
G1 X-31.882 Y8.798 E80.95446
G1 X-32.772 Y8.798 E80.99638
G1 X-16.176 Y-7.798 E82.10170
G1 X-17.066 Y-7.798 E82.14361
G1 X-33.662 Y8.798 E83.24893
G1 X-34.552 Y8.798 E83.29085
G1 X-17.956 Y-7.798 E84.39617
G1 X-18.845 Y-7.798 E84.43808
G1 X-35.442 Y8.798 E85.54340
G1 X-36.332 Y8.798 E85.58532
G1 X-19.735 Y-7.798 E86.69064
G1 X-20.625 Y-7.798 E86.73255
G1 X-36.951 Y8.527 E87.81984
G1 X-36.951 Y7.638 E87.86175
G1 X-21.515 Y-7.798 E88.88977
G1 X-22.405 Y-7.798 E88.93168
G1 X-36.951 Y6.748 E89.90043
G1 X-36.951 Y5.858 E89.94234
G1 X-23.295 Y-7.798 E90.85182
G1 X-24.185 Y-7.798 E90.89373
G1 X-36.951 Y4.968 E91.74394
G1 X-36.951 Y4.078 E91.78585
G1 X-25.075 Y-7.798 E92.57679
G1 X-25.965 Y-7.798 E92.61870
G1 X-36.951 Y3.188 E93.35037
G1 X-36.951 Y2.298 E93.39228
G1 X-26.855 Y-7.798 E94.06467
G1 X-27.745 Y-7.798 E94.10658
G1 X-36.951 Y1.408 E94.71971
G1 X-36.951 Y0.518 E94.76162
G1 X-28.635 Y-7.798 E95.31547
G1 X-29.525 Y-7.798 E95.35738
G1 X-36.951 Y-0.372 E95.85196
G1 X-36.951 Y-1.262 E95.89387
G1 X-30.415 Y-7.798 E96.32918
G1 X-31.305 Y-7.798 E96.37109
G1 X-36.951 Y-2.152 E96.74713
G1 X-36.951 Y-3.042 E96.78904
G1 X-32.195 Y-7.798 E97.10581
G1 X-33.085 Y-7.798 E97.14772
G1 X-36.951 Y-3.932 E97.40522
G1 X-36.951 Y-4.822 E97.44713
G1 X-33.975 Y-7.798 E97.64535
G1 X-34.865 Y-7.798 E97.68727
G1 X-36.951 Y-5.712 E97.82622
G1 X-36.951 Y-6.602 E97.86813
G1 X-35.755 Y-7.798 E97.94781
G1 X-36.645 Y-7.798 E97.98973
G1 X-36.951 Y-7.492 E98.01014
G1 Z0.800 F4800.000
G1 X37.599 Y9.179 F4800.000
G1 X-37.599 Y9.179 E101.54596 F2400.000
G1 X-37.599 Y-8.179 E102.36214
G1 X37.599 Y-8.179 E105.89797
G1 X37.599 Y9.119 E106.71132
G1 X38.227 Y9.807 F4800.000
G1 X-38.227 Y9.807 E110.30624 F2400.000
G1 X-38.227 Y-8.807 E111.18150
G1 X38.227 Y-8.807 E114.77641
G1 X38.227 Y9.747 E115.64886
G1 X38.720 Y10.300 F4800.000
G1 X-38.720 Y10.300 E117.71821 F1200.000
G1 X-38.720 Y-9.300 E118.24197
G1 X38.720 Y-9.300 E120.31133
G1 X38.720 Y10.240 E120.83348
G1 X38.373 Y10.100 F4800.000
G1 E118.83348 F2400.00000
G92 E0
G1 X36.951 Y-7.492 F4800.000
G1 E2.00000 F2400.00000
G1 X36.644 Y-7.798 E2.02042 F1200.000
G1 X35.754 Y-7.798 E2.06233
G1 X36.951 Y-6.602 E2.14202
G1 X36.951 Y-5.712 E2.18393
G1 X34.865 Y-7.798 E2.32289
G1 X33.975 Y-7.798 E2.36480
G1 X36.951 Y-4.822 E2.56303
G1 X36.951 Y-3.932 E2.60494
G1 X33.085 Y-7.798 E2.86244
G1 X32.195 Y-7.798 E2.90435
G1 X36.951 Y-3.042 E3.22113
G1 X36.951 Y-2.152 E3.26304
G1 X31.305 Y-7.798 E3.63908
G1 X30.415 Y-7.798 E3.68099
G1 X36.951 Y-1.262 E4.11631
G1 X36.951 Y-0.372 E4.15822
G1 X29.525 Y-7.798 E4.65280
G1 X28.635 Y-7.798 E4.69472
G1 X36.951 Y0.518 E5.24857
G1 X36.951 Y1.408 E5.29048
G1 X27.745 Y-7.798 E5.90361
G1 X26.855 Y-7.798 E5.94552
G1 X36.951 Y2.298 E6.61792
G1 X36.951 Y3.188 E6.65983
G1 X25.965 Y-7.798 E7.39150
G1 X25.075 Y-7.798 E7.43341
G1 X36.951 Y4.078 E8.22435
G1 X36.951 Y4.968 E8.26627
G1 X24.185 Y-7.798 E9.11648
G1 X23.295 Y-7.798 E9.15839
