;FLAVOR:Marlin
;TIME:3456
;Filament used: 1.86258m
;Layer height: 0.1
;MINX:-27.767
;MINY:-40.72
;MINZ:0.3
;MAXX:27.767
;MAXY:14.812
;MAXZ:13
;Generated with Cura_SteamEngine 4.6.1
M140 S60
M105
M190 S60
M104 S200
M105
M109 S200
M82 ;absolute extrusion mode
G21 ;metric values
G90 ;absolute positioning
M82 ;set extruder to absolute mode
M107 ;start with the fan off
G28 ;Home all axes (max endstops)
G1 Z15.0 F9000 ;move the platform down 15mm
G92 E0 ;zero the extruded length
G1 F200 E3 ;extrude 3mm of feed stock
G92 E0 ;zero the extruded length again
G1 F9000
;Put printing message on LCD screen
M117 Printing...
G92 E0
G92 E0
G1 F1500 E-6.5
;LAYER_COUNT:128
;LAYER:0
M107
G0 F3600 X18.988 Y14.812 Z0.3
;TYPE:SKIRT
G1 F1500 E0
G1 F1800 X-18.988 Y14.812 E1.89463
G1 X-20.115 Y14.73 E1.95101
G1 X-21.163 Y14.537 E2.00417
G1 X-22.153 Y14.217 E2.05608
G1 X-23.079 Y13.804 E2.10666
G1 X-23.759 Y13.404 E2.14602
G1 X-24.36 Y12.971 E2.18298
G1 X-24.966 Y12.466 E2.22233
G1 X-25.71 Y11.676 E2.27647
G1 X-26.319 Y10.87 E2.32687
G1 X-26.721 Y10.19 E2.36628
G1 X-27.046 Y9.501 E2.40429
G1 X-27.331 Y8.764 E2.44371
G1 X-27.54 Y8.003 E2.48308
G1 X-27.66 Y7.346 E2.5164
G1 X-27.749 Y6.562 E2.55577
G1 X-27.764 Y6.077 E2.57998
G1 X-27.767 Y-.922 E2.92916
G1 X-27.766 Y-31.942 E4.47675
G1 X-27.687 Y-33.049 E4.53212
G1 X-27.497 Y-34.096 E4.58521
G1 X-27.186 Y-35.069 E4.63617
G1 X-26.777 Y-36 E4.6869
G1 X-26.38 Y-36.682 E4.72627
G1 X-26.011 Y-37.201 E4.75804
G1 X-25.322 Y-38.026 E4.81167
G1 X-24.749 Y-38.57 E4.85109
G1 X-24.251 Y-38.963 E4.88274
G1 X-23.382 Y-39.545 E4.93492
G1 X-22.68 Y-39.907 E4.97432
G1 X-22.077 Y-40.154 E5.00683
G1 X-21.327 Y-40.403 E5.04626
G1 X-20.244 Y-40.622 E5.10138
G1 X-19.989 Y-40.655 E5.11421
G1 X-18.988 Y-40.72 E5.16426
G1 X18.989 Y-40.72 E7.05894
G1 X19.79 Y-40.679 E7.09895
G1 X20.784 Y-40.536 E7.14905
G1 X21.548 Y-40.337 E7.18844
G1 X22.197 Y-40.106 E7.22281
G1 X22.922 Y-39.793 E7.26221
G1 X23.611 Y-39.408 E7.30158
G1 X24.155 Y-39.034 E7.33452
G1 X24.966 Y-38.375 E7.38665
G1 X25.724 Y-37.568 E7.44189
G1 X26.331 Y-36.759 E7.49235
G1 X26.731 Y-36.078 E7.53175
G1 X27.036 Y-35.433 E7.56735
G1 X27.323 Y-34.697 E7.60676
G1 X27.535 Y-33.936 E7.64617
G1 X27.661 Y-33.244 E7.68126
G1 X27.749 Y-32.46 E7.72062
G1 X27.764 Y-31.985 E7.74433
G1 X27.767 Y-24.986 E8.09351
G1 X27.767 Y5.937 E9.63627
G1 X27.746 Y6.514 E9.66508
G1 X27.624 Y7.608 E9.71999
G1 X27.447 Y8.377 E9.75936
G1 X27.255 Y8.965 E9.79022
G1 X26.843 Y9.959 E9.8439
G1 X26.459 Y10.649 E9.8833
G1 X26.011 Y11.292 E9.9224
G1 X25.322 Y12.117 E9.97602
G1 X24.749 Y12.661 E10.01544
G1 X24.251 Y13.054 E10.04709
G1 X23.382 Y13.636 E10.09927
G1 X22.323 Y14.149 E10.15798
G1 X21.357 Y14.487 E10.20904
G1 X20.244 Y14.714 E10.26571
G1 X19.989 Y14.747 E10.27854
G1 X18.988 Y14.812 E10.32858
G0 F3600 X18.988 Y14.412
G1 F1800 X-18.988 Y14.412 E12.22321
G1 X-20.057 Y14.334 E12.27669
G1 X-21.085 Y14.144 E12.32884
G1 X-22.005 Y13.845 E12.3771
G1 X-22.911 Y13.44 E12.42661
G1 X-23.573 Y13.048 E12.465
G1 X-24.12 Y12.652 E12.49869
G1 X-24.71 Y12.158 E12.53708
G1 X-25.401 Y11.423 E12.58741
G1 X-25.996 Y10.632 E12.63679
G1 X-26.385 Y9.969 E12.67514
G1 X-26.681 Y9.338 E12.70991
G1 X-26.957 Y8.62 E12.74829
G1 X-27.224 Y7.529 E12.80433
G1 X-27.351 Y6.517 E12.85521
G1 X-27.367 Y-.922 E13.22635
G1 X-27.366 Y-31.942 E14.77394
G1 X-27.291 Y-32.992 E14.82646
G1 X-27.103 Y-34.019 E14.87855
G1 X-26.813 Y-34.923 E14.92591
G1 X-26.412 Y-35.834 E14.97557
G1 X-26.023 Y-36.497 E15.01392
G1 X-25.695 Y-36.956 E15.04206
G1 X-25.018 Y-37.764 E15.09466
G1 X-24.458 Y-38.292 E15.13305
G1 X-24.016 Y-38.639 E15.16109
G1 X-23.163 Y-39.209 E15.21227
G1 X-22.149 Y-39.696 E15.26839
G1 X-21.201 Y-40.023 E15.31842
G1 X-20.193 Y-40.226 E15.36972
G1 X-19.938 Y-40.259 E15.38255
G1 X-18.988 Y-40.32 E15.43004
G1 X18.989 Y-40.32 E17.32472
G1 X19.749 Y-40.281 E17.36269
G1 X20.722 Y-40.14 E17.41174
G1 X21.789 Y-39.831 E17.46716
G1 X22.763 Y-39.425 E17.51981
G1 X23.433 Y-39.048 E17.55816
G1 X23.915 Y-38.715 E17.58739
G1 X24.71 Y-38.067 E17.63856
G1 X25.414 Y-37.315 E17.68995
G1 X26.008 Y-36.522 E17.73938
G1 X26.395 Y-35.858 E17.77773
G1 X26.671 Y-35.269 E17.81018
G1 X26.95 Y-34.552 E17.84856
G1 X27.153 Y-33.81 E17.88694
G1 X27.266 Y-33.18 E17.91887
G1 X27.351 Y-32.415 E17.95727
G1 X27.367 Y-24.986 E18.32791
G1 X27.367 Y5.937 E19.87066
G1 X27.347 Y6.485 E19.89802
G1 X27.227 Y7.558 E19.95189
G1 X27.052 Y8.306 E19.99021
G1 X26.88 Y8.826 E20.01754
G1 X26.475 Y9.801 E20.07021
G1 X26.098 Y10.471 E20.10857
G1 X25.695 Y11.047 E20.14364
G1 X25.018 Y11.855 E20.19623
G1 X24.458 Y12.383 E20.23463
G1 X24.016 Y12.73 E20.26266
G1 X23.163 Y13.3 E20.31385
G1 X22.177 Y13.777 E20.36849
G1 X21.229 Y14.107 E20.41857
G1 X20.193 Y14.318 E20.47132
G1 X19.938 Y14.351 E20.48415
G1 X18.988 Y14.412 E20.53164
G0 F3600 X18.988 Y14.012
G1 F1800 X-18.988 Y14.012 E22.42627
G1 X-19.999 Y13.939 E22.47684
G1 X-21.007 Y13.751 E22.528
G1 X-21.856 Y13.473 E22.57257
G1 X-22.743 Y13.077 E22.62103
G1 X-23.674 Y12.486 E22.67604
G1 X-24.453 Y11.851 E22.72619
G1 X-25.091 Y11.169 E22.77278
G1 X-25.674 Y10.395 E22.82112
G1 X-26.207 Y9.417 E22.87669
G1 X-26.583 Y8.476 E22.92725
G1 X-26.829 Y7.464 E22.9792
G1 X-26.953 Y6.472 E23.02908
G1 X-26.967 Y-.922 E23.39797
G1 X-26.966 Y-31.942 E24.94556
G1 X-26.895 Y-32.936 E24.99528
G1 X-26.711 Y-33.941 E25.04625
G1 X-26.441 Y-34.776 E25.09004
G1 X-26.047 Y-35.668 E25.13869
G1 X-25.666 Y-36.311 E25.17597
G1 X-25.204 Y-36.937 E25.21479
G1 X-24.715 Y-37.503 E25.25211
G1 X-24.168 Y-38.014 E25.28945
G1 X-23.573 Y-38.467 E25.32676
G1 X-22.945 Y-38.873 E25.36407
G1 X-22.004 Y-39.324 E25.41613
G1 X-21.075 Y-39.643 E25.46513
G1 X-20.141 Y-39.829 E25.51265
G1 X-19.886 Y-39.862 E25.52547
G1 X-18.988 Y-39.92 E25.57037
G1 X18.989 Y-39.92 E27.46505
G1 X19.708 Y-39.883 E27.50097
G1 X20.66 Y-39.744 E27.54897
G1 X21.649 Y-39.456 E27.60036
G1 X22.603 Y-39.058 E27.65193
G1 X23.253 Y-38.688 E27.68924
G1 X23.674 Y-38.395 E27.71483
G1 X24.453 Y-37.76 E27.76497
G1 X25.104 Y-37.063 E27.81256
G1 X25.684 Y-36.286 E27.86093
G1 X26.198 Y-35.345 E27.91442
G1 X26.577 Y-34.407 E27.9649
G1 X26.831 Y-33.365 E28.0184
G1 X26.953 Y-32.371 E28.06837
G1 X26.967 Y-24.986 E28.43681
G1 X26.967 Y5.937 E29.97956
G1 X26.948 Y6.455 E30.00542
G1 X26.83 Y7.507 E30.05824
G1 X26.656 Y8.235 E30.09558
G1 X26.405 Y8.955 E30.13362
G1 X26.108 Y9.641 E30.17091
G1 X25.738 Y10.292 E30.20827
G1 X25.379 Y10.802 E30.23939
G1 X24.715 Y11.594 E30.29095
G1 X24.168 Y12.105 E30.3283
G1 X23.573 Y12.558 E30.3656
G1 X22.945 Y12.964 E30.40291
G1 X22.03 Y13.405 E30.45359
G1 X21.102 Y13.728 E30.50261
G1 X20.141 Y13.921 E30.55151
G1 X19.886 Y13.954 E30.56434
G1 X18.988 Y14.012 E30.60923
G0 F3600 X18.988 Y13.612
G1 F1800 X-18.988 Y13.612 E32.50387
G1 X-19.941 Y13.543 E32.55153
G1 X-20.927 Y13.358 E32.60159
G1 X-21.708 Y13.102 E32.64259
G1 X-22.575 Y12.713 E32.69
G1 X-23.434 Y12.166 E32.74081
G1 X-24.195 Y11.544 E32.78984
G1 X-24.782 Y10.916 E32.83273
G1 X-25.35 Y10.159 E32.87994
G1 X-25.842 Y9.254 E32.93133
G1 X-26.209 Y8.333 E32.9808
G1 X-26.435 Y7.399 E33.02874
G1 X-26.476 Y7.151 E33.04128
G1 X-26.564 Y6.077 E33.09504
G1 X-26.567 Y-.922 E33.44422
G1 X-26.566 Y-31.942 E34.99182
G1 X-26.499 Y-32.879 E35.03868
G1 X-26.318 Y-33.863 E35.0886
G1 X-26.069 Y-34.63 E35.12883
G1 X-25.683 Y-35.501 E35.17636
G1 X-25.31 Y-36.124 E35.21259
G1 X-24.887 Y-36.692 E35.24792
G1 X-24.412 Y-37.241 E35.28414
G1 X-23.879 Y-37.734 E35.32036
G1 X-23.338 Y-38.143 E35.3542
G1 X-22.728 Y-38.537 E35.39043
G1 X-21.859 Y-38.951 E35.43845
G1 X-20.95 Y-39.262 E35.48638
G1 X-20.09 Y-39.432 E35.53012
G1 X-19.835 Y-39.465 E35.54294
G1 X-18.988 Y-39.52 E35.58529
G1 X18.989 Y-39.52 E37.47997
G1 X19.667 Y-39.485 E37.51384
G1 X20.597 Y-39.349 E37.56073
G1 X21.509 Y-39.082 E37.60814
G1 X22.443 Y-38.691 E37.65866
G1 X23.072 Y-38.328 E37.69489
G1 X23.639 Y-37.921 E37.72971
G1 X24.195 Y-37.453 E37.76597
G1 X24.794 Y-36.81 E37.80981
G1 X25.361 Y-36.051 E37.85708
G1 X25.834 Y-35.18 E37.90653
G1 X26.203 Y-34.263 E37.95584
G1 X26.436 Y-33.3 E38.00527
G1 X26.477 Y-33.05 E38.01791
G1 X26.564 Y-31.985 E38.07122
G1 X26.567 Y-24.986 E38.4204
G1 X26.567 Y5.937 E39.96316
G1 X26.526 Y6.735 E40.00302
G1 X26.432 Y7.456 E40.0393
G1 X26.26 Y8.161 E40.0755
G1 X26.03 Y8.816 E40.11013
G1 X25.74 Y9.482 E40.14637
G1 X25.379 Y10.112 E40.1826
G1 X25.062 Y10.557 E40.20986
G1 X24.412 Y11.332 E40.26032
G1 X23.879 Y11.825 E40.29654
G1 X23.338 Y12.234 E40.33038
G1 X22.728 Y12.628 E40.36661
G1 X21.883 Y13.033 E40.41336
G1 X20.976 Y13.347 E40.46124
G1 X20.09 Y13.524 E40.50632
G1 X19.835 Y13.557 E40.51915
G1 X18.988 Y13.612 E40.56149
G0 F3600 X18.988 Y13.212
G1 F1800 X-18.988 Y13.212 E42.45612
G1 X-19.884 Y13.147 E42.50094
G1 X-20.847 Y12.966 E42.54983
G1 X-21.56 Y12.73 E42.5873
G1 X-22.406 Y12.35 E42.63357
G1 X-23.194 Y11.846 E42.68024
G1 X-23.937 Y11.238 E42.72813
G1 X-24.472 Y10.663 E42.76732
G1 X-25.027 Y9.922 E42.8135
G1 X-25.477 Y9.091 E42.86065
G1 X-25.835 Y8.191 E42.90897
G1 X-26.04 Y7.333 E42.95299
G1 X-26.081 Y7.085 E42.96553
G1 X-26.164 Y6.077 E43.01599
G1 X-26.167 Y-.922 E43.36517
G1 X-26.166 Y-31.942 E44.91276
G1 X-26.103 Y-32.822 E44.95678
G1 X-25.925 Y-33.784 E45.00559
G1 X-25.697 Y-34.484 E45.04232
G1 X-25.319 Y-35.334 E45.08873
G1 X-24.954 Y-35.936 E45.12385
G1 X-24.571 Y-36.447 E45.15571
G1 X-24.109 Y-36.978 E45.19082
G1 X-23.311 Y-37.668 E45.24346
G1 X-22.511 Y-38.2 E45.29139
G1 X-21.713 Y-38.578 E45.33544
G1 X-20.826 Y-38.882 E45.38222
G1 X-20.039 Y-39.036 E45.42223
G1 X-19.784 Y-39.069 E45.43506
G1 X-18.988 Y-39.12 E45.47485
G1 X18.989 Y-39.12 E47.36953
G1 X19.626 Y-39.087 E47.40135
G1 X20.534 Y-38.953 E47.44714
G1 X21.369 Y-38.707 E47.49057
G1 X22.282 Y-38.324 E47.53997
G1 X22.89 Y-37.969 E47.57509
G1 X23.399 Y-37.601 E47.60643
G1 X23.937 Y-37.147 E47.64155
G1 X24.483 Y-36.558 E47.68162
G1 X25.036 Y-35.816 E47.72779
G1 X25.469 Y-35.016 E47.77317
G1 X25.829 Y-34.119 E47.82139
G1 X26.041 Y-33.235 E47.86675
G1 X26.082 Y-32.985 E47.87938
G1 X26.164 Y-31.985 E47.92944
G1 X26.167 Y-24.986 E48.27862
G1 X26.167 Y5.937 E49.82138
G1 X26.127 Y6.706 E49.8598
G1 X26.035 Y7.404 E49.89492
G1 X25.755 Y8.407 E49.94687
G1 X25.373 Y9.321 E49.9963
G1 X25.019 Y9.93 E50.03144
G1 X24.571 Y10.538 E50.06912
G1 X24.109 Y11.069 E50.10423
G1 X23.311 Y11.759 E50.15686
G1 X22.511 Y12.291 E50.2048
G1 X21.736 Y12.66 E50.24762
G1 X20.85 Y12.967 E50.2944
G1 X20.039 Y13.128 E50.33565
G1 X19.784 Y13.161 E50.34848
G1 X18.988 Y13.212 E50.38827
G0 F3600 X18.988 Y12.812
G1 F1800 X-18.988 Y12.812 E52.2829
G1 X-19.826 Y12.751 E52.32482
G1 X-20.767 Y12.573 E52.3726
G1 X-21.412 Y12.359 E52.4065
G1 X-22.236 Y11.987 E52.45161
G1 X-22.954 Y11.526 E52.49418
G1 X-23.678 Y10.932 E52.5409
G1 X-24.163 Y10.409 E52.57649
G1 X-24.702 Y9.687 E52.62144
G1 X-25.111 Y8.928 E52.66445
G1 X-25.46 Y8.049 E52.71163
G1 X-25.645 Y7.268 E52.75168
G1 X-25.686 Y7.02 E52.76422
G1 X-25.764 Y6.076 E52.81148
G1 X-25.767 Y-.923 E53.16066
G1 X-25.766 Y-31.942 E54.7082
G1 X-25.707 Y-32.765 E54.74937
G1 X-25.532 Y-33.704 E54.79702
G1 X-25.324 Y-34.337 E54.83026
G1 X-24.955 Y-35.166 E54.87553
G1 X-24.43 Y-35.976 E54.92369
G1 X-23.807 Y-36.715 E54.97191
G1 X-23.076 Y-37.345 E55.02006
G1 X-22.295 Y-37.863 E55.06681
G1 X-21.568 Y-38.206 E55.10692
G1 X-20.702 Y-38.5 E55.15254
G1 X-19.987 Y-38.639 E55.18888
G1 X-18.988 Y-38.72 E55.23889
G1 X18.989 Y-38.72 E57.13357
G1 X19.585 Y-38.689 E57.16334
G1 X20.47 Y-38.558 E57.20798
G1 X21.23 Y-38.332 E57.24753
G1 X22.12 Y-37.957 E57.29572
G1 X22.954 Y-37.435 E57.3448
G1 X23.678 Y-36.841 E57.39152
G1 X24.173 Y-36.305 E57.42792
G1 X24.711 Y-35.581 E57.47292
G1 X25.104 Y-34.852 E57.51424
G1 X25.455 Y-33.976 E57.56132
G1 X25.647 Y-33.171 E57.60261
G1 X25.688 Y-32.921 E57.61525
G1 X25.764 Y-31.984 E57.66215
G1 X25.767 Y-24.985 E58.01133
G1 X25.767 Y5.937 E59.55404
G1 X25.728 Y6.676 E59.59096
G1 X25.638 Y7.351 E59.62493
G1 X25.381 Y8.268 E59.67245
G1 X25.006 Y9.16 E59.72072
G1 X24.661 Y9.747 E59.75469
G1 X24.255 Y10.293 E59.78863
G1 X23.807 Y10.806 E59.82261
G1 X23.076 Y11.436 E59.87076
G1 X22.295 Y11.954 E59.91751
G1 X21.589 Y12.288 E59.95648
G1 X20.724 Y12.587 E60.00214
G1 X19.987 Y12.731 E60.0396
G1 X18.988 Y12.812 E60.08961
G0 F3600 X18.988 Y12.412
G1 F1800 X-18.988 Y12.412 E61.98424
G1 X-19.768 Y12.355 E62.02326
G1 X-20.685 Y12.181 E62.06982
G1 X-21.263 Y11.987 E62.10024
G1 X-22.066 Y11.624 E62.14421
G1 X-22.713 Y11.206 E62.18263
G1 X-23.419 Y10.627 E62.22819
G1 X-23.853 Y10.156 E62.26014
G1 X-24.378 Y9.452 E62.30395
G1 X-24.746 Y8.765 E62.34284
G1 X-25.085 Y7.908 E62.38882
G1 X-25.251 Y7.203 E62.42495
G1 X-25.292 Y6.955 E62.43749
G1 X-25.364 Y6.076 E62.48149
G1 X-25.367 Y-.923 E62.83067
G1 X-25.366 Y-31.942 E64.37822
G1 X-25.311 Y-32.708 E64.41653
G1 X-25.14 Y-33.624 E64.46302
G1 X-24.952 Y-34.191 E64.49282
G1 X-24.592 Y-34.997 E64.53686
G1 X-24.114 Y-35.731 E64.58056
G1 X-23.506 Y-36.451 E64.62758
G1 X-22.841 Y-37.021 E64.67127
G1 X-22.079 Y-37.525 E64.71685
G1 X-21.423 Y-37.833 E64.75301
G1 X-20.579 Y-38.119 E64.79747
G1 X-19.936 Y-38.242 E64.83013
G1 X-18.988 Y-38.32 E64.87759
G1 X18.989 Y-38.32 E66.77227
G1 X19.544 Y-38.291 E66.79999
G1 X20.405 Y-38.162 E66.84343
G1 X21.09 Y-37.957 E66.8791
G1 X21.958 Y-37.591 E66.9261
G1 X22.713 Y-37.115 E66.97063
G1 X23.419 Y-36.536 E67.01618
G1 X23.863 Y-36.053 E67.04891
G1 X24.386 Y-35.347 E67.09274
G1 X24.739 Y-34.688 E67.13004
G1 X25.08 Y-33.834 E67.17592
G1 X25.252 Y-33.106 E67.21324
G1 X25.293 Y-32.856 E67.22588
G1 X25.364 Y-31.984 E67.26953
G1 X25.367 Y-24.985 E67.61871
G1 X25.367 Y5.937 E69.16141
G1 X25.329 Y6.647 E69.19688
G1 X25.241 Y7.298 E69.22966
G1 X25.006 Y8.129 E69.27274
G1 X24.64 Y8.998 E69.31979
G1 X24.114 Y9.822 E69.36856
G1 X23.506 Y10.542 E69.41557
G1 X22.841 Y11.112 E69.45927
G1 X22.079 Y11.616 E69.50485
G1 X21.443 Y11.916 E69.53993
G1 X20.6 Y12.206 E69.58441
G1 X19.936 Y12.334 E69.61815
G1 X18.988 Y12.412 E69.6656
G0 F3600 X18.988 Y12.012
G1 F1800 X-18.988 Y12.012 E71.56023
G1 X-19.71 Y11.96 E71.59635
G1 X-20.603 Y11.789 E71.64171
G1 X-21.115 Y11.616 E71.66867
G1 X-21.894 Y11.262 E71.71136
G1 X-22.473 Y10.887 E71.74577
G1 X-23.159 Y10.322 E71.79011
G1 X-23.544 Y9.902 E71.81854
G1 X-24.053 Y9.218 E71.86107
G1 X-24.381 Y8.602 E71.89589
G1 X-24.71 Y7.767 E71.94067
G1 X-24.856 Y7.138 E71.97288
G1 X-24.897 Y6.89 E71.98542
G1 X-24.964 Y6.076 E72.02617
G1 X-24.967 Y-.923 E72.37535
G1 X-24.966 Y-31.942 E73.9229
G1 X-24.915 Y-32.652 E73.95841
G1 X-24.747 Y-33.542 E74.0036
G1 X-24.58 Y-34.044 E74.02999
G1 X-24.229 Y-34.828 E74.07285
G1 X-23.797 Y-35.486 E74.11212
G1 X-23.205 Y-36.187 E74.15789
G1 X-22.606 Y-36.697 E74.19714
G1 X-21.864 Y-37.186 E74.24148
G1 X-21.277 Y-37.46 E74.27379
G1 X-20.457 Y-37.737 E74.31698
G1 X-19.885 Y-37.846 E74.34603
G1 X-18.988 Y-37.92 E74.39093
G1 X18.989 Y-37.92 E76.28561
G1 X19.503 Y-37.894 E76.31129
G1 X20.339 Y-37.767 E76.35347
G1 X20.95 Y-37.583 E76.38531
G1 X21.795 Y-37.225 E76.43109
G1 X22.473 Y-36.796 E76.47112
G1 X23.159 Y-36.231 E76.51546
G1 X23.553 Y-35.8 E76.54459
G1 X24.06 Y-35.114 E76.58715
G1 X24.375 Y-34.524 E76.62052
G1 X24.705 Y-33.692 E76.66517
G1 X24.857 Y-33.041 E76.69852
G1 X24.898 Y-32.791 E76.71116
G1 X24.964 Y-31.984 E76.75156
G1 X24.967 Y-24.985 E77.10074
G1 X24.967 Y5.937 E78.64345
G1 X24.93 Y6.617 E78.67742
G1 X24.844 Y7.243 E78.70895
G1 X24.631 Y7.989 E78.74765
G1 X24.531 Y8.258 E78.76197
G1 X24.273 Y8.836 E78.79355
G1 X23.797 Y9.577 E78.83749
G1 X23.205 Y10.278 E78.88326
G1 X22.606 Y10.788 E78.92251
G1 X21.864 Y11.277 E78.96685
G1 X21.296 Y11.544 E78.99816
G1 X20.476 Y11.825 E79.0414
G1 X19.885 Y11.938 E79.07142
G1 X18.988 Y12.012 E79.11633
G0 F3600 X18.988 Y11.612
G1 F1800 X-18.988 Y11.612 E81.01096
G1 X-19.652 Y11.564 E81.04417
G1 X-19.926 Y11.524 E81.05799
G1 X-20.519 Y11.397 E81.08824
G1 X-21.175 Y11.161 E81.12302
G1 X-21.722 Y10.9 E81.15326
G1 X-22.233 Y10.567 E81.18369
G1 X-22.898 Y10.018 E81.22671
G1 X-23.374 Y9.478 E81.26263
G1 X-23.727 Y8.985 E81.29288
G1 X-24.016 Y8.439 E81.3237
G1 X-24.334 Y7.628 E81.36716
G1 X-24.461 Y7.072 E81.39561
G1 X-24.502 Y6.824 E81.40815
G1 X-24.564 Y6.076 E81.4456
G1 X-24.567 Y-.923 E81.79478
G1 X-24.566 Y-31.942 E83.34232
