; generated by Slic3r 1.2.9 on 2021-10-22 at 21:12:20

; external perimeters extrusion width = 0.40mm
; perimeters extrusion width = 0.67mm
; infill extrusion width = 0.67mm
; solid infill extrusion width = 0.67mm
; top infill extrusion width = 0.67mm

M190 S70 ; set bed temperature
M104 S185 ; set temperature
G28 ; home all axes
G1 Z5 F5000 ; lift nozzle

M109 S185 ; wait for temperature to be reached
G21 ; set units to millimeters
G90 ; use absolute coordinates
M82 ; use absolute distances for extrusion
G92 E0
G1 E-6.00000 F3000.00000
G92 E0
G1 Z0.500 F4800.000
G1 X0.000 Y11.571 F4800.000
G1 Z0.300 F4800.000
G1 E5.00000 F3000.00000
G1 X-16.002 Y11.571 E6.06902 F1080.000
G1 X-16.929 Y11.510 E6.13111
G1 X-18.093 Y11.356 E6.20955
G1 X-19.877 Y10.877 E6.33294
G1 X-20.961 Y10.427 E6.41135
G1 X-22.550 Y9.509 E6.53394
G1 X-23.482 Y8.795 E6.61237
G1 X-24.790 Y7.490 E6.73579
G1 X-25.506 Y6.558 E6.81430
G1 X-26.431 Y4.957 E6.93783
G1 X-26.881 Y3.871 E7.01636
G1 X-27.360 Y2.078 E7.14034
G1 X-27.512 Y0.912 E7.21890
G1 X-27.512 Y-0.918 E7.34113
G1 X-27.360 Y-2.082 E7.41955
G1 X-26.879 Y-3.877 E7.54373
G1 X-26.429 Y-4.961 E7.62214
G1 X-25.506 Y-6.558 E7.74536
G1 X-24.790 Y-7.490 E7.82388
G1 X-23.490 Y-8.790 E7.94666
G1 X-22.558 Y-9.506 E8.02517
G1 X-20.961 Y-10.429 E8.14839
G1 X-19.877 Y-10.879 E8.22681
G1 X-18.082 Y-11.360 E8.35098
G1 X-16.918 Y-11.512 E8.42941
G1 X-16.002 Y-11.571 E8.49070
G1 X16.000 Y-11.571 E10.62861
G1 X16.916 Y-11.512 E10.68990
G1 X18.080 Y-11.360 E10.76833 F1080.000
G1 X19.875 Y-10.879 E10.89251
G1 X20.959 Y-10.429 E10.97092
G1 X22.556 Y-9.506 E11.09414
G1 X23.488 Y-8.790 E11.17265
G1 X24.788 Y-7.490 E11.29544
G1 X25.504 Y-6.558 E11.37396
G1 X26.427 Y-4.961 E11.49718
G1 X26.877 Y-3.877 E11.57559
G1 X27.356 Y-2.093 E11.69897
G1 X27.510 Y-0.929 E11.77741
G1 X27.510 Y0.924 E11.90123
G1 X27.356 Y2.090 E11.97980
G1 X26.879 Y3.871 E12.10298
G1 X26.429 Y4.957 E12.18151
G1 X25.504 Y6.558 E12.30505
G1 X24.788 Y7.490 E12.38356
G1 X23.480 Y8.795 E12.50697
G1 X22.548 Y9.509 E12.58541
G1 X20.959 Y10.427 E12.70800
G1 X19.875 Y10.877 E12.78641
G1 X18.091 Y11.356 E12.90980
G1 X16.927 Y11.510 E12.98823
G1 X16.000 Y11.571 E13.05033
G1 X0.060 Y11.571 E14.11521
G1 X0.060 Y11.036 F4800.000
G1 X-16.002 Y11.036 E15.18823 F1080.000
G1 X-16.859 Y10.979 E15.24562
G1 X-18.023 Y10.825 E15.32406
G1 X-19.672 Y10.382 E15.43811
G1 X-20.756 Y9.932 E15.51651
G1 X-22.225 Y9.084 E15.62982
G1 X-23.157 Y8.370 E15.70825
G1 X-24.365 Y7.164 E15.82232
G1 X-25.081 Y6.232 E15.90083
G1 X-25.936 Y4.752 E16.01501
G1 X-26.386 Y3.666 E16.09354
G1 X-26.829 Y2.009 E16.20812
G1 X-26.981 Y0.843 E16.28668
G1 X-26.981 Y-0.848 E16.39965
G1 X-26.829 Y-2.012 E16.47807
G1 X-26.384 Y-3.672 E16.59285
G1 X-25.934 Y-4.756 E16.67126
G1 X-25.081 Y-6.232 E16.78515
G1 X-24.365 Y-7.164 E16.86366
G1 X-23.164 Y-8.365 E16.97714
G1 X-22.232 Y-9.081 E17.05566
G1 X-20.756 Y-9.934 E17.16954
G1 X-19.672 Y-10.384 E17.24796
G1 X-18.012 Y-10.829 E17.36273
G1 X-16.848 Y-10.981 E17.44115
G1 X-16.002 Y-11.036 E17.49780
G1 X16.000 Y-11.036 E19.63571
G1 X16.846 Y-10.981 E19.69236
G1 X18.010 Y-10.829 E19.77079 F1080.000
G1 X19.670 Y-10.384 E19.88556
G1 X20.754 Y-9.934 E19.96397
G1 X22.230 Y-9.081 E20.07786
G1 X23.162 Y-8.365 E20.15637
G1 X24.363 Y-7.164 E20.26985
G1 X25.079 Y-6.232 E20.34837
G1 X25.932 Y-4.756 E20.46226
G1 X26.382 Y-3.672 E20.54067
G1 X26.825 Y-2.023 E20.65471
G1 X26.979 Y-0.859 E20.73315
G1 X26.979 Y0.854 E20.84759
G1 X26.825 Y2.020 E20.92616
G1 X26.384 Y3.666 E21.04001
G1 X25.934 Y4.752 E21.11854
G1 X25.079 Y6.232 E21.23272
G1 X24.363 Y7.164 E21.31123
G1 X23.155 Y8.370 E21.42530
G1 X22.223 Y9.084 E21.50373
G1 X20.754 Y9.932 E21.61704
G1 X19.670 Y10.382 E21.69545
G1 X18.021 Y10.825 E21.80949
G1 X16.857 Y10.979 E21.88793
G1 X16.000 Y11.036 E21.94532
G1 X0.120 Y11.036 E23.00619
G1 F3840
G1 X-7.560 Y11.036 E17.30619
G1 E17.00619 F3000.00000
G92 E0
G1 Z0.800 F4800.000
G1 X0.120 Y5.685 F4800.000
G1 Z0.300 F4800.000
G1 E5.00000 F3000.00000
G1 X-1.361 Y5.672 E5.09893 F1080.000
G1 X-7.948 Y4.375 E5.54743
G1 X-8.052 Y4.375 E5.55441
G1 X-14.598 Y5.664 E6.00010
G1 X-15.914 Y5.839 E6.08879
G1 X-16.090 Y5.839 E6.10056
G1 X-17.429 Y5.662 E6.19076
G1 X-17.598 Y5.616 E6.20249
G1 X-18.844 Y5.099 E6.29259
G1 X-18.995 Y5.012 E6.30425
G1 X-20.066 Y4.192 E6.39438
G1 X-20.190 Y4.067 E6.40611
G1 X-21.013 Y2.996 E6.49637
G1 X-21.101 Y2.844 E6.50812
G1 X-21.619 Y1.595 E6.59842
G1 X-21.664 Y1.425 E6.61021
G1 X-21.839 Y0.085 E6.70047
G1 X-21.839 Y-0.089 E6.71209
G1 X-21.664 Y-1.427 E6.80222
G1 X-21.619 Y-1.598 E6.81403
G1 X-21.101 Y-2.844 E6.90421
G1 X-21.013 Y-2.996 E6.91592
G1 X-20.191 Y-4.067 E7.00613
G1 X-20.067 Y-4.191 E7.01781
G1 X-18.996 Y-5.013 E7.10802
G1 X-18.844 Y-5.101 E7.11974
G1 X-17.598 Y-5.619 E7.20991
G1 X-17.427 Y-5.664 E7.22172
G1 X-16.089 Y-5.839 E7.31185
G1 X-15.804 Y-5.825 E7.33093
G1 X-14.599 Y-5.666 E7.41215 F1080.000
G1 X-8.052 Y-4.377 E7.85788
G1 X-7.948 Y-4.377 E7.86486
G1 X-1.231 Y-5.687 E8.32202
G1 X1.359 Y-5.674 E8.49505
G1 X7.946 Y-4.377 E8.94354
G1 X8.050 Y-4.377 E8.95052
G1 X14.597 Y-5.666 E9.39625
G1 X15.913 Y-5.839 E9.48496
G1 X16.087 Y-5.839 E9.49658
G1 X17.425 Y-5.664 E9.58672
G1 X17.596 Y-5.619 E9.59853
G1 X18.842 Y-5.101 E9.68870
G1 X18.994 Y-5.013 E9.70042
G1 X20.065 Y-4.191 E9.79063
G1 X20.189 Y-4.067 E9.80230
G1 X21.011 Y-2.996 E9.89252
G1 X21.099 Y-2.844 E9.90423
G1 X21.616 Y-1.598 E9.99436
G1 X21.662 Y-1.429 E10.00610
G1 X21.839 Y-0.090 E10.09629
G1 X21.839 Y0.086 E10.10806
G1 X21.662 Y1.426 E10.19838
G1 X21.617 Y1.596 E10.21009
G1 X21.099 Y2.844 E10.30035
G1 X21.011 Y2.996 E10.31210
G1 X20.188 Y4.067 E10.40236
G1 X20.064 Y4.192 E10.41410
G1 X18.993 Y5.012 E10.50423
G1 X18.842 Y5.099 E10.51588
G1 X17.596 Y5.616 E10.60599
G1 X17.427 Y5.662 E10.61772
G1 X16.088 Y5.839 E10.70791
G1 X15.912 Y5.839 E10.71969
G1 X14.596 Y5.664 E10.80837
G1 X8.050 Y4.375 E11.25406
G1 X7.946 Y4.375 E11.26104
G1 X1.359 Y5.672 E11.70954
G1 X0.180 Y5.685 E11.78830
G1 X0.180 Y5.149 F4800.000
G1 X-1.283 Y5.142 E11.88603 F1080.000
G1 X-7.948 Y3.829 E12.33983
G1 X-8.052 Y3.829 E12.34681
G1 X-14.718 Y5.141 E12.80068
G1 X-15.949 Y5.303 E12.88363
G1 X-16.055 Y5.303 E12.89069
G1 X-17.324 Y5.136 E12.97618
G1 X-17.425 Y5.108 E12.98322
G1 X-18.606 Y4.618 E13.06865
G1 X-18.697 Y4.566 E13.07564
G1 X-19.712 Y3.788 E13.16109
G1 X-19.787 Y3.713 E13.16813
G1 X-20.567 Y2.698 E13.25369
G1 X-20.620 Y2.606 E13.26074
G1 X-21.110 Y1.423 E13.34633
G1 X-21.138 Y1.320 E13.35341
G1 X-21.303 Y0.050 E13.43899
G1 X-21.138 Y-1.323 E13.53136
G1 X-21.110 Y-1.425 E13.53844
G1 X-20.620 Y-2.607 E13.62391
G1 X-20.567 Y-2.698 E13.63094
G1 X-19.787 Y-3.713 E13.71647
G1 X-19.713 Y-3.787 E13.72348
G1 X-18.698 Y-4.567 E13.80901
G1 X-18.607 Y-4.620 E13.81604
G1 X-17.425 Y-5.110 E13.90151
G1 X-17.323 Y-5.138 E13.90859
G1 X-16.054 Y-5.303 E13.99404
G1 X-15.950 Y-5.303 E14.00101
G1 X-14.694 Y-5.139 E14.08566
G1 X-8.052 Y-3.831 E14.53786
G1 X-7.948 Y-3.831 E14.54484
G1 X-1.205 Y-5.151 E15.00384
G1 X1.281 Y-5.144 E15.16992
G1 X7.946 Y-3.831 E15.62372
G1 X8.050 Y-3.831 E15.63070
G1 X14.692 Y-5.139 E16.08289
G1 X15.948 Y-5.303 E16.16754
G1 X17.321 Y-5.138 E16.25991 F1080.000
G1 X17.423 Y-5.110 E16.26700
G1 X18.605 Y-4.620 E16.35246
G1 X18.696 Y-4.567 E16.35949
G1 X19.711 Y-3.787 E16.44503
G1 X19.785 Y-3.713 E16.45203
G1 X20.565 Y-2.698 E16.53756
G1 X20.618 Y-2.607 E16.54459
G1 X21.108 Y-1.425 E16.63004
G1 X21.136 Y-1.324 E16.63708
G1 X21.303 Y-0.055 E16.72257
G1 X21.303 Y0.051 E16.72963
G1 X21.136 Y1.321 E16.81525
G1 X21.108 Y1.423 E16.82228
G1 X20.618 Y2.606 E16.90785
G1 X20.565 Y2.698 E16.91490
G1 X19.785 Y3.713 E17.00046
G1 X19.710 Y3.788 E17.00750
G1 X18.695 Y4.566 E17.09295
G1 X18.604 Y4.618 E17.09995
G1 X17.423 Y5.108 E17.18537
G1 X17.322 Y5.136 E17.19241
G1 X16.053 Y5.303 E17.27790
G1 X15.947 Y5.303 E17.28497
G1 X14.691 Y5.137 E17.36961
G1 X8.050 Y3.829 E17.82178
G1 X7.946 Y3.829 E17.82876
G1 X1.281 Y5.142 E18.28256
G1 X0.240 Y5.149 E18.35210
G1 X0.240 Y4.614 F4800.000
G1 X-1.205 Y4.611 E18.44863 F1080.000
G1 X-7.948 Y3.283 E18.90774
G1 X-8.052 Y3.283 E18.91472
G1 X-14.797 Y4.611 E19.37394
G1 X-16.020 Y4.768 E19.45631
G1 X-17.252 Y4.600 E19.53942
G1 X-18.369 Y4.137 E19.62017
G1 X-19.359 Y3.384 E19.70326
G1 X-20.139 Y2.369 E19.78877
G1 X-20.602 Y1.250 E19.86966
G1 X-20.768 Y0.015 E19.95289
G1 X-20.602 Y-1.252 E20.03830
G1 X-20.121 Y-2.399 E20.12139
G1 X-19.384 Y-3.359 E20.20224
G1 X-18.399 Y-4.121 E20.28541
G1 X-17.252 Y-4.602 E20.36850
G1 X-16.019 Y-4.768 E20.45161
G1 X-14.789 Y-4.612 E20.53450
G1 X-8.052 Y-3.285 E20.99316
G1 X-7.948 Y-3.285 E21.00014
G1 X-1.179 Y-4.616 E21.46098
G1 X1.203 Y-4.613 E21.62011
G1 X7.946 Y-3.285 E22.07922
G1 X8.050 Y-3.285 E22.08620
G1 X14.787 Y-4.612 E22.54486
G1 X16.017 Y-4.768 E22.62775
G1 X17.250 Y-4.602 E22.71086 F1080.000
G1 X18.397 Y-4.121 E22.79394
G1 X19.357 Y-3.384 E22.87480
G1 X20.119 Y-2.399 E22.95797
G1 X20.609 Y-1.219 E23.04337
G1 X20.768 Y0.016 E23.12649
G1 X20.609 Y1.216 E23.20741
G1 X20.137 Y2.369 E23.29062
G1 X19.382 Y3.359 E23.37381
G1 X18.397 Y4.119 E23.45691
G1 X17.217 Y4.609 E23.54230
G1 X15.982 Y4.768 E23.62542
G1 X14.786 Y4.610 E23.70602
G1 X8.050 Y3.283 E24.16467
G1 X7.946 Y3.283 E24.17165
G1 X1.203 Y4.611 E24.63076
G1 X0.300 Y4.614 E24.69108
G1 X0.300 Y4.046 F4800.000
G1 X-1.137 Y4.046 E24.78706 F420.000
G1 X-8.000 Y2.694 E25.25437
G1 X-14.885 Y4.050 E25.72314
G1 X-16.002 Y4.197 E25.79843
G1 X-17.087 Y4.054 E25.87158
G1 X-18.099 Y3.634 E25.94473
G1 X-18.968 Y2.968 E26.01790
G1 X-19.636 Y2.099 E26.09113
G1 X-20.056 Y1.086 E26.16436
G1 X-20.197 Y-0.002 E26.23765
G1 X-20.056 Y-1.088 E26.31080
G1 X-19.636 Y-2.099 E26.38392
G1 X-18.968 Y-2.968 E26.45717
G1 X-18.099 Y-3.636 E26.53042
G1 X-17.088 Y-4.056 E26.60353
G1 X-16.002 Y-4.197 E26.67668
G1 X-14.884 Y-4.052 E26.75197
G1 X-8.000 Y-2.696 E27.22072 F420.000
G1 X-1.137 Y-4.048 E27.68803
G1 X1.135 Y-4.048 E27.83978
G1 X7.998 Y-2.696 E28.30709
G1 X14.882 Y-4.052 E28.77578
G1 X16.024 Y-4.194 E28.85270
G1 X17.086 Y-4.056 E28.92422
G1 X18.097 Y-3.636 E28.99734
G1 X18.966 Y-2.968 E29.07059
G1 X19.634 Y-2.099 E29.14384
G1 X20.054 Y-1.087 E29.21698
G1 X20.197 Y-0.002 E29.29013
G1 X20.054 Y1.086 E29.36341
G1 X19.634 Y2.099 E29.43667
G1 X18.966 Y2.968 E29.50990
G1 X18.097 Y3.634 E29.58307
G1 X17.085 Y4.054 E29.65621
G1 X16.000 Y4.197 E29.72936
G1 X14.883 Y4.050 E29.80465
G1 X7.998 Y2.694 E30.27342
G1 X1.135 Y4.046 E30.74073
G1 X0.360 Y4.046 E30.79249
G1 X0.100 Y3.700 F4800.000
G1 X0.360 Y3.510 F4800.000
G1 X-1.084 Y3.510 E30.88899 F840.000
G1 X-8.000 Y2.148 E31.35985
G1 X-14.972 Y3.521 E31.83453
G1 X-16.002 Y3.657 E31.90397
G1 X-16.947 Y3.532 E31.96767
G1 X-17.829 Y3.166 E32.03142
G1 X-18.586 Y2.586 E32.09520
G1 X-19.168 Y1.828 E32.15899
G1 X-19.534 Y0.946 E32.22277
G1 X-19.657 Y-0.002 E32.28666
G1 X-19.534 Y-0.948 E32.35039
G1 X-19.168 Y-1.828 E32.41406
G1 X-18.586 Y-2.586 E32.47791
G1 X-17.828 Y-3.168 E32.54177
G1 X-16.948 Y-3.534 E32.60543
G1 X-16.002 Y-3.657 E32.66917
G1 X-14.971 Y-3.523 E32.73863
G1 X-8.000 Y-2.150 E33.21326 F840.000
G1 X-1.084 Y-3.512 E33.68413
G1 X1.082 Y-3.512 E33.82890
G1 X7.998 Y-2.150 E34.29977
G1 X14.967 Y-3.522 E34.77425
G1 X16.023 Y-3.654 E34.84534
G1 X16.946 Y-3.534 E34.90755
G1 X17.826 Y-3.168 E34.97121
G1 X18.584 Y-2.586 E35.03507
G1 X19.166 Y-1.828 E35.09892
G1 X19.532 Y-0.947 E35.16263
G1 X19.657 Y-0.002 E35.22634
G1 X19.532 Y0.946 E35.29019
G1 X19.166 Y1.828 E35.35402
G1 X18.584 Y2.586 E35.41782
G1 X17.827 Y3.166 E35.48159
G1 X16.945 Y3.532 E35.54534
G1 X16.000 Y3.657 E35.60905
G1 X14.970 Y3.521 E35.67848
G1 X7.998 Y2.148 E36.15316
G1 X1.082 Y3.510 E36.62403
G1 X0.420 Y3.510 E36.66829
G1 X-14.066 Y0.519 F4800.000
G1 X-14.266 Y1.000 E36.70313 F288.000
G1 X-14.586 Y1.414 E36.73807
G1 X-15.000 Y1.734 E36.77301
G1 X-15.481 Y1.934 E36.80785
G1 X-16.002 Y2.003 E36.84294
G1 X-16.518 Y1.934 E36.87772
G1 X-17.004 Y1.734 E36.91279
G1 X-17.418 Y1.414 E36.94781
G1 X-17.736 Y1.000 E36.98266
G1 X-17.936 Y0.519 E37.01747
G1 X-18.005 Y-0.002 E37.05256
G1 X-17.936 Y-0.518 E37.08733
G1 X-17.736 Y-1.003 E37.12238
G1 X-17.418 Y-1.418 E37.15730
G1 X-17.003 Y-1.736 E37.19223
G1 X-16.518 Y-1.936 E37.22728
G1 X-16.012 Y-2.003 E37.26136 F288.000
G1 X-15.482 Y-1.937 E37.29706
G1 X-15.000 Y-1.736 E37.33193
G1 X-14.586 Y-1.418 E37.36678
G1 X-14.266 Y-1.004 E37.40179
G1 X-14.066 Y-0.518 E37.43687
G1 X-13.997 Y-0.002 E37.47165
G1 X-14.058 Y0.459 E37.50273
G1 X-13.796 Y0.814 F4800.000
G1 X-13.527 Y0.529 F4800.000
G1 X-13.544 Y0.659 E37.51149 F288.000
G1 X-13.799 Y1.271 E37.55583
G1 X-14.204 Y1.796 E37.60009
G1 X-14.729 Y2.201 E37.64435
G1 X-15.341 Y2.456 E37.68868
G1 X-16.002 Y2.543 E37.73325
G1 X-16.658 Y2.456 E37.77741
G1 X-17.274 Y2.202 E37.82196
G1 X-17.801 Y1.795 E37.86642
G1 X-18.203 Y1.270 E37.91060
G1 X-18.458 Y0.659 E37.95483
G1 X-18.545 Y-0.002 E37.99939
G1 X-18.458 Y-0.658 E38.04356
G1 X-18.204 Y-1.273 E38.08800
G1 X-17.800 Y-1.800 E38.13238
G1 X-17.273 Y-2.204 E38.17676
G1 X-16.658 Y-2.458 E38.22121
G1 X-16.014 Y-2.543 E38.26459 F288.000
G1 X-15.343 Y-2.459 E38.30976
G1 X-14.730 Y-2.203 E38.35415
G1 X-14.205 Y-1.801 E38.39833
G1 X-13.798 Y-1.274 E38.44279
G1 X-13.544 Y-0.658 E38.48734
G1 X-13.457 Y-0.002 E38.53150
G1 X-13.519 Y0.469 E38.56329
G1 X-13.200 Y1.225 F4800.000
G1 X-13.022 Y0.799 E38.59413 F840.000
G1 X-12.917 Y-0.003 E38.64816
G1 X-13.022 Y-0.798 E38.70171
G1 X-13.331 Y-1.545 E38.75573
G1 X-13.824 Y-2.184 E38.80964
G1 X-14.376 Y-2.607 E38.85613
G1 X-14.271 Y-2.839 E38.87315
G1 X-8.000 Y-1.604 E39.30014
G1 X-1.032 Y-2.977 E39.77456
G1 X1.030 Y-2.977 E39.91235
G1 X7.998 Y-1.604 E40.38677
G1 X14.269 Y-2.839 E40.81377 F840.000
G1 X14.374 Y-2.607 E40.83079
G1 X13.822 Y-2.184 E40.87727
G1 X13.329 Y-1.545 E40.93118
G1 X13.020 Y-0.798 E40.98520
G1 X12.915 Y-0.003 E41.03875
G1 X13.020 Y0.799 E41.09279
G1 X13.330 Y1.543 E41.14661
G1 X13.820 Y2.178 E41.20020
G1 X14.374 Y2.606 E41.24697
G1 X14.269 Y2.837 E41.26396
G1 X7.998 Y1.602 E41.69097
G1 X1.030 Y2.975 E42.16539
G1 X-1.032 Y2.975 E42.30317
G1 X-8.000 Y1.602 E42.77760
G1 X-14.271 Y2.837 E43.20460
G1 X-14.376 Y2.606 E43.22159
G1 X-13.822 Y2.178 E43.26837
G1 X-13.332 Y1.543 E43.32195
G1 X-13.223 Y1.281 E43.34093
G1 X13.995 Y-0.002 F4800.000
G1 X14.064 Y-0.518 E43.37570 F288.000
G1 X14.264 Y-1.004 E43.41078
G1 X14.584 Y-1.418 E43.44579
G1 X14.998 Y-1.736 E43.48065
G1 X15.479 Y-1.936 E43.51546
G1 X15.990 Y-2.003 E43.54985 F288.000
G1 X16.515 Y-1.937 E43.58524
G1 X17.001 Y-1.736 E43.62034
G1 X17.416 Y-1.418 E43.65527
G1 X17.734 Y-1.003 E43.69020
G1 X17.934 Y-0.518 E43.72524
G1 X18.003 Y-0.002 E43.76002
G1 X17.934 Y0.519 E43.79510
G1 X17.734 Y1.000 E43.82991
G1 X17.416 Y1.414 E43.86477
G1 X17.002 Y1.734 E43.89978
G1 X16.516 Y1.934 E43.93486
G1 X16.000 Y2.003 E43.96963
G1 X15.479 Y1.934 E44.00472
G1 X14.998 Y1.734 E44.03957
G1 X14.584 Y1.414 E44.07450
G1 X14.264 Y1.000 E44.10944
G1 X14.064 Y0.519 E44.14429
G1 X14.003 Y0.057 E44.17537
G1 X13.658 Y-0.217 F4800.000
G1 X13.472 Y0.127 F4800.000
G1 X13.455 Y-0.002 E44.18409 F288.000
G1 X13.542 Y-0.658 E44.22826
G1 X13.796 Y-1.274 E44.27281
G1 X14.203 Y-1.801 E44.31727
G1 X14.728 Y-2.203 E44.36145
G1 X15.339 Y-2.458 E44.40568
G1 X15.989 Y-2.543 E44.44945 F288.000
G1 X16.654 Y-2.459 E44.49423
G1 X17.271 Y-2.204 E44.53883
G1 X17.798 Y-1.800 E44.58321
G1 X18.202 Y-1.273 E44.62759
G1 X18.456 Y-0.658 E44.67203
G1 X18.543 Y-0.002 E44.71620
G1 X18.456 Y0.659 E44.76076
G1 X18.201 Y1.270 E44.80499
G1 X17.799 Y1.795 E44.84917
G1 X17.272 Y2.202 E44.89363
G1 X16.656 Y2.456 E44.93818
G1 X16.000 Y2.543 E44.98235
G1 X15.339 Y2.456 E45.02691
G1 X14.727 Y2.201 E45.07124
G1 X14.202 Y1.796 E45.11550
G1 X13.797 Y1.271 E45.15976
G1 X13.542 Y0.659 E45.20410
G1 X13.480 Y0.186 E45.23593
G1 X13.366 Y-2.044 F4800.000
G1 X13.107 Y-2.303 E45.26077 F360.000
G1 X12.463 Y-2.176 E45.30537
G1 X13.040 Y-1.599 E45.36083
G1 X12.815 Y-1.053 E45.40093
G1 X11.820 Y-2.049 E45.49663
G1 X11.176 Y-1.923 E45.54122
G1 X12.662 Y-0.436 E45.68405
G1 X12.612 Y0.285 E45.73316
G1 X10.532 Y-1.796 E45.93310
G1 X9.888 Y-1.669 E45.97769
G1 X12.800 Y1.242 E46.25749
G1 X13.027 Y2.240 E46.32704
G1 X9.244 Y-1.542 E46.69057
G1 X8.601 Y-1.415 E46.73516
