;FLAVOR:Marlin
;TIME:5935
;Filament used: 4.45712m
;Layer height: 0.2
;MINX:-55.231
;MINY:-26.486
;MINZ:0.3
;MAXX:65.134
;MAXY:60.373
;MAXZ:14.73
;Generated with Cura_SteamEngine 4.13.1
M140 S65
M105
M190 S65
M104 S200
M105
M109 S200
M82 ;absolute extrusion mode
M190 S65 ; set bed temperature
M104 S190 ; set temperature
G28 ; home all axes
G1 Z100 F9000
M109 S190 ; wait for temperature to be reached
G21 ; set units to millimeters
G90 ; use absolute coordinates
M82 ; use absolute distances for extrusion
G92 E0

G1 Z0.300 F4800.000
G1 X0.000 Y70.000 F4800.000
G1 X40.000 Y50.000 E10.000 F1080.000

G1 Z5 F5000 ; lift nozzle
G92 E0
G92 E0
G1 F750 E-6.5
;LAYER_COUNT:53
;LAYER:0
M107
G0 F3600 X0.289 Y2.951 Z0.3
;TYPE:SKIRT
G1 F750 E0
G1 F900 X1.649 Y2.951 E0.08142
G1 X3.042 Y2.897 E0.16488
G1 X4.414 Y2.791 E0.24726
G1 X5.8 Y2.63 E0.3308
G1 X7.141 Y2.422 E0.41204
G1 X8.523 Y2.151 E0.49636
G1 X9.816 Y1.847 E0.57588
G1 X11.19 Y1.465 E0.66126
G1 X12.511 Y1.045 E0.74424
G1 X13.792 Y0.579 E0.82585
G1 X15.092 Y0.052 E0.90983
G1 X16.324 Y-.507 E0.99083
G1 X17.581 Y-1.135 E1.07495
G1 X18.702 Y-1.75 E1.1515
G1 X46.885 Y-22.862 E3.25968
G1 X47.127 Y-23.471 E3.29891
G1 X47.452 Y-24.056 E3.33897
G1 X47.853 Y-24.601 E3.37948
G1 X48.313 Y-25.082 E3.41933
G1 X48.838 Y-25.51 E3.45988
G1 X49.408 Y-25.862 E3.49999
G1 X50.028 Y-26.143 E3.54074
G1 X50.665 Y-26.338 E3.58062
G1 X51.33 Y-26.454 E3.62104
G1 X51.89 Y-26.486 E3.65462
G1 X63.455 Y-26.478 E4.34699
G1 X63.819 Y-26.438 E4.36892
G1 X64.166 Y-26.32 E4.39086
G1 X64.478 Y-26.13 E4.41273
G1 X64.742 Y-25.876 E4.43466
G1 X64.945 Y-25.572 E4.45655
G1 X65.077 Y-25.23 E4.47849
G1 X65.134 Y-24.798 E4.50458
G1 X65.134 Y-0.056 E5.98584
G1 X65.094 Y0.308 E6.00776
G1 X64.976 Y0.654 E6.02965
G1 X64.786 Y0.967 E6.05157
G1 X64.533 Y1.232 E6.0735
G1 X64.229 Y1.435 E6.09539
G1 X63.887 Y1.567 E6.11734
G1 X63.454 Y1.624 E6.14348
G1 X60.134 Y1.624 E6.34225
G1 X60.134 Y32.264 E8.17661
G1 X63.454 Y32.264 E8.37537
G1 X63.818 Y32.304 E8.39729
G1 X64.164 Y32.422 E8.41918
G1 X64.477 Y32.612 E8.4411
G1 X64.742 Y32.865 E8.46304
G1 X64.945 Y33.169 E8.48492
G1 X65.077 Y33.511 E8.50687
G1 X65.134 Y33.944 E8.53301
G1 X65.134 Y58.693 E10.01469
G1 X65.094 Y59.057 E10.03662
G1 X64.976 Y59.403 E10.0585
G1 X64.786 Y59.716 E10.08042
G1 X64.533 Y59.981 E10.10236
G1 X64.229 Y60.184 E10.12424
G1 X63.887 Y60.316 E10.14619
G1 X63.454 Y60.373 E10.17234
G1 X51.864 Y60.373 E10.86621
G1 X51.328 Y60.341 E10.89836
G1 X50.661 Y60.224 E10.9389
G1 X50.028 Y60.03 E10.97853
G1 X49.408 Y59.748 E11.01931
G1 X48.839 Y59.397 E11.05934
G1 X48.316 Y58.973 E11.09964
G1 X47.851 Y58.486 E11.13996
G1 X47.451 Y57.942 E11.18038
G1 X47.126 Y57.355 E11.22055
G1 X46.885 Y56.749 E11.2596
G1 X18.697 Y35.634 E13.36812
G1 X17.565 Y35.013 E13.44542
G1 X16.348 Y34.404 E13.52689
G1 X15.072 Y33.828 E13.61071
G1 X13.781 Y33.301 E13.69419
G1 X12.493 Y32.837 E13.77615
G1 X11.195 Y32.422 E13.85773
G1 X9.858 Y32.052 E13.94078
G1 X8.472 Y31.723 E14.02607
G1 X7.156 Y31.468 E14.10632
G1 X5.799 Y31.257 E14.18854
G1 X4.414 Y31.096 E14.27201
G1 X3.042 Y30.99 E14.3544
G1 X1.65 Y30.936 E14.4378
G1 X0.29 Y30.936 E14.51922
G1 X-1.103 Y30.99 E14.60268
G1 X-2.475 Y31.096 E14.68506
G1 X-3.861 Y31.257 E14.7686
G1 X-5.2 Y31.465 E14.84972
G1 X-6.589 Y31.737 E14.93446
G1 X-7.872 Y32.039 E15.01337
G1 X-9.249 Y32.421 E15.09892
G1 X-10.564 Y32.839 E15.18153
G1 X-11.87 Y33.314 E15.26473
G1 X-13.129 Y33.826 E15.34609
G1 X-14.398 Y34.4 E15.42948
G1 X-15.656 Y35.028 E15.51366
G1 X-16.755 Y35.632 E15.58873
G1 X-44.945 Y56.75 E17.69746
G1 X-45.179 Y57.337 E17.73529
G1 X-45.499 Y57.921 E17.77516
G1 X-45.89 Y58.46 E17.81503
G1 X-46.342 Y58.941 E17.85454
G1 X-46.858 Y59.367 E17.8946
G1 X-47.417 Y59.721 E17.93421
G1 X-48.026 Y60.007 E17.97449
G1 X-48.651 Y60.207 E18.01378
G1 X-49.309 Y60.332 E18.05388
G1 X-49.972 Y60.371 E18.09364
G1 X-50.632 Y60.327 E18.13324
G1 X-51.281 Y60.202 E18.17281
G1 X-51.921 Y59.993 E18.21312
G1 X-52.522 Y59.707 E18.25296
G1 X-53.076 Y59.351 E18.29239
G1 X-53.592 Y58.919 E18.33268
G1 X-54.04 Y58.435 E18.37216
G1 X-54.428 Y57.897 E18.41187
G1 X-54.746 Y57.311 E18.45179
G1 X-54.987 Y56.688 E18.49178
G1 X-55.145 Y56.054 E18.5309
G1 X-55.226 Y55.387 E18.57112
G1 X-55.22 Y54.726 E18.6107
G1 X-55.131 Y54.059 E18.65098
G1 X-54.962 Y53.425 E18.69026
G1 X-54.714 Y52.81 E18.72996
G1 X-54.388 Y52.227 E18.76995
G1 X-53.993 Y51.694 E18.80967
G1 X-53.532 Y51.212 E18.8496
G1 X-53.019 Y50.795 E18.88918
G1 X-52.457 Y50.446 E18.92879
G1 X-51.842 Y50.163 E18.96932
G1 X-51.217 Y49.969 E19.00849
G1 X-50.557 Y49.85 E19.04864
G1 X-50.14 Y49.82 E19.07367
G1 X-27.289 Y32.702 E20.78301
G1 X-26.575 Y32.046 E20.84106
G1 X-25.807 Y31.26 E20.90685
G1 X-25.132 Y30.498 E20.96779
G1 X-24.479 Y29.682 E21.03036
G1 X-23.853 Y28.815 E21.09438
G1 X-23.283 Y27.934 E21.1572
G1 X-22.758 Y27.029 E21.21984
G1 X-22.278 Y26.096 E21.28266
G1 X-21.845 Y25.141 E21.34543
G1 X-21.453 Y24.148 E21.40935
G1 X-21.124 Y23.177 E21.47072
G1 X-20.837 Y22.159 E21.53405
G1 X-20.597 Y21.117 E21.59806
G1 X-20.418 Y20.096 E21.66012
G1 X-20.285 Y19.045 E21.72354
G1 X-20.207 Y18.005 E21.78598
G1 X-20.179 Y16.956 E21.84881
G1 X-20.205 Y15.915 E21.91115
G1 X-20.283 Y14.862 E21.97436
G1 X-20.413 Y13.812 E22.0377
G1 X-20.594 Y12.79 E22.09984
G1 X-20.826 Y11.767 E22.16264
G1 X-21.114 Y10.742 E22.22638
G1 X-21.445 Y9.759 E22.28848
G1 X-21.829 Y8.778 E22.35155
G1 X-22.273 Y7.798 E22.41596
G1 X-22.736 Y6.893 E22.47682
G1 X-23.274 Y5.962 E22.5412
G1 X-23.827 Y5.106 E22.60221
G1 X-24.453 Y4.235 E22.66642
G1 X-25.108 Y3.414 E22.7293
G1 X-25.797 Y2.635 E22.79156
G1 X-26.541 Y1.874 E22.85528
G1 X-27.263 Y1.204 E22.91425
G1 X-50.138 Y-15.932 E24.62538
G1 X-50.77 Y-15.992 E24.66338
G1 X-51.414 Y-16.134 E24.70287
G1 X-52.047 Y-16.36 E24.7431
G1 X-52.636 Y-16.66 E24.78268
G1 X-53.192 Y-17.037 E24.8229
G1 X-53.682 Y-17.47 E24.86204
G1 X-54.126 Y-17.971 E24.90212
G1 X-54.501 Y-18.523 E24.94207
G1 X-54.801 Y-19.115 E24.98181
G1 X-55.023 Y-19.734 E25.02118
G1 X-55.169 Y-20.385 E25.06112
G1 X-55.231 Y-21.044 E25.10074
G1 X-55.209 Y-21.714 E25.14088
G1 X-55.104 Y-22.365 E25.18036
G1 X-54.918 Y-23.004 E25.2202
G1 X-54.652 Y-23.614 E25.26004
G1 X-54.312 Y-24.185 E25.29983
G1 X-53.904 Y-24.708 E25.33954
G1 X-53.43 Y-25.179 E25.37954
G1 X-52.907 Y-25.582 E25.41907
G1 X-52.334 Y-25.918 E25.45884
G1 X-51.718 Y-26.182 E25.49896
G1 X-51.082 Y-26.362 E25.53853
G1 X-50.423 Y-26.463 E25.57845
G1 X-49.76 Y-26.481 E25.61816
G1 X-49.097 Y-26.414 E25.65805
G1 X-48.449 Y-26.264 E25.69787
G1 X-47.823 Y-26.034 E25.7378
G1 X-47.242 Y-25.733 E25.77697
G1 X-46.684 Y-25.349 E25.81752
G1 X-46.198 Y-24.912 E25.85665
G1 X-45.756 Y-24.404 E25.89697
G1 X-45.39 Y-23.854 E25.93652
G1 X-45.096 Y-23.265 E25.97593
G1 X-44.945 Y-22.863 E26.00164
G1 X-16.763 Y-1.75 E28.1098
G1 X-15.621 Y-1.124 E28.18777
G1 X-14.417 Y-.521 E28.26839
G1 X-13.136 Y0.058 E28.35255
G1 X-11.836 Y0.588 E28.4366
G1 X-10.554 Y1.05 E28.51818
G1 X-9.258 Y1.464 E28.59963
G1 X-7.925 Y1.834 E28.68245
G1 X-6.533 Y2.164 E28.7681
G1 X-5.21 Y2.421 E28.84879
G1 X-3.864 Y2.629 E28.93032
G1 X-2.475 Y2.791 E29.01404
G1 X-1.103 Y2.897 E29.09643
G1 X0.289 Y2.951 E29.17983
G0 F3600 X0.27 Y3.431
G1 F900 X1.668 Y3.431 E29.26352
G1 X3.072 Y3.377 E29.34764
G1 X4.453 Y3.27 E29.43057
G1 X5.854 Y3.107 E29.51501
G1 X7.228 Y2.894 E29.59825
G1 X8.621 Y2.621 E29.68323
G1 X9.95 Y2.308 E29.76497
G1 X11.304 Y1.932 E29.8491
G1 X12.679 Y1.495 E29.93548
G1 X13.978 Y1.023 E30.01822
G1 X15.267 Y0.499 E30.10153
G1 X16.544 Y-0.079 E30.18544
G1 X17.801 Y-.708 E30.2696
G1 X18.966 Y-1.348 E30.34917
G1 X47.294 Y-22.569 E32.46821
G1 X47.487 Y-23.104 E32.50226
G1 X47.767 Y-23.653 E32.53916
G1 X48.107 Y-24.153 E32.57535
G1 X48.518 Y-24.615 E32.61237
G1 X48.972 Y-25.012 E32.64848
G1 X49.485 Y-25.355 E32.68543
G1 X50.033 Y-25.629 E32.72211
G1 X50.611 Y-25.829 E32.75872
G1 X51.209 Y-25.955 E32.79531
G1 X51.812 Y-26.004 E32.83153
G1 X51.89 Y-26.006 E32.8362
G1 X63.455 Y-25.998 E33.52858
G1 X63.761 Y-25.958 E33.54705
G1 X64.048 Y-25.841 E33.56561
G1 X64.294 Y-25.655 E33.58407
G1 X64.485 Y-25.411 E33.60262
G1 X64.608 Y-25.128 E33.6211
G1 X64.654 Y-24.798 E33.64104
G1 X64.654 Y-0.056 E35.1223
G1 X64.614 Y0.251 E35.14084
G1 X64.497 Y0.537 E35.15934
G1 X64.311 Y0.784 E35.17785
G1 X64.068 Y0.975 E35.19635
G1 X63.784 Y1.098 E35.21488
G1 X63.454 Y1.144 E35.23483
G1 X59.654 Y1.144 E35.46233
G1 X59.654 Y32.744 E37.35417
G1 X63.454 Y32.744 E37.58167
G1 X63.761 Y32.784 E37.6002
G1 X64.047 Y32.901 E37.6187
G1 X64.294 Y33.087 E37.63721
G1 X64.485 Y33.33 E37.65572
G1 X64.608 Y33.614 E37.67424
G1 X64.654 Y33.944 E37.69419
G1 X64.654 Y58.693 E39.17587
G1 X64.614 Y59 E39.19441
G1 X64.497 Y59.286 E39.21291
G1 X64.311 Y59.533 E39.23142
G1 X64.068 Y59.724 E39.24992
G1 X63.784 Y59.847 E39.26845
G1 X63.454 Y59.893 E39.2884
G1 X51.864 Y59.893 E39.98227
G1 X51.359 Y59.862 E40.01256
G1 X50.754 Y59.753 E40.04936
G1 X50.178 Y59.574 E40.08547
G1 X49.616 Y59.316 E40.1225
G1 X49.1 Y58.993 E40.15894
G1 X48.626 Y58.606 E40.19558
G1 X48.205 Y58.161 E40.23225
G1 X47.844 Y57.666 E40.26893
G1 X47.55 Y57.131 E40.30548
G1 X47.326 Y56.561 E40.34214
G1 X47.294 Y56.456 E40.34871
G1 X18.961 Y35.232 E42.4681
G1 X17.796 Y34.592 E42.54768
G1 X16.565 Y33.976 E42.63009
G1 X15.258 Y33.386 E42.71594
G1 X13.938 Y32.847 E42.8013
G1 X12.65 Y32.383 E42.88326
G1 X11.327 Y31.96 E42.96641
G1 X9.99 Y31.59 E43.04947
G1 X8.575 Y31.255 E43.13652
G1 X7.238 Y30.995 E43.21807
G1 X5.853 Y30.78 E43.30198
G1 X4.453 Y30.617 E43.38636
G1 X3.071 Y30.51 E43.46934
G1 X1.669 Y30.456 E43.55334
G1 X0.271 Y30.456 E43.63704
G1 X-1.133 Y30.51 E43.72115
G1 X-2.514 Y30.617 E43.80408
G1 X-3.915 Y30.78 E43.88852
G1 X-5.287 Y30.993 E43.97164
G1 X-6.681 Y31.266 E44.05669
G1 X-8.008 Y31.578 E44.1383
G1 X-9.363 Y31.954 E44.22248
G1 X-10.737 Y32.391 E44.3088
G1 X-12.023 Y32.859 E44.39073
G1 X-13.337 Y33.393 E44.47565
G1 X-14.616 Y33.971 E44.55968
G1 X-15.846 Y34.586 E44.64201
G1 X-17.025 Y35.234 E44.72255
G1 X-45.355 Y56.456 E46.84172
G1 X-45.544 Y56.98 E46.87507
G1 X-45.815 Y57.519 E46.91118
G1 X-46.15 Y58.018 E46.94717
G1 X-46.55 Y58.474 E46.98348
G1 X-46.999 Y58.873 E47.01944
G1 X-47.501 Y59.217 E47.05588
G1 X-48.038 Y59.492 E47.09199
G1 X-48.609 Y59.698 E47.12834
G1 X-49.196 Y59.831 E47.16437
G1 X-49.799 Y59.889 E47.20064
G1 X-50.401 Y59.871 E47.23669
G1 X-51 Y59.776 E47.273
G1 X-51.575 Y59.612 E47.3088
G1 X-52.136 Y59.369 E47.3454
G1 X-52.655 Y59.061 E47.38153
G1 X-53.132 Y58.691 E47.41767
G1 X-53.56 Y58.26 E47.45404
G1 X-53.928 Y57.785 E47.49001
G1 X-54.235 Y57.266 E47.52611
G1 X-54.475 Y56.707 E47.56253
G1 X-54.641 Y56.129 E47.59854
G1 X-54.734 Y55.537 E47.63441
G1 X-54.751 Y54.927 E47.67095
G1 X-54.692 Y54.327 E47.70704
G1 X-54.557 Y53.736 E47.74333
G1 X-54.353 Y53.173 E47.77918
G1 X-54.077 Y52.636 E47.81533
G1 X-53.734 Y52.136 E47.85163
G1 X-53.33 Y51.683 E47.88797
G1 X-52.878 Y51.288 E47.92391
G1 X-52.377 Y50.951 E47.96006
G1 X-51.837 Y50.678 E47.99628
G1 X-51.263 Y50.477 E48.03269
G1 X-50.675 Y50.35 E48.06871
G1 X-50.071 Y50.297 E48.105
G1 X-49.973 Y50.296 E48.11087
G1 X-26.989 Y33.079 E49.83013
G1 X-26.237 Y32.386 E49.89136
G1 X-25.47 Y31.603 E49.95698
G1 X-24.765 Y30.807 E50.02063
G1 X-24.094 Y29.968 E50.08495
G1 X-23.457 Y29.086 E50.15009
G1 X-22.872 Y28.183 E50.2145
G1 X-22.335 Y27.258 E50.27854
G1 X-21.851 Y26.315 E50.34199
G1 X-21.398 Y25.317 E50.40761
G1 X-21.002 Y24.314 E50.47217
G1 X-20.667 Y23.327 E50.53457
G1 X-20.37 Y22.271 E50.60024
G1 X-20.126 Y21.214 E50.66519
G1 X-19.944 Y20.177 E50.72822
G1 X-19.809 Y19.101 E50.79314
G1 X-19.728 Y18.033 E50.85726
G1 X-19.7 Y16.956 E50.92176
G1 X-19.726 Y15.887 E50.98578
G1 X-19.806 Y14.809 E51.0505
G1 X-19.938 Y13.745 E51.11469
G1 X-20.126 Y12.681 E51.17937
G1 X-20.365 Y11.633 E51.24373
G1 X-20.65 Y10.616 E51.30696
G1 X-20.994 Y9.595 E51.37146
G1 X-21.391 Y8.58 E51.43671
G1 X-21.833 Y7.604 E51.50085
G1 X-22.318 Y6.657 E51.56455
G1 X-22.858 Y5.723 E51.62914
G1 X-23.436 Y4.828 E51.69292
G1 X-24.072 Y3.943 E51.75817
G1 X-24.732 Y3.116 E51.82152
G1 X-25.456 Y2.296 E51.887
G1 X-26.189 Y1.545 E51.94983
G1 X-26.963 Y0.828 E52.013
G1 X-49.972 Y-16.408 E53.73414
G1 X-50.525 Y-16.442 E53.76731
G1 X-51.122 Y-16.553 E53.80366
G1 X-51.691 Y-16.732 E53.83937
G1 X-52.247 Y-16.99 E53.87607
G1 X-52.755 Y-17.309 E53.91198
G1 X-53.225 Y-17.695 E53.94839
G1 X-53.638 Y-18.13 E53.9843
G1 X-53.996 Y-18.618 E54.02054
G1 X-54.29 Y-19.149 E54.05687
G1 X-54.514 Y-19.709 E54.09298
G1 X-54.665 Y-20.287 E54.12875
G1 X-54.743 Y-20.89 E54.16515
G1 X-54.746 Y-21.491 E54.20113
G1 X-54.67 Y-22.098 E54.23775
G1 X-54.524 Y-22.676 E54.27344
G1 X-54.302 Y-23.241 E54.30979
G1 X-54.011 Y-23.771 E54.34599
G1 X-53.656 Y-24.261 E54.38221
G1 X-53.244 Y-24.701 E54.4183
G1 X-52.776 Y-25.088 E54.45466
G1 X-52.27 Y-25.41 E54.49056
G1 X-51.723 Y-25.668 E54.52677
G1 X-51.145 Y-25.855 E54.56314
G1 X-50.55 Y-25.967 E54.59939
G1 X-49.95 Y-26.005 E54.63538
G1 X-49.348 Y-25.966 E54.6715
G1 X-48.75 Y-25.85 E54.70796
G1 X-48.177 Y-25.662 E54.74407
G1 X-47.632 Y-25.403 E54.78019
G1 X-47.125 Y-25.081 E54.81615
G1 X-46.657 Y-24.691 E54.85262
G1 X-46.248 Y-24.253 E54.8885
G1 X-45.893 Y-23.761 E54.92482
G1 X-45.605 Y-23.23 E54.96099
G1 X-45.386 Y-22.67 E54.99699
G1 X-45.355 Y-22.569 E55.00331
G1 X-17.027 Y-1.348 E57.12235
G1 X-15.852 Y-.703 E57.20259
G1 X-14.615 Y-0.083 E57.28543
G1 X-13.323 Y0.501 E57.37032
G1 X-12.014 Y1.035 E57.45496
G1 X-10.711 Y1.504 E57.53786
G1 X-9.388 Y1.927 E57.62102
G1 X-8.051 Y2.297 E57.70407
G1 X-6.637 Y2.632 E57.79107
G1 X-5.301 Y2.892 E57.87255
G1 X-3.914 Y3.107 E57.95658
G1 X-2.514 Y3.27 E58.04096
G1 X-1.132 Y3.377 E58.12395
G1 X0.27 Y3.431 E58.20795
G0 F3600 X0.252 Y3.911
G1 F900 X1.686 Y3.911 E58.2938
G1 X3.078 Y3.857 E58.3772
G1 X4.521 Y3.745 E58.46385
G1 X5.93 Y3.582 E58.54876
G1 X7.304 Y3.368 E58.63201
G1 X8.714 Y3.092 E58.71803
G1 X10.06 Y2.775 E58.80082
G1 X11.473 Y2.383 E58.88861
G1 X12.812 Y1.957 E58.97273
G1 X14.157 Y1.468 E59.05841
G1 X15.45 Y0.943 E59.14196
G1 X16.752 Y0.353 E59.22753
G1 X18.036 Y-.289 E59.31348
G1 X19.222 Y-.94 E59.39448
G1 X47.719 Y-22.288 E61.52617
G1 X47.937 Y-22.935 E61.56704
G1 X48.191 Y-23.428 E61.60024
G1 X48.5 Y-23.877 E61.63288
G1 X48.871 Y-24.29 E61.66611
G1 X49.283 Y-24.646 E61.69871
G1 X49.745 Y-24.952 E61.73189
G1 X50.241 Y-25.196 E61.76498
G1 X50.761 Y-25.373 E61.79787
G1 X51.301 Y-25.484 E61.83087
G1 X51.843 Y-25.525 E61.86341
G1 X63.454 Y-25.518 E62.55854
G1 X63.69 Y-25.478 E62.57287
G1 X63.9 Y-25.363 E62.58721
G1 X64.061 Y-25.186 E62.60153
G1 X64.154 Y-24.966 E62.61583
G1 X64.174 Y-24.798 E62.62596
G1 X64.174 Y-0.056 E64.10722
G1 X64.134 Y0.18 E64.12155
G1 X64.019 Y0.39 E64.13588
G1 X63.842 Y0.55 E64.15017
G1 X63.622 Y0.644 E64.16449
G1 X63.454 Y0.664 E64.17462
G1 X59.174 Y0.664 E64.43086
G1 X59.174 Y33.224 E66.38017
G1 X63.454 Y33.224 E66.6364
G1 X63.69 Y33.264 E66.65073
G1 X63.9 Y33.379 E66.66507
G1 X64.06 Y33.556 E66.67935
G1 X64.154 Y33.776 E66.69367
G1 X64.174 Y33.944 E66.7038
G1 X64.174 Y58.693 E68.18548
G1 X64.134 Y58.929 E68.19981
G1 X64.019 Y59.139 E68.21415
G1 X63.842 Y59.299 E68.22843
G1 X63.622 Y59.393 E68.24275
G1 X63.454 Y59.413 E68.25288
G1 X51.864 Y59.413 E68.94676
G1 X51.299 Y59.371 E68.98067
G1 X50.761 Y59.26 E69.01356
G1 X50.24 Y59.083 E69.0465
G1 X49.746 Y58.839 E69.07949
G1 X49.285 Y58.535 E69.11255
G1 X48.871 Y58.177 E69.14532
G1 X48.5 Y57.764 E69.17855
G1 X48.188 Y57.311 E69.21148
G1 X47.937 Y56.822 E69.24439
G1 X47.749 Y56.303 E69.27744
G1 X47.719 Y56.175 E69.28531
G1 X19.217 Y34.824 E71.41735
G1 X18.031 Y34.173 E71.49835
G1 X16.753 Y33.534 E71.58389
G1 X15.465 Y32.952 E71.66851
G1 X14.098 Y32.394 E71.7569
G1 X12.824 Y31.935 E71.83797
G1 X11.472 Y31.503 E71.92295
G1 X10.096 Y31.122 E72.00843
G1 X8.679 Y30.786 E72.09561
G1 X7.304 Y30.519 E72.17947
G1 X5.929 Y30.305 E72.26278
G1 X4.521 Y30.142 E72.34763
G1 X3.078 Y30.03 E72.43428
G1 X1.687 Y29.976 E72.51762
G1 X0.253 Y29.976 E72.60348
G1 X-1.139 Y30.03 E72.68687
G1 X-2.582 Y30.142 E72.77352
G1 X-3.987 Y30.305 E72.8582
G1 X-5.363 Y30.519 E72.94157
G1 X-6.774 Y30.795 E73.02765
G1 X-8.121 Y31.112 E73.11049
G1 X-9.534 Y31.504 E73.19828
G1 X-10.871 Y31.929 E73.28227
