;FLAVOR:Marlin
;TIME:6366
;Filament used: 4.86928m
;Layer height: 0.2
;MINX:-69.363
;MINY:-57.459
;MINZ:0.3
;MAXX:70.193
;MAXY:56.637
;MAXZ:14.85
;Generated with Cura_SteamEngine 4.13.1
M140 S65
M105
M190 S65
M104 S200
M105
M109 S200
M82 ;absolute extrusion mode
M190 S65 ; set bed temperature
M104 S190 ; set temperature
G28 ; home all axes
G1 Z100 F9000
M109 S190 ; wait for temperature to be reached
G21 ; set units to millimeters
G90 ; use absolute coordinates
M82 ; use absolute distances for extrusion
G92 E0

G1 Z0.300 F4800.000
G1 X0.000 Y70.000 F4800.000
G1 X40.000 Y50.000 E10.000 F1080.000

G1 Z5 F5000 ; lift nozzle
G92 E0
G92 E0
G1 F750 E-6.5
;LAYER_COUNT:53
;LAYER:0
M107
G0 F3600 X-5.131 Y-13.307 Z0.3
;TYPE:SKIRT
G1 F750 E0
G1 F900 X-1.737 Y-14.815 E0.22235
G1 X1.505 Y-16.683 E0.44635
G1 X4.513 Y-18.861 E0.66869
G1 X7.246 Y-21.312 E0.88847
G1 X29.041 Y-49.048 E3.0003
G1 X29.097 Y-49.729 E3.04121
G1 X29.245 Y-50.293 E3.07612
G1 X29.77 Y-51.433 E3.15126
G1 X30.104 Y-51.914 E3.18632
G1 X30.991 Y-52.807 E3.26167
G1 X31.472 Y-53.145 E3.29687
G1 X32.599 Y-53.671 E3.37133
G1 X32.876 Y-53.772 E3.38898
G1 X46.473 Y-57.404 E4.23155
G1 X46.835 Y-57.459 E4.25347
G1 X47.201 Y-57.435 E4.27543
G1 X47.552 Y-57.332 E4.29733
G1 X47.873 Y-57.156 E4.31924
G1 X48.147 Y-56.914 E4.34113
G1 X48.363 Y-56.618 E4.36307
G1 X48.53 Y-56.216 E4.38913
G1 X54.933 Y-32.319 E5.87027
G1 X54.988 Y-31.957 E5.89219
G1 X54.964 Y-31.592 E5.91409
G1 X54.862 Y-31.24 E5.93603
G1 X54.686 Y-30.92 E5.95789
G1 X54.444 Y-30.644 E5.97987
G1 X54.149 Y-30.428 E6.00176
G1 X53.745 Y-30.261 E6.02793
G1 X50.538 Y-29.402 E6.22669
G1 X58.468 Y0.193 E8.061
G1 X61.675 Y-.666 E8.25976
G1 X62.037 Y-.721 E8.28168
G1 X62.402 Y-.697 E8.30358
G1 X62.754 Y-.595 E8.32552
G1 X63.075 Y-.419 E8.34744
G1 X63.35 Y-.177 E8.36937
G1 X63.566 Y0.118 E8.39126
G1 X63.733 Y0.522 E8.41743
G1 X70.138 Y24.428 E9.89912
G1 X70.193 Y24.79 E9.92104
G1 X70.169 Y25.155 E9.94294
G1 X70.067 Y25.507 E9.96488
G1 X69.891 Y25.828 E9.9868
G1 X69.649 Y26.103 E10.00873
G1 X69.354 Y26.319 E10.03062
G1 X68.95 Y26.486 E10.05679
G1 X55.358 Y30.129 E10.89924
G1 X55.069 Y30.18 E10.91681
G1 X53.827 Y30.288 E10.99145
G1 X53.241 Y30.235 E11.02667
G1 X52.029 Y29.906 E11.10186
G1 X51.499 Y29.657 E11.13692
G1 X50.472 Y28.931 E11.21221
G1 X50.06 Y28.514 E11.24731
G1 X49.675 Y27.957 E11.28784
G1 X16.935 Y14.836 E13.39948
G1 X13.339 Y14.079 E13.61948
G1 X9.641 Y13.695 E13.84207
G1 X5.915 Y13.7 E14.06513
G1 X2.204 Y14.092 E14.28854
G1 X-1.439 Y14.867 E14.51152
G1 X-4.992 Y16.021 E14.73517
G1 X-8.385 Y17.527 E14.95742
G1 X-11.627 Y19.395 E15.18142
G1 X-14.633 Y21.571 E15.40359
G1 X-17.367 Y24.024 E15.62349
G1 X-39.165 Y51.764 E17.73563
G1 X-39.226 Y52.472 E17.77817
G1 X-39.297 Y52.831 E17.80008
G1 X-39.382 Y53.048 E17.81404
G1 X-39.933 Y54.21 E17.89103
G1 X-40.125 Y54.522 E17.91296
G1 X-40.284 Y54.699 E17.9272
G1 X-41.208 Y55.591 E18.00409
G1 X-41.498 Y55.815 E18.02603
G1 X-41.706 Y55.923 E18.04006
G1 X-42.883 Y56.434 E18.11688
G1 X-43.233 Y56.542 E18.13881
G1 X-43.466 Y56.571 E18.15287
G1 X-44.752 Y56.637 E18.22996
G1 X-45.117 Y56.616 E18.25185
G1 X-45.346 Y56.56 E18.26596
G1 X-46.569 Y56.172 E18.34278
G1 X-46.904 Y56.024 E18.3647
G1 X-47.1 Y55.891 E18.37888
G1 X-48.111 Y55.095 E18.45592
G1 X-48.372 Y54.839 E18.47781
G1 X-48.507 Y54.648 E18.49181
G1 X-49.173 Y53.553 E18.56854
G1 X-49.328 Y53.221 E18.59047
G1 X-49.389 Y52.993 E18.6046
G1 X-49.629 Y51.728 E18.68169
G1 X-49.657 Y51.363 E18.7036
G1 X-49.633 Y51.129 E18.71769
G1 X-49.414 Y49.863 E18.79461
G1 X-49.313 Y49.511 E18.81653
G1 X-49.209 Y49.301 E18.83056
G1 X-48.563 Y48.196 E18.90719
G1 X-48.345 Y47.902 E18.9291
G1 X-48.174 Y47.741 E18.94316
G1 X-47.173 Y46.926 E19.02044
G1 X-46.865 Y46.727 E19.04239
G1 X-46.646 Y46.636 E19.05659
G1 X-45.974 Y46.411 E19.09902
G1 X-28.305 Y23.927 E20.811
G1 X-26.846 Y21.363 E20.98762
G1 X-25.748 Y18.583 E21.16656
G1 X-25.059 Y15.696 E21.34426
G1 X-24.783 Y12.736 E21.52224
G1 X-24.928 Y9.767 E21.7002
G1 X-25.49 Y6.849 E21.8781
G1 X-26.461 Y4.026 E22.05683
G1 X-27.809 Y1.397 E22.23371
G1 X-29.529 Y-1.041 E22.41233
G1 X-31.572 Y-3.206 E22.59055
G1 X-33.894 Y-5.058 E22.76836
G1 X-36.445 Y-6.557 E22.9455
G1 X-63.021 Y-17.207 E24.65956
G1 X-63.72 Y-17.066 E24.70225
G1 X-64.084 Y-17.033 E24.72413
G1 X-64.317 Y-17.054 E24.73814
G1 X-65.587 Y-17.257 E24.81514
G1 X-65.94 Y-17.354 E24.83705
G1 X-66.152 Y-17.456 E24.85114
G1 X-67.267 Y-18.09 E24.92793
G1 X-67.564 Y-18.304 E24.94984
G1 X-67.728 Y-18.475 E24.96403
G1 X-68.55 Y-19.462 E25.04093
G1 X-68.752 Y-19.767 E25.06283
G1 X-68.845 Y-19.983 E25.07691
G1 X-69.269 Y-21.198 E25.15395
G1 X-69.363 Y-21.79 E25.18983
G1 X-69.334 Y-23.073 E25.26666
G1 X-69.285 Y-23.436 E25.28859
G1 X-69.213 Y-23.66 E25.30268
G1 X-68.734 Y-24.855 E25.37976
G1 X-68.562 Y-25.178 E25.40166
G1 X-68.415 Y-25.364 E25.41586
G1 X-67.549 Y-26.311 E25.49268
G1 X-67.074 Y-26.673 E25.52844
G1 X-65.93 Y-27.258 E25.60536
G1 X-65.588 Y-27.388 E25.62727
G1 X-65.356 Y-27.431 E25.64139
G1 X-64.079 Y-27.577 E25.71834
G1 X-63.713 Y-27.579 E25.74026
G1 X-63.482 Y-27.538 E25.7543
G1 X-62.236 Y-27.228 E25.83117
G1 X-61.893 Y-27.102 E25.85305
G1 X-61.688 Y-26.981 E25.8673
G1 X-60.629 Y-26.25 E25.94434
G1 X-60.352 Y-26.01 E25.96628
G1 X-60.204 Y-25.827 E25.98037
G1 X-59.799 Y-25.245 E26.02282
G1 X-27.057 Y-12.124 E28.13456
G1 X-23.461 Y-11.367 E28.35457
G1 X-19.763 Y-10.983 E28.57715
G1 X-16.037 Y-10.987 E28.80022
G1 X-12.326 Y-11.38 E29.02363
G1 X-8.68 Y-12.156 E29.2468
G1 X-5.131 Y-13.307 E29.47017
G0 F3600 X-4.968 Y-12.855
G1 F900 X-1.512 Y-14.391 E29.69659
G1 X1.763 Y-16.278 E29.92288
G1 X4.822 Y-18.493 E30.14898
G1 X7.594 Y-20.978 E30.37186
G1 X29.507 Y-48.864 E32.49512
G1 X29.575 Y-49.689 E32.54468
G1 X29.681 Y-50.092 E32.56963
G1 X30.206 Y-51.232 E32.64477
G1 X30.445 Y-51.576 E32.66985
G1 X31.332 Y-52.469 E32.7452
G1 X31.675 Y-52.71 E32.7703
G1 X32.802 Y-53.236 E32.84475
G1 X33 Y-53.308 E32.85737
G1 X46.597 Y-56.94 E33.69994
G1 X46.904 Y-56.981 E33.71848
G1 X47.211 Y-56.942 E33.73701
G1 X47.497 Y-56.826 E33.75548
G1 X47.745 Y-56.64 E33.77404
G1 X47.936 Y-56.398 E33.7925
G1 X48.066 Y-56.092 E33.81241
G1 X54.469 Y-32.195 E35.29354
G1 X54.51 Y-31.888 E35.31209
G1 X54.471 Y-31.581 E35.33061
G1 X54.355 Y-31.295 E35.34909
G1 X54.17 Y-31.047 E35.36761
G1 X53.928 Y-30.855 E35.38611
G1 X53.621 Y-30.725 E35.40607
G1 X49.95 Y-29.741 E35.6336
G1 X58.129 Y0.781 E37.52537
G1 X61.799 Y-.202 E37.75283
G1 X62.106 Y-.243 E37.77137
G1 X62.413 Y-.204 E37.7899
G1 X62.699 Y-0.088 E37.80838
G1 X62.947 Y0.097 E37.8269
G1 X63.139 Y0.339 E37.8454
G1 X63.269 Y0.646 E37.86536
G1 X69.674 Y24.552 E39.34704
G1 X69.715 Y24.859 E39.36559
G1 X69.676 Y25.166 E39.38411
G1 X69.56 Y25.452 E39.40259
G1 X69.375 Y25.7 E39.42111
G1 X69.133 Y25.892 E39.43961
G1 X68.826 Y26.022 E39.45957
G1 X55.234 Y29.665 E40.30202
G1 X55.027 Y29.701 E40.3146
G1 X53.785 Y29.809 E40.38923
G1 X53.367 Y29.772 E40.41436
G1 X52.155 Y29.443 E40.48954
G1 X51.776 Y29.265 E40.51461
G1 X50.749 Y28.539 E40.58991
G1 X50.455 Y28.241 E40.61497
G1 X49.989 Y27.566 E40.66407
G1 X17.071 Y14.374 E42.78718
G1 X13.421 Y13.605 E43.0105
G1 X9.661 Y13.215 E43.23681
G1 X5.883 Y13.22 E43.46299
G1 X2.14 Y13.616 E43.68833
G1 X-1.574 Y14.406 E43.91566
G1 X-5.153 Y15.567 E44.14092
G1 X-8.61 Y17.103 E44.36739
G1 X-11.885 Y18.99 E44.59368
G1 X-14.942 Y21.203 E44.81961
G1 X-17.715 Y23.69 E45.04262
G1 X-39.631 Y51.579 E47.16613
G1 X-39.704 Y52.431 E47.21733
G1 X-39.816 Y52.842 E47.24283
G1 X-40.367 Y54.004 E47.31982
G1 X-40.618 Y54.353 E47.34556
G1 X-41.542 Y55.245 E47.42245
G1 X-41.897 Y55.483 E47.44803
G1 X-43.074 Y55.994 E47.52485
G1 X-43.49 Y56.091 E47.55043
G1 X-44.776 Y56.157 E47.62752
G1 X-45.201 Y56.103 E47.65317
G1 X-46.424 Y55.715 E47.72998
G1 X-46.803 Y55.514 E47.75567
G1 X-47.814 Y54.718 E47.8327
G1 X-48.097 Y54.399 E47.85823
G1 X-48.763 Y53.304 E47.93496
G1 X-48.917 Y52.904 E47.96062
G1 X-49.157 Y51.639 E48.03771
G1 X-49.16 Y51.21 E48.06339
G1 X-48.941 Y49.944 E48.14031
G1 X-48.795 Y49.543 E48.16586
G1 X-48.149 Y48.438 E48.24249
G1 X-47.871 Y48.113 E48.26809
G1 X-46.87 Y47.298 E48.34537
G1 X-46.494 Y47.091 E48.37107
G1 X-45.685 Y46.82 E48.42215
G1 X-27.905 Y24.194 E50.14492
G1 X-26.411 Y21.57 E50.32569
G1 X-25.29 Y18.73 E50.50849
G1 X-24.584 Y15.774 E50.69043
G1 X-24.302 Y12.75 E50.87226
G1 X-24.451 Y9.702 E51.05496
G1 X-25.023 Y6.729 E51.23621
G1 X-26.018 Y3.839 E51.4192
G1 X-27.4 Y1.142 E51.60063
G1 X-29.151 Y-1.339 E51.78243
G1 X-31.246 Y-3.56 E51.96521
G1 X-33.619 Y-5.452 E52.14691
G1 X-36.236 Y-6.99 E52.32864
G1 X-62.976 Y-17.706 E54.05328
G1 X-63.815 Y-17.537 E54.10452
G1 X-64.241 Y-17.528 E54.13003
G1 X-65.511 Y-17.731 E54.20703
G1 X-65.915 Y-17.873 E54.23266
G1 X-67.03 Y-18.507 E54.30945
G1 X-67.359 Y-18.782 E54.33512
G1 X-68.181 Y-19.769 E54.41202
G1 X-68.392 Y-20.142 E54.43768
G1 X-68.816 Y-21.357 E54.51472
G1 X-68.883 Y-21.779 E54.5403
G1 X-68.854 Y-23.062 E54.61713
G1 X-68.768 Y-23.481 E54.64274
G1 X-68.289 Y-24.676 E54.71982
G1 X-68.061 Y-25.04 E54.74553
G1 X-67.195 Y-25.987 E54.82236
G1 X-66.855 Y-26.245 E54.84791
G1 X-65.711 Y-26.83 E54.92483
G1 X-65.301 Y-26.954 E54.95048
G1 X-64.024 Y-27.1 E55.02743
G1 X-63.598 Y-27.073 E55.05298
G1 X-62.352 Y-26.763 E55.12985
G1 X-61.96 Y-26.586 E55.1556
G1 X-60.901 Y-25.855 E55.23264
G1 X-60.598 Y-25.553 E55.25825
G1 X-60.111 Y-24.853 E55.3093
G1 X-27.193 Y-11.662 E57.43239
G1 X-23.543 Y-10.893 E57.65571
G1 X-19.782 Y-10.503 E57.88208
G1 X-16.006 Y-10.507 E58.10814
G1 X-12.261 Y-10.904 E58.3336
G1 X-8.548 Y-11.694 E58.56087
G1 X-4.968 Y-12.855 E58.78619
G0 F3600 X-4.787 Y-12.41
G1 F900 X-1.295 Y-13.961 E59.01494
G1 X2.026 Y-15.875 E59.24442
G1 X5.116 Y-18.112 E59.4728
G1 X7.948 Y-20.652 E59.70055
G1 X29.973 Y-48.68 E61.83464
G1 X30.053 Y-49.649 E61.89285
G1 X30.117 Y-49.891 E61.90784
G1 X30.642 Y-51.031 E61.98298
G1 X30.785 Y-51.237 E61.99799
G1 X31.672 Y-52.13 E62.07334
G1 X31.878 Y-52.275 E62.08842
G1 X33.005 Y-52.801 E62.16288
G1 X33.124 Y-52.845 E62.17048
G1 X46.721 Y-56.477 E63.01305
G1 X46.959 Y-56.499 E63.02736
G1 X47.192 Y-56.442 E63.04172
G1 X47.393 Y-56.313 E63.05602
G1 X47.54 Y-56.124 E63.07035
G1 X47.602 Y-55.967 E63.08046
G1 X54.005 Y-32.07 E64.56159
G1 X54.028 Y-31.832 E64.57591
G1 X53.972 Y-31.6 E64.5902
G1 X53.842 Y-31.399 E64.60453
G1 X53.654 Y-31.251 E64.61885
G1 X53.496 Y-31.189 E64.62901
G1 X49.361 Y-30.081 E64.8853
G1 X57.789 Y1.37 E66.83465
G1 X61.924 Y0.262 E67.09094
G1 X62.162 Y0.239 E67.10526
G1 X62.394 Y0.295 E67.11954
G1 X62.595 Y0.425 E67.13388
G1 X62.743 Y0.613 E67.1482
G1 X62.805 Y0.771 E67.15836
G1 X69.21 Y24.677 E68.64005
G1 X69.233 Y24.915 E68.65437
G1 X69.177 Y25.147 E68.66865
G1 X69.047 Y25.348 E68.68298
G1 X68.859 Y25.496 E68.69731
G1 X68.701 Y25.558 E68.70747
G1 X55.109 Y29.201 E69.54992
G1 X54.985 Y29.223 E69.55746
G1 X53.743 Y29.331 E69.6321
G1 X53.492 Y29.309 E69.64718
G1 X52.28 Y28.98 E69.72237
G1 X52.053 Y28.873 E69.73739
G1 X51.026 Y28.147 E69.81269
G1 X50.85 Y27.968 E69.82772
G1 X50.301 Y27.174 E69.88551
G1 X17.216 Y13.915 E72.01939
G1 X13.483 Y13.129 E72.24778
G1 X9.691 Y12.735 E72.47602
G1 X5.861 Y12.74 E72.70531
G1 X2.056 Y13.142 E72.93438
G1 X-1.688 Y13.939 E73.16355
G1 X-5.334 Y15.122 E73.39303
G1 X-8.827 Y16.674 E73.62187
G1 X-12.148 Y18.587 E73.85131
G1 X-15.236 Y20.822 E74.07953
G1 X-18.069 Y23.364 E74.3074
G1 X-40.097 Y51.396 E76.44179
G1 X-40.183 Y52.39 E76.50152
G1 X-40.249 Y52.636 E76.51677
G1 X-40.8 Y53.798 E76.59376
G1 X-40.951 Y54.008 E76.60925
G1 X-41.875 Y54.9 E76.68614
G1 X-42.088 Y55.042 E76.70147
G1 X-43.265 Y55.553 E76.77828
G1 X-43.515 Y55.612 E76.79366
G1 X-44.801 Y55.678 E76.87075
G1 X-45.056 Y55.645 E76.88615
G1 X-46.279 Y55.257 E76.96296
G1 X-46.506 Y55.137 E76.97834
G1 X-47.517 Y54.341 E77.05537
G1 X-47.687 Y54.149 E77.07072
G1 X-48.353 Y53.054 E77.14745
G1 X-48.445 Y52.814 E77.16284
G1 X-48.685 Y51.549 E77.23993
G1 X-48.687 Y51.292 E77.25531
G1 X-48.468 Y50.026 E77.33223
G1 X-48.381 Y49.786 E77.34751
G1 X-47.735 Y48.681 E77.42414
G1 X-47.568 Y48.486 E77.43951
G1 X-46.567 Y47.671 E77.51679
G1 X-46.341 Y47.546 E77.53226
G1 X-45.397 Y47.229 E77.59187
G1 X-27.507 Y24.465 E79.32521
G1 X-25.977 Y21.776 E79.51043
G1 X-24.83 Y18.872 E79.69736
G1 X-24.11 Y15.854 E79.88311
G1 X-23.821 Y12.757 E80.06933
G1 X-23.972 Y9.651 E80.2555
G1 X-24.559 Y6.603 E80.44133
G1 X-25.574 Y3.652 E80.62816
G1 X-26.989 Y0.892 E80.81385
G1 X-28.78 Y-1.646 E80.99982
G1 X-30.917 Y-3.911 E81.18625
G1 X-33.349 Y-5.85 E81.37246
G1 X-36.025 Y-7.422 E81.55826
G1 X-62.93 Y-18.205 E83.29357
G1 X-63.91 Y-18.007 E83.35342
G1 X-64.166 Y-18.002 E83.36875
G1 X-65.436 Y-18.205 E83.44575
G1 X-65.678 Y-18.29 E83.46111
G1 X-66.793 Y-18.924 E83.5379
G1 X-66.99 Y-19.089 E83.55328
G1 X-67.812 Y-20.076 E83.63018
G1 X-67.939 Y-20.3 E83.6456
G1 X-68.363 Y-21.515 E83.72264
G1 X-68.403 Y-21.768 E83.73797
G1 X-68.374 Y-23.051 E83.8148
G1 X-68.322 Y-23.303 E83.83021
G1 X-67.843 Y-24.498 E83.90728
G1 X-67.706 Y-24.716 E83.9227
G1 X-66.84 Y-25.663 E83.99953
G1 X-66.637 Y-25.818 E84.01482
G1 X-65.493 Y-26.403 E84.09174
G1 X-65.247 Y-26.477 E84.10712
G1 X-63.97 Y-26.623 E84.18407
G1 X-63.714 Y-26.607 E84.19943
G1 X-62.468 Y-26.297 E84.2763
G1 X-62.233 Y-26.191 E84.29173
G1 X-61.174 Y-25.46 E84.36877
G1 X-60.992 Y-25.278 E84.38418
G1 X-60.423 Y-24.461 E84.44378
G1 X-27.338 Y-11.203 E86.57764
G1 X-23.605 Y-10.417 E86.80603
G1 X-19.813 Y-10.023 E87.03427
G1 X-15.983 Y-10.027 E87.26357
G1 X-12.178 Y-10.43 E87.49264
G1 X-8.434 Y-11.227 E87.72181
G1 X-4.787 Y-12.41 E87.95135
G0 F3600 X-4.615 Y-11.961
G1 F900 X-1.082 Y-13.53 E88.18278
G1 X2.288 Y-15.472 E88.41564
G1 X5.419 Y-17.739 E88.64706
G1 X8.299 Y-20.322 E88.87867
G1 X30.44 Y-48.498 E91.02402
G1 X30.532 Y-49.61 E91.09082
G1 X30.553 Y-49.69 E91.09577
G1 X31.078 Y-50.83 E91.17091
G1 X31.126 Y-50.899 E91.17594
G1 X32.013 Y-51.792 E91.2513
G1 X32.081 Y-51.84 E91.25628
G1 X33.208 Y-52.366 E91.33074
G1 X33.248 Y-52.381 E91.3333
G1 X46.845 Y-56.013 E92.17587
G1 X46.982 Y-56.009 E92.18407
G1 X47.095 Y-55.931 E92.19229
G1 X47.139 Y-55.843 E92.19818
G1 X53.542 Y-31.946 E93.67932
G1 X53.538 Y-31.809 E93.68753
G1 X53.46 Y-31.696 E93.69575
G1 X53.372 Y-31.652 E93.70164
G1 X48.774 Y-30.42 E93.98662
G1 X57.45 Y1.957 E95.99336
G1 X62.048 Y0.725 E96.27835
G1 X62.185 Y0.729 E96.28655
G1 X62.298 Y0.807 E96.29477
G1 X62.342 Y0.895 E96.30066
G1 X68.747 Y24.801 E97.78235
G1 X68.743 Y24.938 E97.79056
G1 X68.665 Y25.051 E97.79878
G1 X68.577 Y25.095 E97.80467
G1 X54.985 Y28.738 E98.64712
G1 X54.944 Y28.745 E98.64961
G1 X53.702 Y28.853 E98.72424
G1 X53.618 Y28.846 E98.72929
G1 X52.406 Y28.517 E98.80448
G1 X52.33 Y28.481 E98.80951
G1 X51.303 Y27.755 E98.88481
G1 X51.245 Y27.695 E98.8898
G1 X50.615 Y26.782 E98.95621
G1 X17.352 Y13.453 E101.10154
G1 X13.565 Y12.655 E101.33324
G1 X9.711 Y12.255 E101.56521
G1 X5.838 Y12.26 E101.79708
G1 X1.982 Y12.668 E102.02923
G1 X-1.82 Y13.476 E102.26193
G1 X-5.506 Y14.673 E102.49395
G1 X-9.04 Y16.242 E102.72544
G1 X-12.41 Y18.184 E102.95829
G1 X-15.539 Y20.449 E103.18955
G1 X-18.42 Y23.034 E103.42128
G1 X-40.563 Y51.212 E105.5668
G1 X-40.661 Y52.349 E105.63512
G1 X-40.683 Y52.431 E105.6402
G1 X-41.234 Y53.593 E105.7172
G1 X-41.284 Y53.663 E105.72235
G1 X-42.208 Y54.555 E105.79923
G1 X-42.279 Y54.602 E105.80433
G1 X-43.456 Y55.113 E105.88115
G1 X-43.54 Y55.133 E105.88632
G1 X-44.826 Y55.199 E105.96341
G1 X-44.911 Y55.188 E105.96854
G1 X-46.134 Y54.8 E106.04536
G1 X-46.209 Y54.76 E106.05045
G1 X-47.22 Y53.964 E106.12748
G1 X-47.277 Y53.9 E106.13261
G1 X-47.943 Y52.805 E106.20934
G1 X-47.974 Y52.725 E106.21448
G1 X-48.214 Y51.46 E106.29156
G1 X-48.214 Y51.374 E106.29671
G1 X-47.995 Y50.108 E106.37363
G1 X-47.966 Y50.028 E106.37873
G1 X-47.32 Y48.923 E106.45536
G1 X-47.265 Y48.858 E106.46045
G1 X-46.264 Y48.043 E106.53773
G1 X-46.188 Y48.001 E106.54293
G1 X-45.108 Y47.639 E106.61113
G1 X-27.109 Y24.735 E108.35509
G1 X-25.541 Y21.979 E108.54492
G1 X-24.372 Y19.019 E108.73545
G1 X-23.635 Y15.931 E108.92551
G1 X-23.34 Y12.772 E109.11546
G1 X-23.495 Y9.592 E109.30607
G1 X-24.095 Y6.477 E109.49599
G1 X-25.131 Y3.464 E109.68673
G1 X-26.577 Y0.643 E109.87652
