;FLAVOR:Marlin
;TIME:5575
;Filament used: 4.26361m
;Layer height: 0.2
;MINX:-46.777
;MINY:-43.43
;MINZ:0.3
;MAXX:71.072
;MAXY:43.43
;MAXZ:14.73
;Generated with Cura_SteamEngine 4.13.1
M140 S65
M105
M190 S65
M104 S200
M105
M109 S200
M82 ;absolute extrusion mode
M190 S65 ; set bed temperature
M104 S190 ; set temperature
G28 ; home all axes
G1 Z100 F9000
M109 S190 ; wait for temperature to be reached
G21 ; set units to millimeters
G90 ; use absolute coordinates
M82 ; use absolute distances for extrusion
G92 E0

G1 Z0.300 F4800.000
G1 X0.000 Y70.000 F4800.000
G1 X40.000 Y50.000 E10.000 F1080.000

G1 Z5 F5000 ; lift nozzle
G92 E0
G92 E0
G1 F750 E-6.5
;LAYER_COUNT:53
;LAYER:0
M107
G0 F3600 X-11.789 Y-1.354 Z0.3
;TYPE:SKIRT
G1 F750 E0
G1 F900 X-12.146 Y-4.084 E0.16483
G1 X-12.85 Y-6.729 E0.3287
G1 X-13.899 Y-9.272 E0.49339
G1 X-15.263 Y-11.644 E0.6572
G1 X-16.935 Y-13.834 E0.82215
G1 X-18.853 Y-15.76 E0.98488
G1 X-41.773 Y-32.931 E2.69943
G1 X-42.483 Y-32.975 E2.74201
G1 X-42.844 Y-33.038 E2.76395
G1 X-43.064 Y-33.118 E2.77797
G1 X-44.236 Y-33.641 E2.8548
G1 X-44.552 Y-33.826 E2.87672
G1 X-44.731 Y-33.979 E2.89082
G1 X-45.647 Y-34.883 E2.96787
G1 X-45.878 Y-35.167 E2.98979
G1 X-45.992 Y-35.374 E3.00393
G1 X-46.531 Y-36.54 E3.08084
G1 X-46.647 Y-36.887 E3.10274
G1 X-46.681 Y-37.121 E3.1169
G1 X-46.776 Y-38.404 E3.19392
G1 X-46.764 Y-38.77 E3.21584
G1 X-46.713 Y-39 E3.22995
G1 X-46.352 Y-40.233 E3.30686
G1 X-46.212 Y-40.571 E3.32877
G1 X-46.086 Y-40.767 E3.34272
G1 X-45.317 Y-41.796 E3.41962
G1 X-45.067 Y-42.063 E3.44152
G1 X-44.876 Y-42.206 E3.45581
G1 X-43.793 Y-42.898 E3.53275
G1 X-43.464 Y-43.06 E3.5547
G1 X-43.237 Y-43.125 E3.56884
G1 X-41.98 Y-43.392 E3.64577
G1 X-41.616 Y-43.429 E3.66768
G1 X-41.384 Y-43.411 E3.68161
G1 X-40.111 Y-43.222 E3.75866
G1 X-39.757 Y-43.129 E3.78057
G1 X-39.544 Y-43.03 E3.79463
G1 X-38.422 Y-42.409 E3.87141
G1 X-38.123 Y-42.198 E3.89332
G1 X-37.957 Y-42.028 E3.90754
G1 X-37.124 Y-41.05 E3.98445
G1 X-36.918 Y-40.747 E4.00639
G1 X-36.823 Y-40.532 E4.02046
G1 X-36.581 Y-39.862 E4.06311
G1 X-8.348 Y-18.711 E6.17508
G1 X-5.079 Y-17.054 E6.39449
G1 X-1.598 Y-15.723 E6.61761
G1 X2 Y-14.763 E6.84055
G1 X5.682 Y-14.183 E7.0637
G1 X9.407 Y-13.988 E7.28702
G1 X13.132 Y-14.183 E7.51033
G1 X16.814 Y-14.763 E7.73349
G1 X20.412 Y-15.723 E7.95643
G1 X23.893 Y-17.054 E8.17954
G1 X27.162 Y-18.711 E8.39896
G1 X55.392 Y-39.859 E10.51068
G1 X55.62 Y-40.499 E10.55136
G1 X55.911 Y-41.009 E10.58651
G1 X56.715 Y-41.976 E10.6618
G1 X57.164 Y-42.355 E10.69697
G1 X58.25 Y-42.985 E10.77214
G1 X58.799 Y-43.186 E10.80714
G1 X60.026 Y-43.404 E10.88175
G1 X60.321 Y-43.43 E10.89948
G1 X69.393 Y-43.423 E11.4426
G1 X69.757 Y-43.383 E11.46453
G1 X70.104 Y-43.265 E11.48647
G1 X70.416 Y-43.075 E11.50834
G1 X70.68 Y-42.821 E11.53027
G1 X70.883 Y-42.516 E11.55221
G1 X71.016 Y-42.175 E11.57412
G1 X71.072 Y-41.743 E11.6002
G1 X71.072 Y-17 E13.08152
G1 X71.032 Y-16.636 E13.10344
G1 X70.914 Y-16.29 E13.12533
G1 X70.724 Y-15.977 E13.14725
G1 X70.471 Y-15.712 E13.16918
G1 X70.167 Y-15.509 E13.19107
G1 X69.825 Y-15.377 E13.21302
G1 X69.392 Y-15.32 E13.23916
G1 X66.072 Y-15.32 E13.43792
G1 X66.072 Y15.32 E15.27229
G1 X69.392 Y15.32 E15.47105
G1 X69.756 Y15.36 E15.49297
G1 X70.102 Y15.478 E15.51486
G1 X70.415 Y15.668 E15.53678
G1 X70.68 Y15.921 E15.55872
G1 X70.883 Y16.225 E15.5806
G1 X71.015 Y16.567 E15.60255
G1 X71.072 Y17 E15.62869
G1 X71.072 Y41.749 E17.11037
G1 X71.032 Y42.113 E17.1323
G1 X70.914 Y42.459 E17.15418
G1 X70.724 Y42.772 E17.1761
G1 X70.471 Y43.037 E17.19804
G1 X70.167 Y43.24 E17.21992
G1 X69.825 Y43.372 E17.24187
G1 X69.392 Y43.429 E17.26802
G1 X60.32 Y43.43 E17.81114
G1 X60.026 Y43.404 E17.82881
G1 X58.799 Y43.186 E17.90342
G1 X58.25 Y42.985 E17.93842
G1 X57.164 Y42.355 E18.01359
G1 X56.715 Y41.976 E18.04876
G1 X55.911 Y41.009 E18.12405
G1 X55.62 Y40.499 E18.1592
G1 X55.392 Y39.859 E18.19988
G1 X27.162 Y18.711 E20.3116
G1 X23.893 Y17.054 E20.53102
G1 X20.412 Y15.723 E20.75413
G1 X16.814 Y14.763 E20.97707
G1 X13.132 Y14.183 E21.20023
G1 X9.407 Y13.988 E21.42354
G1 X5.682 Y14.183 E21.64686
G1 X2 Y14.763 E21.87001
G1 X-1.598 Y15.723 E22.09295
G1 X-5.079 Y17.054 E22.31607
G1 X-8.348 Y18.711 E22.53548
G1 X-36.581 Y39.862 E24.64745
G1 X-36.823 Y40.532 E24.6901
G1 X-36.984 Y40.861 E24.71203
G1 X-37.124 Y41.05 E24.72611
G1 X-37.957 Y42.028 E24.80302
G1 X-38.223 Y42.279 E24.82492
G1 X-38.422 Y42.409 E24.83915
G1 X-39.544 Y43.03 E24.91592
G1 X-39.882 Y43.171 E24.93785
G1 X-40.111 Y43.222 E24.95189
G1 X-41.384 Y43.411 E25.02894
G1 X-41.75 Y43.425 E25.05087
G1 X-41.98 Y43.392 E25.06478
G1 X-43.237 Y43.125 E25.14171
G1 X-43.585 Y43.011 E25.16364
G1 X-43.793 Y42.898 E25.17781
G1 X-44.876 Y42.206 E25.25475
G1 X-45.161 Y41.976 E25.27668
G1 X-45.317 Y41.796 E25.29094
G1 X-46.086 Y40.767 E25.36784
G1 X-46.272 Y40.451 E25.3898
G1 X-46.352 Y40.233 E25.4037
G1 X-46.713 Y39 E25.48062
G1 X-46.777 Y38.64 E25.50251
G1 X-46.776 Y38.404 E25.51663
G1 X-46.681 Y37.121 E25.59366
G1 X-46.615 Y36.761 E25.61557
G1 X-46.531 Y36.54 E25.62972
G1 X-45.992 Y35.374 E25.70663
G1 X-45.803 Y35.061 E25.72852
G1 X-45.647 Y34.883 E25.74269
G1 X-44.731 Y33.979 E25.81973
G1 X-44.444 Y33.752 E25.84164
G1 X-44.236 Y33.641 E25.85576
G1 X-43.064 Y33.118 E25.93259
G1 X-42.715 Y33.006 E25.95453
G1 X-42.483 Y32.975 E25.96855
G1 X-41.773 Y32.931 E26.01114
G1 X-18.886 Y15.785 E27.7232
G1 X-16.952 Y13.848 E27.88707
G1 X-15.288 Y11.677 E28.05083
G1 X-13.913 Y9.296 E28.21544
G1 X-12.863 Y6.761 E28.37971
G1 X-12.153 Y4.114 E28.54378
G1 X-11.792 Y1.38 E28.70888
G1 X-11.789 Y-1.354 E28.87256
G0 F3600 X-11.309 Y-1.386
G1 F900 X-11.672 Y-4.169 E29.04059
G1 X-12.398 Y-6.891 E29.20925
G1 X-13.465 Y-9.481 E29.37695
G1 X-14.861 Y-11.909 E29.54462
G1 X-16.574 Y-14.15 E29.71349
G1 X-18.545 Y-16.13 E29.88075
G1 X-41.599 Y-33.401 E31.6053
G1 X-42.453 Y-33.454 E31.65653
G1 X-42.868 Y-33.556 E31.68212
G1 X-44.04 Y-34.079 E31.75895
G1 X-44.394 Y-34.321 E31.78462
G1 X-45.31 Y-35.225 E31.86167
G1 X-45.556 Y-35.575 E31.88728
G1 X-46.095 Y-36.741 E31.96419
G1 X-46.203 Y-37.156 E31.98986
G1 X-46.298 Y-38.439 E32.06688
G1 X-46.253 Y-38.865 E32.09253
G1 X-45.892 Y-40.098 E32.16944
G1 X-45.701 Y-40.479 E32.19496
G1 X-44.932 Y-41.508 E32.27187
G1 X-44.617 Y-41.801 E32.29762
G1 X-43.534 Y-42.493 E32.37456
G1 X-43.137 Y-42.656 E32.40026
G1 X-41.88 Y-42.923 E32.47719
G1 X-41.455 Y-42.936 E32.50265
G1 X-40.182 Y-42.747 E32.57969
G1 X-39.777 Y-42.61 E32.60529
G1 X-38.655 Y-41.989 E32.68206
G1 X-38.322 Y-41.717 E32.70781
G1 X-37.489 Y-40.739 E32.78472
G1 X-37.274 Y-40.369 E32.81034
G1 X-36.982 Y-39.562 E32.86172
G1 X-8.607 Y-18.304 E34.98433
G1 X-5.273 Y-16.615 E35.20808
G1 X-1.742 Y-15.265 E35.4344
G1 X1.905 Y-14.292 E35.66038
G1 X5.631 Y-13.705 E35.8862
G1 X9.407 Y-13.506 E36.11258
G1 X13.183 Y-13.705 E36.33895
G1 X16.909 Y-14.292 E36.56477
G1 X20.556 Y-15.265 E36.79075
G1 X24.087 Y-16.615 E37.01707
G1 X27.421 Y-18.304 E37.24082
G1 X55.796 Y-39.561 E39.3634
G1 X56.073 Y-40.338 E39.41279
G1 X56.28 Y-40.702 E39.43786
G1 X57.084 Y-41.669 E39.51314
G1 X57.405 Y-41.94 E39.53829
G1 X58.491 Y-42.57 E39.61346
G1 X58.883 Y-42.713 E39.63844
G1 X60.11 Y-42.931 E39.71305
G1 X60.321 Y-42.95 E39.72573
G1 X69.393 Y-42.943 E40.26886
G1 X69.7 Y-42.903 E40.28739
G1 X69.986 Y-42.786 E40.30589
G1 X70.232 Y-42.6 E40.32436
G1 X70.423 Y-42.356 E40.34291
G1 X70.546 Y-42.072 E40.36144
G1 X70.592 Y-41.743 E40.38132
G1 X70.592 Y-17 E41.86264
G1 X70.552 Y-16.693 E41.88118
G1 X70.435 Y-16.407 E41.89968
G1 X70.249 Y-16.16 E41.91819
G1 X70.006 Y-15.969 E41.93669
G1 X69.722 Y-15.846 E41.95522
G1 X69.392 Y-15.8 E41.97517
G1 X65.592 Y-15.8 E42.20267
G1 X65.592 Y15.8 E44.09451
G1 X69.392 Y15.8 E44.32201
G1 X69.699 Y15.84 E44.34054
G1 X69.985 Y15.957 E44.35904
G1 X70.232 Y16.143 E44.37755
G1 X70.423 Y16.386 E44.39606
G1 X70.546 Y16.67 E44.41458
G1 X70.592 Y17 E44.43453
G1 X70.592 Y41.749 E45.91621
G1 X70.552 Y42.056 E45.93475
G1 X70.435 Y42.342 E45.95325
G1 X70.249 Y42.589 E45.97176
G1 X70.006 Y42.78 E45.99026
G1 X69.722 Y42.903 E46.00879
G1 X69.392 Y42.949 E46.02874
G1 X60.32 Y42.95 E46.57186
G1 X60.11 Y42.931 E46.58449
G1 X58.883 Y42.713 E46.65909
G1 X58.491 Y42.57 E46.68408
G1 X57.405 Y41.94 E46.75924
G1 X57.084 Y41.669 E46.78439
G1 X56.28 Y40.702 E46.85968
G1 X56.073 Y40.338 E46.88475
G1 X55.796 Y39.561 E46.93413
G1 X27.421 Y18.304 E49.05672
G1 X24.087 Y16.615 E49.28047
G1 X20.556 Y15.265 E49.50679
G1 X16.909 Y14.292 E49.73276
G1 X13.183 Y13.705 E49.95858
G1 X9.407 Y13.506 E50.18496
G1 X5.631 Y13.705 E50.41134
G1 X1.905 Y14.292 E50.63716
G1 X-1.742 Y15.265 E50.86313
G1 X-5.273 Y16.615 E51.08945
G1 X-8.607 Y18.304 E51.3132
G1 X-36.982 Y39.562 E53.43582
G1 X-37.274 Y40.369 E53.4872
G1 X-37.489 Y40.739 E53.51282
G1 X-38.322 Y41.717 E53.58973
G1 X-38.655 Y41.989 E53.61547
G1 X-39.777 Y42.61 E53.69225
G1 X-40.182 Y42.747 E53.71784
G1 X-41.455 Y42.936 E53.79489
G1 X-41.88 Y42.923 E53.82035
G1 X-43.137 Y42.656 E53.89728
G1 X-43.534 Y42.493 E53.92297
G1 X-44.617 Y41.801 E53.99991
G1 X-44.932 Y41.508 E54.02567
G1 X-45.701 Y40.479 E54.10258
G1 X-45.892 Y40.098 E54.12809
G1 X-46.253 Y38.865 E54.20501
G1 X-46.298 Y38.439 E54.23065
G1 X-46.203 Y37.156 E54.30768
G1 X-46.095 Y36.741 E54.33335
G1 X-45.556 Y35.575 E54.41025
G1 X-45.31 Y35.225 E54.43586
G1 X-44.394 Y34.321 E54.51291
G1 X-44.04 Y34.079 E54.53858
G1 X-42.868 Y33.556 E54.61542
G1 X-42.453 Y33.454 E54.641
G1 X-41.599 Y33.401 E54.69223
G1 X-18.574 Y16.152 E56.4146
G1 X-16.591 Y14.166 E56.58262
G1 X-14.886 Y11.943 E56.75035
G1 X-13.483 Y9.512 E56.91839
G1 X-12.406 Y6.912 E57.08687
G1 X-11.681 Y4.209 E57.25441
G1 X-11.312 Y1.413 E57.42326
G1 X-11.309 Y-1.386 E57.59083
G0 F3600 X-10.829 Y-1.417
G1 F900 X-11.201 Y-4.264 E57.76272
G1 X-11.94 Y-7.038 E57.93459
G1 X-13.036 Y-9.696 E58.10672
G1 X-14.465 Y-12.182 E58.27839
G1 X-16.207 Y-14.462 E58.45017
G1 X-18.226 Y-16.489 E58.62145
G1 X-41.427 Y-33.871 E60.35703
G1 X-42.424 Y-33.933 E60.41683
G1 X-42.672 Y-33.994 E60.43212
G1 X-43.844 Y-34.517 E60.50896
G1 X-44.057 Y-34.663 E60.52442
G1 X-44.973 Y-35.567 E60.60146
G1 X-45.121 Y-35.777 E60.61685
G1 X-45.66 Y-36.943 E60.69375
G1 X-45.724 Y-37.192 E60.70914
G1 X-45.819 Y-38.475 E60.78616
G1 X-45.792 Y-38.73 E60.80151
G1 X-45.431 Y-39.963 E60.87843
G1 X-45.317 Y-40.192 E60.89375
G1 X-44.548 Y-41.221 E60.97065
G1 X-44.359 Y-41.397 E60.98611
G1 X-43.276 Y-42.089 E61.06306
G1 X-43.038 Y-42.186 E61.07844
G1 X-41.781 Y-42.453 E61.15538
G1 X-41.525 Y-42.461 E61.17071
G1 X-40.252 Y-42.272 E61.24776
G1 X-40.009 Y-42.19 E61.26311
G1 X-38.887 Y-41.569 E61.33989
G1 X-38.688 Y-41.406 E61.35529
G1 X-37.855 Y-40.428 E61.4322
G1 X-37.726 Y-40.206 E61.44757
G1 X-37.386 Y-39.265 E61.50747
G1 X-8.859 Y-17.894 E63.64143
G1 X-5.471 Y-16.177 E63.86882
G1 X-1.894 Y-14.809 E64.09809
G1 X1.813 Y-13.82 E64.32779
G1 X5.579 Y-13.227 E64.55603
G1 X9.407 Y-13.026 E64.78552
G1 X13.235 Y-13.227 E65.01501
G1 X17.001 Y-13.82 E65.24326
G1 X20.708 Y-14.809 E65.47295
G1 X24.285 Y-16.177 E65.70222
G1 X27.673 Y-17.894 E65.92962
G1 X56.2 Y-39.264 E68.06354
G1 X56.525 Y-40.177 E68.12156
G1 X56.649 Y-40.395 E68.13657
G1 X57.453 Y-41.362 E68.21186
G1 X57.646 Y-41.525 E68.22699
G1 X58.732 Y-42.155 E68.30215
G1 X58.967 Y-42.241 E68.31713
G1 X60.194 Y-42.459 E68.39174
G1 X60.321 Y-42.47 E68.39937
G1 X69.393 Y-42.463 E68.9425
G1 X69.628 Y-42.423 E68.95677
G1 X69.838 Y-42.308 E68.9711
G1 X69.999 Y-42.131 E68.98543
G1 X70.092 Y-41.911 E68.99973
G1 X70.112 Y-41.743 E69.00986
G1 X70.112 Y-17 E70.49118
G1 X70.072 Y-16.764 E70.50551
G1 X69.957 Y-16.554 E70.51984
G1 X69.78 Y-16.394 E70.53413
G1 X69.56 Y-16.3 E70.54845
G1 X69.392 Y-16.28 E70.55858
G1 X65.112 Y-16.28 E70.81481
G1 X65.112 Y16.28 E72.76412
G1 X69.392 Y16.28 E73.02036
G1 X69.628 Y16.32 E73.03469
G1 X69.838 Y16.435 E73.04902
G1 X69.998 Y16.612 E73.06331
G1 X70.092 Y16.832 E73.07763
G1 X70.112 Y17 E73.08776
G1 X70.112 Y41.749 E74.56944
G1 X70.072 Y41.985 E74.58377
G1 X69.957 Y42.195 E74.5981
G1 X69.78 Y42.355 E74.61239
G1 X69.56 Y42.449 E74.62671
G1 X69.392 Y42.469 E74.63684
G1 X60.32 Y42.47 E75.17996
G1 X60.194 Y42.459 E75.18754
G1 X58.967 Y42.241 E75.26215
G1 X58.732 Y42.155 E75.27713
G1 X57.646 Y41.525 E75.35229
G1 X57.453 Y41.362 E75.36742
G1 X56.649 Y40.395 E75.44271
G1 X56.525 Y40.177 E75.45772
G1 X56.2 Y39.264 E75.51574
G1 X27.673 Y17.894 E77.64966
G1 X24.285 Y16.177 E77.87705
G1 X20.708 Y14.809 E78.10633
G1 X17.001 Y13.82 E78.33602
G1 X13.235 Y13.227 E78.56427
G1 X9.407 Y13.026 E78.79376
G1 X5.579 Y13.227 E79.02325
G1 X1.813 Y13.82 E79.25149
G1 X-1.894 Y14.809 E79.48118
G1 X-5.471 Y16.177 E79.71046
G1 X-8.859 Y17.894 E79.93785
G1 X-37.386 Y39.265 E82.07181
G1 X-37.726 Y40.206 E82.13171
G1 X-37.855 Y40.428 E82.14708
G1 X-38.688 Y41.406 E82.22399
G1 X-38.887 Y41.569 E82.23939
G1 X-40.009 Y42.19 E82.31617
G1 X-40.252 Y42.272 E82.33152
G1 X-41.525 Y42.461 E82.40857
G1 X-41.781 Y42.453 E82.4239
G1 X-43.038 Y42.186 E82.50084
G1 X-43.276 Y42.089 E82.51622
G1 X-44.359 Y41.397 E82.59317
G1 X-44.548 Y41.221 E82.60863
G1 X-45.317 Y40.192 E82.68553
G1 X-45.431 Y39.963 E82.70085
G1 X-45.792 Y38.73 E82.77776
G1 X-45.819 Y38.475 E82.79312
G1 X-45.724 Y37.192 E82.87014
G1 X-45.66 Y36.943 E82.88553
G1 X-45.121 Y35.777 E82.96243
G1 X-44.973 Y35.567 E82.97781
G1 X-44.057 Y34.663 E83.05486
G1 X-43.844 Y34.517 E83.07032
G1 X-42.672 Y33.994 E83.14716
G1 X-42.424 Y33.933 E83.16245
G1 X-41.427 Y33.871 E83.22225
G1 X-18.255 Y16.512 E84.95562
G1 X-16.23 Y14.484 E85.12719
G1 X-14.489 Y12.214 E85.29846
G1 X-13.048 Y9.717 E85.47106
G1 X-11.951 Y7.069 E85.64266
G1 X-11.209 Y4.304 E85.81405
G1 X-10.832 Y1.446 E85.98663
G1 X-10.829 Y-1.417 E86.15804
G0 F3600 X-10.349 Y-1.448
G1 F900 X-10.729 Y-4.357 E86.33367
G1 X-11.484 Y-7.194 E86.50943
G1 X-12.602 Y-9.905 E86.68499
G1 X-14.063 Y-12.446 E86.86047
G1 X-15.849 Y-14.783 E87.03656
G1 X-17.909 Y-16.852 E87.21136
G1 X-41.254 Y-34.341 E88.95768
G1 X-42.394 Y-34.412 E89.02606
G1 X-42.477 Y-34.433 E89.03119
G1 X-43.649 Y-34.956 E89.10802
G1 X-43.72 Y-35.004 E89.11315
G1 X-44.636 Y-35.908 E89.1902
G1 X-44.685 Y-35.978 E89.19532
G1 X-45.224 Y-37.144 E89.27222
G1 X-45.245 Y-37.227 E89.27735
G1 X-45.34 Y-38.51 E89.35437
G1 X-45.331 Y-38.595 E89.35948
G1 X-44.97 Y-39.828 E89.4364
G1 X-44.932 Y-39.905 E89.44154
G1 X-44.163 Y-40.934 E89.51845
G1 X-44.1 Y-40.992 E89.52358
G1 X-43.017 Y-41.684 E89.60052
G1 X-42.938 Y-41.717 E89.60564
G1 X-41.681 Y-41.984 E89.68258
G1 X-41.596 Y-41.986 E89.68767
G1 X-40.323 Y-41.797 E89.76472
G1 X-40.242 Y-41.77 E89.76983
G1 X-39.12 Y-41.149 E89.8466
G1 X-39.053 Y-41.095 E89.85175
G1 X-38.22 Y-40.117 E89.92866
G1 X-38.177 Y-40.043 E89.93379
G1 X-37.788 Y-38.967 E90.00229
G1 X-9.114 Y-17.485 E92.14727
G1 X-5.661 Y-15.735 E92.37903
G1 X-2.044 Y-14.352 E92.61086
G1 X1.71 Y-13.351 E92.84346
G1 X5.526 Y-12.75 E93.07473
G1 X9.407 Y-12.546 E93.3074
G1 X13.288 Y-12.75 E93.54007
G1 X17.104 Y-13.351 E93.77135
G1 X20.858 Y-14.352 E94.00394
G1 X24.475 Y-15.735 E94.23578
G1 X27.928 Y-17.485 E94.46753
G1 X56.603 Y-38.967 E96.61257
G1 X56.977 Y-40.016 E96.67924
G1 X57.018 Y-40.088 E96.6842
G1 X57.822 Y-41.055 E96.75949
G1 X57.887 Y-41.11 E96.76459
G1 X58.973 Y-41.74 E96.83975
G1 X59.051 Y-41.768 E96.84471
G1 X60.278 Y-41.986 E96.91932
G1 X60.32 Y-41.99 E96.92185
G1 X69.392 Y-41.983 E97.46497
G1 X69.524 Y-41.944 E97.47321
G1 X69.612 Y-41.839 E97.48141
G1 X69.632 Y-41.743 E97.48729
G1 X69.632 Y-17 E98.96861
G1 X69.593 Y-16.869 E98.97679
G1 X69.488 Y-16.78 E98.98503
G1 X69.392 Y-16.76 E98.9909
G1 X64.632 Y-16.76 E99.27587
G1 X64.632 Y16.76 E101.28266
G1 X69.392 Y16.76 E101.56763
G1 X69.523 Y16.799 E101.57581
G1 X69.612 Y16.904 E101.58405
G1 X69.632 Y17 E101.58992
G1 X69.632 Y41.749 E103.0716
G1 X69.593 Y41.88 E103.07979
G1 X69.488 Y41.969 E103.08803
G1 X69.392 Y41.989 E103.0939
G1 X60.32 Y41.99 E103.63702
G1 X60.278 Y41.986 E103.63955
G1 X59.051 Y41.768 E103.71416
G1 X58.973 Y41.74 E103.71912
G1 X57.887 Y41.11 E103.79428
G1 X57.822 Y41.055 E103.79938
G1 X57.018 Y40.088 E103.87467
G1 X56.977 Y40.016 E103.87963
G1 X56.603 Y38.967 E103.9463
G1 X27.928 Y17.485 E106.09133
G1 X24.475 Y15.735 E106.32309
G1 X20.858 Y14.352 E106.55493
