;FLAVOR:Marlin
;TIME:5886
;Filament used: 4.48734m
;Layer height: 0.2
;MINX:-53.08
;MINY:-32.973
;MINZ:0.3
;MAXX:67.285
;MAXY:53.886
;MAXZ:14.73
;Generated with Cura_SteamEngine 4.13.1
M140 S65
M105
M190 S65
M104 S200
M105
M109 S200
M82 ;absolute extrusion mode
M190 S65 ; set bed temperature
M104 S190 ; set temperature
G28 ; home all axes
G1 Z100 F9000
M109 S190 ; wait for temperature to be reached
G21 ; set units to millimeters
G90 ; use absolute coordinates
M82 ; use absolute distances for extrusion
G92 E0

G1 Z0.300 F4800.000
G1 X0.000 Y70.000 F4800.000
G1 X40.000 Y50.000 E10.000 F1080.000

G1 Z5 F5000 ; lift nozzle
G92 E0
G92 E0
G1 F750 E-6.5
;LAYER_COUNT:53
;LAYER:0
M107
G0 F3600 X-.324 Y-3.696 Z0.3
;TYPE:SKIRT
G1 F750 E0
G1 F900 X1.048 Y-3.59 E0.08238
G1 X2.44 Y-3.536 E0.16578
G1 X3.8 Y-3.536 E0.2472
G1 X5.193 Y-3.59 E0.33066
G1 X6.565 Y-3.696 E0.41305
G1 X7.951 Y-3.857 E0.49658
G1 X9.292 Y-4.065 E0.57783
G1 X10.674 Y-4.336 E0.66214
G1 X11.967 Y-4.64 E0.74166
G1 X13.341 Y-5.022 E0.82704
G1 X14.662 Y-5.442 E0.91003
G1 X15.943 Y-5.908 E0.99163
G1 X17.234 Y-6.431 E1.07503
G1 X18.484 Y-6.998 E1.1572
G1 X19.732 Y-7.622 E1.24073
G1 X20.853 Y-8.237 E1.31728
G1 X49.036 Y-29.349 E3.42546
G1 X49.278 Y-29.958 E3.46469
G1 X49.603 Y-30.543 E3.50476
G1 X50.004 Y-31.088 E3.54527
G1 X50.464 Y-31.569 E3.58511
G1 X50.989 Y-31.997 E3.62566
G1 X51.559 Y-32.349 E3.66577
G1 X52.179 Y-32.63 E3.70652
G1 X52.815 Y-32.825 E3.74635
G1 X53.48 Y-32.941 E3.78676
G1 X54.041 Y-32.973 E3.8204
G1 X65.606 Y-32.965 E4.51278
G1 X65.97 Y-32.925 E4.5347
G1 X66.317 Y-32.807 E4.55665
G1 X66.629 Y-32.617 E4.57852
G1 X66.893 Y-32.363 E4.60045
G1 X67.096 Y-32.059 E4.62233
G1 X67.228 Y-31.717 E4.64428
G1 X67.285 Y-31.285 E4.67037
G1 X67.285 Y-6.543 E6.15163
G1 X67.245 Y-6.179 E6.17355
G1 X67.127 Y-5.833 E6.19544
G1 X66.937 Y-5.52 E6.21736
G1 X66.684 Y-5.255 E6.23929
G1 X66.38 Y-5.052 E6.26118
G1 X66.038 Y-4.92 E6.28312
G1 X65.605 Y-4.863 E6.30927
G1 X62.285 Y-4.863 E6.50803
G1 X62.285 Y25.777 E8.3424
G1 X65.605 Y25.777 E8.54116
G1 X65.969 Y25.817 E8.56308
G1 X66.315 Y25.935 E8.58497
G1 X66.628 Y26.125 E8.60689
G1 X66.893 Y26.378 E8.62882
G1 X67.096 Y26.682 E8.65071
G1 X67.228 Y27.024 E8.67265
G1 X67.285 Y27.457 E8.6988
G1 X67.285 Y52.206 E10.18048
G1 X67.245 Y52.57 E10.2024
G1 X67.127 Y52.916 E10.22429
G1 X66.937 Y53.229 E10.24621
G1 X66.684 Y53.494 E10.26814
G1 X66.38 Y53.697 E10.29003
G1 X66.038 Y53.829 E10.31198
G1 X65.605 Y53.886 E10.33812
G1 X54.014 Y53.886 E11.03206
G1 X53.479 Y53.854 E11.06414
G1 X52.812 Y53.737 E11.10468
G1 X52.179 Y53.543 E11.14432
G1 X51.559 Y53.262 E11.18507
G1 X50.989 Y52.909 E11.22521
G1 X50.467 Y52.486 E11.26544
G1 X50.002 Y51.999 E11.30575
G1 X49.602 Y51.455 E11.34617
G1 X49.277 Y50.868 E11.38634
G1 X49.036 Y50.262 E11.42539
G1 X20.848 Y29.147 E13.53391
G1 X19.727 Y28.532 E13.61046
G1 X18.497 Y27.917 E13.69279
G1 X17.213 Y27.337 E13.77714
G1 X15.932 Y26.814 E13.85998
G1 X14.644 Y26.35 E13.94194
G1 X13.346 Y25.935 E14.02352
G1 X12.009 Y25.565 E14.10657
G1 X10.623 Y25.236 E14.19186
G1 X9.307 Y24.981 E14.27211
G1 X7.95 Y24.77 E14.35433
G1 X6.565 Y24.609 E14.4378
G1 X5.193 Y24.503 E14.52019
G1 X3.801 Y24.449 E14.60359
G1 X2.441 Y24.449 E14.68501
G1 X1.048 Y24.503 E14.76846
G1 X-.324 Y24.609 E14.85085
G1 X-1.71 Y24.77 E14.93438
G1 X-3.049 Y24.978 E15.01551
G1 X-4.433 Y25.249 E15.09994
G1 X-5.726 Y25.553 E15.17946
G1 X-7.095 Y25.933 E15.26452
G1 X-8.413 Y26.352 E15.34732
G1 X-9.719 Y26.827 E15.43052
G1 X-10.978 Y27.339 E15.51188
G1 X-12.247 Y27.913 E15.59527
G1 X-13.505 Y28.541 E15.67944
G1 X-14.604 Y29.145 E15.75452
G1 X-42.794 Y50.263 E17.86325
G1 X-43.028 Y50.85 E17.90108
G1 X-43.348 Y51.434 E17.94095
G1 X-43.739 Y51.973 E17.98081
G1 X-44.191 Y52.454 E18.02033
G1 X-44.707 Y52.88 E18.06039
G1 X-45.266 Y53.234 E18.1
G1 X-45.875 Y53.52 E18.14028
G1 X-46.5 Y53.72 E18.17957
G1 X-47.158 Y53.845 E18.21967
G1 X-47.821 Y53.884 E18.25943
G1 X-48.481 Y53.84 E18.29903
G1 X-49.13 Y53.715 E18.3386
G1 X-49.77 Y53.506 E18.3789
G1 X-50.371 Y53.22 E18.41875
G1 X-50.925 Y52.864 E18.45818
G1 X-51.441 Y52.432 E18.49847
G1 X-51.889 Y51.948 E18.53795
G1 X-52.277 Y51.41 E18.57766
G1 X-52.595 Y50.824 E18.61758
G1 X-52.836 Y50.201 E18.65757
G1 X-52.994 Y49.567 E18.69669
G1 X-53.075 Y48.9 E18.73691
G1 X-53.069 Y48.239 E18.77649
G1 X-52.98 Y47.572 E18.81677
G1 X-52.811 Y46.938 E18.85605
G1 X-52.563 Y46.323 E18.89575
G1 X-52.237 Y45.74 E18.93574
G1 X-51.842 Y45.207 E18.97546
G1 X-51.381 Y44.725 E19.01539
G1 X-50.868 Y44.308 E19.05497
G1 X-50.306 Y43.959 E19.09457
G1 X-49.691 Y43.676 E19.13511
G1 X-49.066 Y43.482 E19.17428
G1 X-48.406 Y43.363 E19.21443
G1 X-47.989 Y43.333 E19.23946
G1 X-25.144 Y26.22 E20.94833
G1 X-24.399 Y25.532 E21.00904
G1 X-23.681 Y24.799 E21.07047
G1 X-22.981 Y24.01 E21.13362
G1 X-22.321 Y23.185 E21.19687
G1 X-21.702 Y22.328 E21.26016
G1 X-21.132 Y21.447 E21.32298
G1 X-20.607 Y20.542 E21.38562
G1 X-20.127 Y19.609 E21.44843
G1 X-19.688 Y18.642 E21.51201
G1 X-19.313 Y17.688 E21.57338
G1 X-18.969 Y16.678 E21.63726
G1 X-18.686 Y15.672 E21.69983
G1 X-18.445 Y14.628 E21.76397
G1 X-18.269 Y13.619 E21.82529
G1 X-18.134 Y12.554 E21.88956
G1 X-18.056 Y11.518 E21.95176
G1 X-18.028 Y10.469 E22.01458
G1 X-18.054 Y9.428 E22.07693
G1 X-18.131 Y8.381 E22.13978
G1 X-18.262 Y7.334 E22.20295
G1 X-18.446 Y6.284 E22.26677
G1 X-18.673 Y5.296 E22.32746
G1 X-18.962 Y4.261 E22.39179
G1 X-19.296 Y3.263 E22.4548
G1 X-19.682 Y2.284 E22.5178
G1 X-20.111 Y1.326 E22.58064
G1 X-20.589 Y0.399 E22.64308
G1 X-21.118 Y-.515 E22.70631
G1 X-21.685 Y-1.392 E22.76883
G1 X-22.302 Y-2.251 E22.83215
G1 X-22.952 Y-3.066 E22.89456
G1 X-23.659 Y-3.867 E22.95852
G1 X-24.378 Y-4.601 E23.02003
G1 X-25.114 Y-5.284 E23.08015
G1 X-47.987 Y-22.419 E24.79115
G1 X-48.619 Y-22.479 E24.82915
G1 X-49.263 Y-22.621 E24.86863
G1 X-49.896 Y-22.847 E24.90887
G1 X-50.485 Y-23.147 E24.94845
G1 X-51.041 Y-23.524 E24.98866
G1 X-51.531 Y-23.957 E25.02781
G1 X-51.975 Y-24.458 E25.06789
G1 X-52.35 Y-25.01 E25.10784
G1 X-52.65 Y-25.602 E25.14757
G1 X-52.872 Y-26.221 E25.18694
G1 X-53.018 Y-26.872 E25.22689
G1 X-53.08 Y-27.531 E25.26651
G1 X-53.058 Y-28.201 E25.30665
G1 X-52.953 Y-28.852 E25.34612
G1 X-52.767 Y-29.491 E25.38597
G1 X-52.501 Y-30.101 E25.42581
G1 X-52.161 Y-30.672 E25.46559
G1 X-51.755 Y-31.193 E25.50514
G1 X-51.281 Y-31.666 E25.54523
G1 X-50.756 Y-32.07 E25.58489
G1 X-50.18 Y-32.408 E25.62487
G1 X-49.567 Y-32.669 E25.66476
G1 X-48.931 Y-32.849 E25.70433
G1 X-48.272 Y-32.95 E25.74424
G1 X-47.609 Y-32.968 E25.78395
G1 X-46.946 Y-32.901 E25.82385
G1 X-46.298 Y-32.751 E25.86367
G1 X-45.672 Y-32.521 E25.90359
G1 X-45.091 Y-32.22 E25.94277
G1 X-44.533 Y-31.836 E25.98332
G1 X-44.047 Y-31.399 E26.02245
G1 X-43.605 Y-30.891 E26.06276
G1 X-43.239 Y-30.341 E26.10231
G1 X-42.945 Y-29.752 E26.14172
G1 X-42.794 Y-29.35 E26.16743
G1 X-14.612 Y-8.237 E28.2756
G1 X-13.47 Y-7.611 E28.35357
G1 X-12.266 Y-7.008 E28.43418
G1 X-10.985 Y-6.429 E28.51834
G1 X-9.685 Y-5.899 E28.60239
G1 X-8.403 Y-5.437 E28.68397
G1 X-7.107 Y-5.023 E28.76543
G1 X-5.774 Y-4.653 E28.84825
G1 X-4.378 Y-4.322 E28.93414
G1 X-3.064 Y-4.067 E29.01428
G1 X-1.713 Y-3.858 E29.09612
G1 X-.324 Y-3.696 E29.17984
G0 F3600 X-.363 Y-3.217
G1 F900 X1.019 Y-3.11 E29.26283
G1 X2.421 Y-3.056 E29.34682
G1 X3.819 Y-3.056 E29.43052
G1 X5.223 Y-3.11 E29.51464
G1 X6.604 Y-3.217 E29.59756
G1 X8.005 Y-3.38 E29.682
G1 X9.379 Y-3.593 E29.76525
G1 X10.772 Y-3.866 E29.85023
G1 X12.101 Y-4.179 E29.93197
G1 X13.455 Y-4.555 E30.0161
G1 X14.83 Y-4.992 E30.10248
G1 X16.129 Y-5.464 E30.18522
G1 X17.408 Y-5.984 E30.26788
G1 X18.714 Y-6.576 E30.35372
G1 X19.942 Y-7.19 E30.43592
G1 X21.117 Y-7.835 E30.51617
G1 X49.445 Y-29.056 E32.6352
G1 X49.638 Y-29.591 E32.66925
G1 X49.918 Y-30.14 E32.70615
G1 X50.258 Y-30.64 E32.74235
G1 X50.669 Y-31.102 E32.77937
G1 X51.123 Y-31.499 E32.81547
G1 X51.636 Y-31.842 E32.85242
G1 X52.184 Y-32.116 E32.8891
G1 X52.762 Y-32.316 E32.92572
G1 X53.359 Y-32.442 E32.96224
G1 X53.963 Y-32.491 E32.99852
G1 X54.041 Y-32.493 E33.00319
G1 X65.606 Y-32.485 E33.69557
G1 X65.912 Y-32.445 E33.71405
G1 X66.199 Y-32.328 E33.7326
G1 X66.445 Y-32.142 E33.75106
G1 X66.636 Y-31.898 E33.76962
G1 X66.759 Y-31.615 E33.78809
G1 X66.805 Y-31.285 E33.80804
G1 X66.805 Y-6.543 E35.2893
G1 X66.765 Y-6.236 E35.30783
G1 X66.648 Y-5.95 E35.32633
G1 X66.462 Y-5.703 E35.34484
G1 X66.219 Y-5.512 E35.36335
G1 X65.935 Y-5.389 E35.38188
G1 X65.605 Y-5.343 E35.40182
G1 X61.805 Y-5.343 E35.62932
G1 X61.805 Y26.257 E37.52116
G1 X65.605 Y26.257 E37.74866
G1 X65.912 Y26.297 E37.76719
G1 X66.198 Y26.414 E37.78569
G1 X66.445 Y26.6 E37.8042
G1 X66.636 Y26.843 E37.82271
G1 X66.759 Y27.127 E37.84124
G1 X66.805 Y27.457 E37.86118
G1 X66.805 Y52.206 E39.34286
G1 X66.765 Y52.513 E39.3614
G1 X66.648 Y52.799 E39.3799
G1 X66.462 Y53.046 E39.39841
G1 X66.219 Y53.237 E39.41691
G1 X65.935 Y53.36 E39.43544
G1 X65.605 Y53.406 E39.45539
G1 X54.014 Y53.406 E40.14932
G1 X53.51 Y53.375 E40.17955
G1 X52.905 Y53.266 E40.21636
G1 X52.329 Y53.087 E40.25247
G1 X51.767 Y52.829 E40.28949
G1 X51.249 Y52.506 E40.32604
G1 X50.777 Y52.119 E40.36258
G1 X50.356 Y51.674 E40.39925
G1 X49.995 Y51.179 E40.43593
G1 X49.701 Y50.644 E40.47248
G1 X49.477 Y50.074 E40.50914
G1 X49.445 Y49.969 E40.51572
G1 X21.112 Y28.745 E42.6351
G1 X19.947 Y28.105 E42.71468
G1 X18.716 Y27.489 E42.79709
G1 X17.409 Y26.899 E42.88294
G1 X16.089 Y26.36 E42.9683
G1 X14.801 Y25.896 E43.05026
G1 X13.478 Y25.473 E43.13342
G1 X12.141 Y25.103 E43.21647
G1 X10.726 Y24.768 E43.30352
G1 X9.389 Y24.508 E43.38507
G1 X8.004 Y24.293 E43.46898
G1 X6.604 Y24.13 E43.55336
G1 X5.222 Y24.023 E43.63635
G1 X3.82 Y23.969 E43.72034
G1 X2.422 Y23.969 E43.80404
G1 X1.018 Y24.023 E43.88816
G1 X-.363 Y24.13 E43.97108
G1 X-1.764 Y24.293 E44.05552
G1 X-3.141 Y24.507 E44.13895
G1 X-4.526 Y24.778 E44.22344
G1 X-5.857 Y25.091 E44.3053
G1 X-7.212 Y25.467 E44.38949
G1 X-8.586 Y25.904 E44.47581
G1 X-9.872 Y26.372 E44.55774
G1 X-11.186 Y26.906 E44.64265
G1 X-12.465 Y27.484 E44.72668
G1 X-13.695 Y28.099 E44.80901
G1 X-14.874 Y28.747 E44.88955
G1 X-43.204 Y49.969 E47.00872
G1 X-43.393 Y50.493 E47.04207
G1 X-43.664 Y51.032 E47.07819
G1 X-43.999 Y51.531 E47.11417
G1 X-44.399 Y51.987 E47.15048
G1 X-44.848 Y52.386 E47.18644
G1 X-45.35 Y52.73 E47.22288
G1 X-45.887 Y53.005 E47.259
G1 X-46.458 Y53.211 E47.29534
G1 X-47.045 Y53.344 E47.33137
G1 X-47.648 Y53.402 E47.36764
G1 X-48.25 Y53.384 E47.4037
G1 X-48.849 Y53.289 E47.44001
G1 X-49.424 Y53.125 E47.4758
G1 X-49.985 Y52.882 E47.5124
G1 X-50.504 Y52.574 E47.54853
G1 X-50.981 Y52.204 E47.58468
G1 X-51.409 Y51.773 E47.62104
G1 X-51.777 Y51.298 E47.65701
G1 X-52.084 Y50.779 E47.69311
G1 X-52.324 Y50.22 E47.72953
G1 X-52.49 Y49.642 E47.76554
G1 X-52.583 Y49.05 E47.80141
G1 X-52.6 Y48.44 E47.83795
G1 X-52.541 Y47.84 E47.87404
G1 X-52.406 Y47.249 E47.91034
G1 X-52.202 Y46.686 E47.94619
G1 X-51.926 Y46.149 E47.98233
G1 X-51.583 Y45.649 E48.01863
G1 X-51.179 Y45.196 E48.05497
G1 X-50.727 Y44.801 E48.09091
G1 X-50.226 Y44.464 E48.12706
G1 X-49.686 Y44.191 E48.16328
G1 X-49.112 Y43.99 E48.19969
G1 X-48.524 Y43.863 E48.23571
G1 X-47.92 Y43.81 E48.27201
G1 X-47.822 Y43.809 E48.27787
G1 X-24.844 Y26.596 E49.9967
G1 X-24.07 Y25.881 E50.05979
G1 X-23.319 Y25.114 E50.12405
G1 X-22.614 Y24.32 E50.18762
G1 X-21.943 Y23.481 E50.25194
G1 X-21.306 Y22.599 E50.31708
G1 X-20.721 Y21.696 E50.38149
G1 X-20.184 Y20.771 E50.44552
G1 X-19.7 Y19.828 E50.50898
G1 X-19.252 Y18.841 E50.57387
G1 X-18.851 Y17.822 E50.63943
G1 X-18.515 Y16.833 E50.70197
G1 X-18.219 Y15.784 E50.76722
G1 X-17.975 Y14.724 E50.83234
G1 X-17.792 Y13.676 E50.89603
G1 X-17.659 Y12.631 E50.9591
G1 X-17.577 Y11.546 E51.02424
G1 X-17.549 Y10.469 E51.08874
G1 X-17.575 Y9.4 E51.15276
G1 X-17.655 Y8.325 E51.21729
G1 X-17.789 Y7.253 E51.28197
G1 X-17.973 Y6.206 E51.34562
G1 X-18.21 Y5.17 E51.40924
G1 X-18.503 Y4.119 E51.47456
G1 X-18.849 Y3.086 E51.53978
G1 X-19.234 Y2.108 E51.60271
G1 X-19.685 Y1.102 E51.66871
G1 X-20.162 Y0.179 E51.73091
G1 X-20.701 Y-.754 E51.79542
G1 X-21.299 Y-1.678 E51.86131
G1 X-21.915 Y-2.536 E51.92455
G1 X-22.583 Y-3.374 E51.98871
G1 X-23.297 Y-4.183 E52.0533
G1 X-24.048 Y-4.95 E52.11757
G1 X-24.814 Y-5.66 E52.1801
G1 X-47.821 Y-22.895 E53.90111
G1 X-48.374 Y-22.929 E53.93428
G1 X-48.971 Y-23.04 E53.97063
G1 X-49.54 Y-23.219 E54.00634
G1 X-50.096 Y-23.477 E54.04304
G1 X-50.604 Y-23.796 E54.07895
G1 X-51.074 Y-24.182 E54.11536
G1 X-51.487 Y-24.617 E54.15127
G1 X-51.845 Y-25.105 E54.18751
G1 X-52.139 Y-25.636 E54.22384
G1 X-52.363 Y-26.196 E54.25995
G1 X-52.514 Y-26.774 E54.29572
G1 X-52.592 Y-27.377 E54.33212
G1 X-52.595 Y-27.978 E54.3681
G1 X-52.519 Y-28.585 E54.40472
G1 X-52.373 Y-29.163 E54.44042
G1 X-52.151 Y-29.728 E54.47676
G1 X-51.86 Y-30.258 E54.51296
G1 X-51.505 Y-30.748 E54.54918
G1 X-51.095 Y-31.186 E54.5851
G1 X-50.625 Y-31.576 E54.62166
G1 X-50.119 Y-31.898 E54.65757
G1 X-49.57 Y-32.156 E54.69389
G1 X-48.994 Y-32.342 E54.73012
G1 X-48.399 Y-32.454 E54.76637
G1 X-47.799 Y-32.492 E54.80236
G1 X-47.197 Y-32.453 E54.83848
G1 X-46.599 Y-32.337 E54.87495
G1 X-46.026 Y-32.149 E54.91105
G1 X-45.481 Y-31.89 E54.94718
G1 X-44.974 Y-31.568 E54.98314
G1 X-44.506 Y-31.178 E55.01961
G1 X-44.097 Y-30.74 E55.05548
G1 X-43.742 Y-30.248 E55.09181
G1 X-43.454 Y-29.717 E55.12797
G1 X-43.235 Y-29.157 E55.16397
G1 X-43.204 Y-29.056 E55.1703
G1 X-14.876 Y-7.835 E57.28933
G1 X-13.701 Y-7.19 E57.36958
G1 X-12.464 Y-6.57 E57.45242
G1 X-11.172 Y-5.986 E57.5373
G1 X-9.863 Y-5.452 E57.62194
G1 X-8.56 Y-4.983 E57.70485
G1 X-7.237 Y-4.56 E57.788
G1 X-5.9 Y-4.19 E57.87106
G1 X-4.487 Y-3.855 E57.95799
G1 X-3.15 Y-3.595 E58.03954
G1 X-1.763 Y-3.38 E58.12357
G1 X-.363 Y-3.217 E58.20795
G0 F3600 X-.431 Y-2.742
G1 F900 X1.012 Y-2.63 E58.2946
G1 X2.403 Y-2.576 E58.37794
G1 X3.837 Y-2.576 E58.46379
G1 X5.229 Y-2.63 E58.54719
G1 X6.672 Y-2.742 E58.63384
G1 X8.081 Y-2.905 E58.71875
G1 X9.455 Y-3.119 E58.80201
G1 X10.865 Y-3.395 E58.88802
G1 X12.211 Y-3.712 E58.97081
G1 X13.624 Y-4.104 E59.0586
G1 X14.963 Y-4.53 E59.14272
G1 X16.308 Y-5.019 E59.2284
G1 X17.601 Y-5.544 E59.31195
G1 X18.902 Y-6.134 E59.39747
G1 X20.187 Y-6.776 E59.48347
G1 X21.373 Y-7.427 E59.56447
G1 X49.87 Y-28.775 E61.69616
G1 X50.088 Y-29.422 E61.73703
G1 X50.342 Y-29.915 E61.77023
G1 X50.651 Y-30.364 E61.80287
G1 X51.022 Y-30.777 E61.8361
G1 X51.434 Y-31.133 E61.8687
G1 X51.896 Y-31.439 E61.90188
G1 X52.392 Y-31.683 E61.93497
G1 X52.912 Y-31.86 E61.96786
G1 X53.45 Y-31.971 E62.00074
G1 X53.994 Y-32.012 E62.0334
G1 X65.605 Y-32.005 E62.72853
G1 X65.841 Y-31.965 E62.74286
G1 X66.051 Y-31.85 E62.7572
G1 X66.212 Y-31.673 E62.77152
G1 X66.305 Y-31.453 E62.78582
G1 X66.325 Y-31.285 E62.79595
G1 X66.325 Y-6.543 E64.27721
G1 X66.285 Y-6.307 E64.29154
G1 X66.17 Y-6.097 E64.30588
G1 X65.993 Y-5.937 E64.32016
G1 X65.773 Y-5.843 E64.33448
G1 X65.605 Y-5.823 E64.34461
G1 X61.325 Y-5.823 E64.60085
G1 X61.325 Y26.737 E66.55016
G1 X65.605 Y26.737 E66.80639
G1 X65.841 Y26.777 E66.82073
G1 X66.051 Y26.892 E66.83506
G1 X66.211 Y27.069 E66.84934
G1 X66.305 Y27.289 E66.86367
G1 X66.325 Y27.457 E66.8738
G1 X66.325 Y52.206 E68.35547
G1 X66.285 Y52.442 E68.36981
G1 X66.17 Y52.652 E68.38414
G1 X65.993 Y52.812 E68.39842
G1 X65.773 Y52.906 E68.41275
G1 X65.605 Y52.926 E68.42288
G1 X54.014 Y52.926 E69.11681
G1 X53.45 Y52.884 E69.15067
G1 X52.912 Y52.773 E69.18355
G1 X52.392 Y52.596 E69.21644
G1 X51.895 Y52.352 E69.24959
G1 X51.436 Y52.048 E69.28255
G1 X51.022 Y51.69 E69.31531
G1 X50.651 Y51.277 E69.34855
G1 X50.339 Y50.824 E69.38148
G1 X50.088 Y50.335 E69.41439
G1 X49.9 Y49.816 E69.44744
G1 X49.87 Y49.688 E69.45531
G1 X21.368 Y28.337 E71.58735
G1 X20.182 Y27.686 E71.66834
G1 X18.913 Y27.051 E71.7533
G1 X17.609 Y26.462 E71.83896
G1 X16.249 Y25.907 E71.9269
G1 X14.975 Y25.448 E72.00797
G1 X13.623 Y25.016 E72.09294
G1 X12.247 Y24.635 E72.17842
G1 X10.83 Y24.299 E72.26561
G1 X9.455 Y24.032 E72.34946
G1 X8.08 Y23.818 E72.43277
G1 X6.672 Y23.655 E72.51763
G1 X5.229 Y23.543 E72.60428
G1 X3.838 Y23.489 E72.68762
G1 X2.404 Y23.489 E72.77347
G1 X1.012 Y23.543 E72.85687
G1 X-.431 Y23.655 E72.94352
G1 X-1.836 Y23.818 E73.0282
