; generated by Slic3r 1.2.9 on 2018-03-24 at 20:52:16

; external perimeters extrusion width = 0.40mm
; perimeters extrusion width = 0.67mm
; infill extrusion width = 0.67mm
; solid infill extrusion width = 0.67mm
; top infill extrusion width = 0.67mm

M107
M190 S65 ; set bed temperature
M104 S190 ; set temperature
G28 ; home all axes
G1 Z5 F5000 ; lift nozzle

M109 S190 ; wait for temperature to be reached
G21 ; set units to millimeters
G90 ; use absolute coordinates
M82 ; use absolute distances for extrusion
G92 E0
G1 Z0.400 F4800.000
G1 X0.000 Y22.142 F4800.000
G1 X-59.130 Y22.142 E6.32032 F1080.000
G1 X-61.643 Y21.745 E6.59229
G1 X-63.911 Y20.591 E6.86426
G1 X-65.712 Y18.794 E7.13623
G1 X-66.870 Y16.528 E7.40819
G1 X-67.272 Y14.000 E7.68183
G1 X-67.272 Y-14.000 E10.67471
G1 X-66.875 Y-16.513 E10.94668
G1 X-65.721 Y-18.781 E11.21865
G1 X-63.924 Y-20.582 E11.49062
G1 X-61.658 Y-21.740 E11.76259
G1 X-59.130 Y-22.142 E12.03622
G1 X55.870 Y-22.142 E24.32842
G1 X58.383 Y-21.745 E24.60039
G1 X60.651 Y-20.591 E24.87235 F1080.000
G1 X62.452 Y-18.794 E25.14432
G1 X63.615 Y-16.514 E25.41782
G1 X66.115 Y-8.814 E26.28315
G1 X66.925 Y-6.135 E26.58238
G1 X67.271 Y-3.614 E26.85435
G1 X66.821 Y-1.110 E27.12632
G1 X65.621 Y1.134 E27.39828
G1 X63.108 Y3.323 E27.75451
G1 X31.348 Y21.105 E31.64517
G1 X28.961 Y21.986 E31.91714
G1 X27.370 Y22.142 E32.08800
G1 X0.060 Y22.142 E35.00713
G1 X0.000 Y21.428 F4800.000
G1 X-59.130 Y21.428 E41.32746 F1080.000
G1 X-61.527 Y21.031 E41.58715
G1 X-63.667 Y19.882 E41.84684
G1 X-65.322 Y18.103 E42.10653
G1 X-66.315 Y15.886 E42.36622
G1 X-66.558 Y14.000 E42.56943
G1 X-66.558 Y-14.000 E45.56231
G1 X-66.161 Y-16.397 E45.82200
G1 X-65.012 Y-18.537 E46.08169
G1 X-63.233 Y-20.192 E46.34138
G1 X-61.015 Y-21.185 E46.60107
G1 X-59.130 Y-21.428 E46.80428
G1 X55.870 Y-21.428 E59.09648
G1 X58.267 Y-21.031 E59.35617
G1 X60.407 Y-19.882 E59.61586 F1080.000
G1 X62.062 Y-18.103 E59.87555
G1 X62.935 Y-16.294 E60.09025
G1 X65.435 Y-8.594 E60.95559
G1 X66.241 Y-5.929 E61.25323
G1 X66.554 Y-3.519 E61.51292
G1 X66.072 Y-1.138 E61.77261
G1 X64.847 Y0.960 E62.03230
G1 X62.759 Y2.699 E62.32277
G1 X30.999 Y20.482 E66.21343
G1 X28.714 Y21.306 E66.47312
G1 X27.370 Y21.428 E66.61732
G1 X0.060 Y21.428 E69.53645
G1 X0.000 Y20.714 F4800.000
G1 X-59.130 Y20.714 E75.85678 F1080.000
G1 X-61.405 Y20.317 E76.10358
G1 X-63.410 Y19.173 E76.35038
G1 X-64.910 Y17.417 E76.59718
G1 X-65.725 Y15.257 E76.84399
G1 X-65.844 Y14.000 E76.97896
G1 X-65.844 Y-14.000 E79.97184
G1 X-65.447 Y-16.275 E80.21864
G1 X-64.303 Y-18.280 E80.46544
G1 X-62.547 Y-19.780 E80.71224
G1 X-60.387 Y-20.595 E80.95905
G1 X-59.130 Y-20.714 E81.09402
G1 X55.870 Y-20.714 E93.38621
G1 X58.145 Y-20.317 E93.63301
G1 X60.150 Y-19.173 E93.87982 F1080.000
G1 X61.650 Y-17.417 E94.12662
G1 X62.256 Y-16.073 E94.28420
G1 X64.756 Y-8.373 E95.14954
G1 X65.558 Y-5.722 E95.44559
G1 X65.835 Y-3.430 E95.69239
G1 X65.319 Y-1.179 E95.93919
G1 X64.071 Y0.763 E96.18600
G1 X62.410 Y2.076 E96.41232
G1 X30.650 Y19.858 E100.30298
G1 X27.370 Y20.714 E100.66532
G1 X0.060 Y20.714 E103.58445
G1 E101.58445 F2400.00000
G92 E0
G1 X26.922 Y4.106 F4800.000
G1 E2.00000 F2400.00000
G1 X26.955 Y3.125 E2.10493 F270.000
G1 X27.204 Y2.255 E2.20165
G1 X27.694 Y1.440 E2.30333
G1 X28.378 Y0.779 E2.40502
G1 X29.210 Y0.317 E2.50670
G1 X30.088 Y0.099 E2.60343 F270.000
G1 X31.070 Y0.100 E2.70836
G1 X31.999 Y0.366 E2.81165
G1 X32.814 Y0.856 E2.91333
G1 X33.475 Y1.540 E3.01502
G1 X33.936 Y2.372 E3.11670
G1 X34.167 Y3.295 E3.21838
G1 X34.150 Y4.246 E3.32007
G1 X33.888 Y5.161 E3.42175
G1 X33.398 Y5.976 E3.52343
G1 X32.714 Y6.637 E3.62512
G1 X31.882 Y7.098 E3.72680
G1 X30.959 Y7.329 E3.82848
G1 X30.008 Y7.312 E3.93017
G1 X29.093 Y7.050 E4.03185
G1 X28.278 Y6.560 E4.13353
G1 X27.617 Y5.876 E4.23521
G1 X27.156 Y5.044 E4.33690
G1 X26.936 Y4.164 E4.43378
G1 X27.639 Y4.030 F4800.000
G1 X27.665 Y3.237 E4.51861 F270.000
G1 X27.865 Y2.542 E4.59586
G1 X28.258 Y1.888 E4.67745
G1 X28.807 Y1.358 E4.75903
G1 X29.474 Y0.988 E4.84061
G1 X30.176 Y0.813 E4.91787 F270.000
G1 X30.969 Y0.814 E5.00270
G1 X31.712 Y1.027 E5.08526
G1 X32.366 Y1.420 E5.16684
G1 X32.896 Y1.969 E5.24843
G1 X33.266 Y2.636 E5.33001
G1 X33.451 Y3.377 E5.41160
G1 X33.438 Y4.140 E5.49318
G1 X33.227 Y4.874 E5.57476
G1 X32.834 Y5.528 E5.65635
G1 X32.285 Y6.058 E5.73793
G1 X31.618 Y6.428 E5.81951
G1 X30.877 Y6.613 E5.90110
G1 X30.114 Y6.600 E5.98268
G1 X29.380 Y6.389 E6.06426
G1 X28.726 Y5.996 E6.14585
G1 X28.196 Y5.447 E6.22743
G1 X27.826 Y4.780 E6.30902
G1 X27.653 Y4.088 E6.38517
G1 X28.356 Y3.954 F4800.000
G1 X28.376 Y3.349 E6.44990 F270.000
G1 X28.525 Y2.829 E6.50768
G1 X28.821 Y2.336 E6.56916
G1 X29.235 Y1.937 E6.63065
G1 X29.738 Y1.658 E6.69213
G1 X30.263 Y1.527 E6.74991 F270.000
G1 X30.868 Y1.528 E6.81464
G1 X31.425 Y1.687 E6.87648
G1 X31.918 Y1.983 E6.93796
G1 X32.317 Y2.397 E6.99945
G1 X32.596 Y2.900 E7.06093
G1 X32.735 Y3.458 E7.12241
G1 X32.725 Y4.034 E7.18390
G1 X32.567 Y4.586 E7.24538
G1 X32.271 Y5.080 E7.30687
G1 X31.857 Y5.479 E7.36835
G1 X31.354 Y5.758 E7.42984
G1 X30.796 Y5.897 E7.49132
G1 X30.220 Y5.887 E7.55280
G1 X29.667 Y5.729 E7.61429
G1 X29.174 Y5.432 E7.67577
G1 X28.775 Y5.019 E7.73726
G1 X28.496 Y4.516 E7.79874
G1 X28.370 Y4.013 E7.85416
G1 X27.998 Y3.775 F4800.000
G1 E5.85416 F2400.00000
G92 E0
G1 X47.382 Y-5.709 F4800.000
G1 E2.00000 F2400.00000
G1 X47.017 Y-6.588 E2.10168 F270.000
G1 X46.893 Y-7.531 E2.20337
G1 X47.017 Y-8.474 E2.30505
G1 X47.134 Y-8.756 E2.33769
G1 X47.382 Y-9.353 E2.40673
G1 X47.961 Y-10.108 E2.50842
G1 X48.715 Y-10.687 E2.61010
G1 X49.594 Y-11.051 E2.71178
G1 X50.491 Y-11.169 E2.80851 F270.000
G1 X51.467 Y-11.057 E2.91343
G1 X52.359 Y-10.687 E3.01673
G1 X53.114 Y-10.108 E3.11841
G1 X53.693 Y-9.353 E3.22010
G1 X54.057 Y-8.474 E3.32178
G1 X54.181 Y-7.531 E3.42346
G1 X54.057 Y-6.588 E3.52515
G1 X53.693 Y-5.709 E3.62683
G1 X53.114 Y-4.954 E3.72851
G1 X52.359 Y-4.375 E3.83019
G1 X51.481 Y-4.011 E3.93188
G1 X50.537 Y-3.887 E4.03356
G1 X49.594 Y-4.011 E4.13524
G1 X48.758 Y-4.357 E4.23197
G1 X47.970 Y-4.942 E4.33690
G1 X47.418 Y-5.661 E4.43378
G1 X48.005 Y-6.069 F4800.000
G1 X47.713 Y-6.774 E4.51536 F270.000
G1 X47.614 Y-7.531 E4.59695
G1 X47.713 Y-8.288 E4.67853
G1 X47.794 Y-8.483 E4.70112
G1 X48.005 Y-8.993 E4.76012
G1 X48.470 Y-9.599 E4.84170
G1 X49.076 Y-10.063 E4.92328
G1 X49.781 Y-10.355 E5.00487
G1 X50.497 Y-10.450 E5.08212 F270.000
G1 X51.286 Y-10.359 E5.16695
G1 X51.999 Y-10.063 E5.24952
G1 X52.605 Y-9.599 E5.33110
G1 X53.069 Y-8.993 E5.41268
G1 X53.362 Y-8.288 E5.49427
G1 X53.461 Y-7.531 E5.57585
G1 X53.362 Y-6.774 E5.65743
G1 X53.069 Y-6.069 E5.73902
G1 X52.605 Y-5.464 E5.82060
G1 X51.999 Y-4.999 E5.90218
G1 X51.294 Y-4.707 E5.98377
G1 X50.537 Y-4.607 E6.06535
G1 X49.781 Y-4.707 E6.14693
G1 X49.113 Y-4.984 E6.22419
G1 X48.476 Y-5.456 E6.30902
G1 X48.042 Y-6.022 E6.38517
G1 X48.629 Y-6.429 F4800.000
G1 X48.409 Y-6.961 E6.44665 F270.000
G1 X48.334 Y-7.531 E6.50814
G1 X48.409 Y-8.101 E6.56962
G1 X48.454 Y-8.210 E6.58216
G1 X48.629 Y-8.633 E6.63111
G1 X48.979 Y-9.089 E6.69259
G1 X49.436 Y-9.439 E6.75407
G1 X49.967 Y-9.659 E6.81556
G1 X50.503 Y-9.730 E6.87334 F270.000
G1 X51.105 Y-9.661 E6.93807
G1 X51.639 Y-9.439 E6.99991
G1 X52.095 Y-9.089 E7.06139
G1 X52.446 Y-8.633 E7.12287
G1 X52.666 Y-8.101 E7.18436
G1 X52.741 Y-7.531 E7.24584
G1 X52.666 Y-6.961 E7.30732
G1 X52.446 Y-6.429 E7.36881
G1 X52.095 Y-5.973 E7.43029
G1 X51.639 Y-5.623 E7.49178
G1 X51.108 Y-5.403 E7.55326
G1 X50.537 Y-5.328 E7.61475
G1 X49.967 Y-5.403 E7.67623
G1 X49.468 Y-5.610 E7.73401
G1 X48.981 Y-5.970 E7.79874
G1 X48.666 Y-6.382 E7.85416
G1 X48.230 Y-6.447 F4800.000
G1 E5.85416 F2400.00000
G92 E0
G1 X54.541 Y-12.172 F4800.000
G1 E2.00000 F2400.00000
G1 X56.460 Y-6.264 E2.66394 F720.000
G1 X56.951 Y-4.657 E2.84349
G1 X26.893 Y12.172 E6.52561
G1 X-57.302 Y12.172 E15.52506
G1 X-57.302 Y-12.172 E18.12709
G1 X54.481 Y-12.172 E30.07543
G1 X55.060 Y-12.886 F4800.000
G1 X57.141 Y-6.478 E30.79550 F720.000
G1 X57.802 Y-4.315 E31.03726
G1 X27.079 Y12.886 E34.80083
G1 X-58.016 Y12.886 E43.89654
G1 X-58.016 Y-12.886 E46.65124
G1 X55.000 Y-12.886 E58.73139
G1 X55.579 Y-13.600 F4800.000
G1 X57.822 Y-6.693 E59.50759 F360.000
G1 X58.653 Y-3.974 E59.81155
G1 X27.266 Y13.600 E63.65659
G1 X-58.730 Y13.600 E72.84854
G1 X-58.730 Y-13.600 E75.75592
G1 X55.519 Y-13.600 E87.96787
G1 X55.456 Y-13.220 F4800.000
G1 X54.283 Y-11.382 F4800.000
G1 X53.929 Y-11.736 E88.05669 F360.000
G1 X52.955 Y-11.035 E88.26956
G1 X54.023 Y-9.967 E88.53736
G1 X54.457 Y-9.708 F4800.000
G1 X54.815 Y-8.737 E88.77198 F360.000
G1 X54.991 Y-7.994 E88.94513
G1 X55.612 Y-7.288 F4800.000
G1 X55.261 Y-7.639 E88.99852 F360.000
G1 X54.573 Y-7.310 E89.08058
G1 X56.097 Y-5.787 E89.31245
G1 X56.196 Y-4.671 E89.43296
G1 X54.420 Y-6.447 E89.70317
G1 X54.122 Y-5.728 E89.78690
G1 X55.544 Y-4.306 E90.00324
G1 X54.892 Y-3.941 E90.08362
G1 X53.713 Y-5.120 E90.26298
G1 X53.239 Y-4.578 E90.34052
G1 X54.240 Y-3.576 E90.49292
G1 X53.588 Y-3.211 E90.57330
G1 X52.663 Y-4.136 E90.71406
G1 X51.984 Y-3.799 E90.79567
G1 X52.937 Y-2.846 E90.94060
G1 X52.285 Y-2.481 E91.02098
G1 X51.211 Y-3.555 E91.18437
G1 X50.290 Y-3.459 E91.28397
G1 X51.633 Y-2.116 E91.48828
G1 X50.981 Y-1.752 E91.56866
G1 X49.037 Y-3.695 E91.86443
G1 X50.329 Y-1.387 F4800.000
G1 X39.980 Y-11.736 E93.43939 F360.000
G1 X40.996 Y-11.736 E93.54880
G1 X46.701 Y-6.031 E94.41695
G1 X46.465 Y-7.284 E94.55414
G1 X42.013 Y-11.736 E95.23164
G1 X43.030 Y-11.736 E95.34104
G1 X46.561 Y-8.205 E95.87844
G1 X46.805 Y-8.978 E95.96566
G1 X44.047 Y-11.736 E96.38540
G1 X45.063 Y-11.736 E96.49480
G1 X47.143 Y-9.657 E96.81119
G1 X47.584 Y-10.232 E96.88922
G1 X46.080 Y-11.736 E97.11806
G1 X47.097 Y-11.736 E97.22747
G1 X48.125 Y-10.708 E97.38386
G1 X38.963 Y-11.736 F4800.000
G1 X49.678 Y-1.022 E99.01435 F360.000
G1 X49.026 Y-0.657 E99.09473
G1 X37.946 Y-11.736 E100.78076
G1 X36.930 Y-11.736 E100.89017
G1 X48.374 Y-0.292 E102.63173
G1 X47.722 Y0.073 E102.71211
G1 X35.913 Y-11.736 E104.50921
G1 X34.896 Y-11.736 E104.61861
G1 X47.070 Y0.438 E106.47125
G1 X46.419 Y0.803 E106.55163
G1 X33.879 Y-11.736 E108.45980
G1 X32.863 Y-11.736 E108.56920
G1 X45.767 Y1.168 E110.53291
G1 X45.115 Y1.533 E110.61329
G1 X31.846 Y-11.736 E112.63253
G1 X30.829 Y-11.736 E112.74193
G1 X44.463 Y1.898 E114.81671
G1 X43.811 Y2.263 E114.89709
G1 X29.812 Y-11.736 E117.02740
G1 X28.796 Y-11.736 E117.13680
G1 X43.160 Y2.628 E119.32264
G1 X42.508 Y2.993 E119.40303
G1 X27.779 Y-11.736 E121.64440
G1 X26.762 Y-11.736 E121.75381
G1 X41.856 Y3.358 E124.05072
G1 X41.204 Y3.723 E124.13110
G1 X25.745 Y-11.736 E126.48355
G1 X24.729 Y-11.736 E126.59296
G1 X40.552 Y4.087 E129.00094
G1 X39.901 Y4.452 E129.08132
G1 X23.712 Y-11.736 E131.54484
G1 X22.695 Y-11.736 E131.65424
G1 X39.249 Y4.817 E134.17330
G1 X38.597 Y5.182 E134.25368
G1 X21.678 Y-11.736 E136.82827
G1 X20.662 Y-11.736 E136.93767
G1 X32.367 Y-0.031 E138.71889
G1 X31.045 Y-0.336 E138.86485
G1 X19.645 Y-11.736 E140.59967
G1 X18.628 Y-11.736 E140.70907
G1 X30.055 Y-0.309 E142.44801
G1 X29.242 Y-0.106 E142.53826
G1 X17.611 Y-11.736 E144.30809
G1 X16.595 Y-11.736 E144.41749
G1 X28.568 Y0.238 E146.23961
G1 X27.969 Y0.655 E146.31819
G1 X15.578 Y-11.736 E148.20387
G1 X14.561 Y-11.736 E148.31328
G1 X27.452 Y1.155 E150.27497
G1 X27.052 Y1.772 E150.35407
G1 X13.545 Y-11.736 E152.40962
G1 X12.528 Y-11.736 E152.51903
G1 X26.728 Y2.464 E154.68001
G1 X26.519 Y3.272 E154.76976
G1 X11.511 Y-11.736 E157.05361
G1 X10.494 Y-11.736 E157.16302
G1 X26.486 Y4.255 E159.59656
G1 X26.918 Y5.704 E159.75927
G1 X9.478 Y-11.736 E162.41331
G1 X8.461 Y-11.736 E162.52272
G1 X30.124 Y9.927 E165.81926
G1 X29.472 Y10.291 E165.89964
G1 X7.444 Y-11.736 E169.25172
G1 X6.427 Y-11.736 E169.36112
G1 X28.820 Y10.656 E172.76873
G1 X28.168 Y11.021 E172.84912
G1 X5.411 Y-11.736 E176.31226
G1 X4.394 Y-11.736 E176.42167
G1 X27.516 Y11.386 E179.94035
G1 X26.849 Y11.736 E180.02138
G1 X3.377 Y-11.736 E183.59331
G1 X2.360 Y-11.736 E183.70271
G1 X25.833 Y11.736 E187.27464
G1 X24.816 Y11.736 E187.38405
G1 X1.344 Y-11.736 E190.95597
G1 X0.327 Y-11.736 E191.06538
G1 X23.799 Y11.736 E194.63730
G1 X22.782 Y11.736 E194.74671
G1 X-0.690 Y-11.736 E198.31864
G1 X-1.707 Y-11.736 E198.42804
G1 X21.766 Y11.736 E201.99997
G1 X20.749 Y11.736 E202.10937
G1 X-2.723 Y-11.736 E205.68130
G1 X-3.740 Y-11.736 E205.79070
G1 X19.732 Y11.736 E209.36263
G1 X18.716 Y11.736 E209.47204
G1 X-4.757 Y-11.736 E213.04396
G1 X-5.774 Y-11.736 E213.15337
G1 X17.699 Y11.736 E216.72529
G1 X16.682 Y11.736 E216.83470
G1 X-6.790 Y-11.736 E220.40663
G1 X-7.807 Y-11.736 E220.51603
G1 X15.665 Y11.736 E224.08796
G1 X14.649 Y11.736 E224.19736
G1 X-8.824 Y-11.736 E227.76929
G1 X-9.840 Y-11.736 E227.87869
G1 X13.632 Y11.736 E231.45062
G1 X12.615 Y11.736 E231.56003
G1 X-10.857 Y-11.736 E235.13195
G1 X-11.874 Y-11.736 E235.24136
G1 X11.598 Y11.736 E238.81328
G1 X10.582 Y11.736 E238.92269
G1 X-12.891 Y-11.736 E242.49462
G1 X-13.907 Y-11.736 E242.60402
G1 X9.565 Y11.736 E246.17595
G1 X8.548 Y11.736 E246.28535
G1 X-14.924 Y-11.736 E249.85728
G1 X-15.941 Y-11.736 E249.96668
G1 X7.531 Y11.736 E253.53861
G1 X6.515 Y11.736 E253.64802
G1 X-16.958 Y-11.736 E257.21994
G1 X-17.974 Y-11.736 E257.32935
G1 X5.498 Y11.736 E260.90127
G1 X4.481 Y11.736 E261.01068
G1 X-18.991 Y-11.736 E264.58261
G1 X-20.008 Y-11.736 E264.69201
G1 X3.464 Y11.736 E268.26394
G1 X2.448 Y11.736 E268.37334
G1 X-21.025 Y-11.736 E271.94527
G1 X-22.041 Y-11.736 E272.05468
G1 X1.431 Y11.736 E275.62660
G1 X0.414 Y11.736 E275.73601
G1 X-23.058 Y-11.736 E279.30793
G1 X-24.075 Y-11.736 E279.41734
G1 X-0.603 Y11.736 E282.98926
G1 X-1.619 Y11.736 E283.09867
G1 X-25.092 Y-11.736 E286.67060
G1 X-26.108 Y-11.736 E286.78000
G1 X-2.636 Y11.736 E290.35193
G1 X-3.653 Y11.736 E290.46133
G1 X-27.125 Y-11.736 E294.03326
G1 X-28.142 Y-11.736 E294.14267
G1 X-4.669 Y11.736 E297.71459
G1 X-5.686 Y11.736 E297.82400
G1 X-29.159 Y-11.736 E301.39592
G1 X-30.175 Y-11.736 E301.50533
G1 X-6.703 Y11.736 E305.07725
G1 X-7.720 Y11.736 E305.18666
G1 X-31.192 Y-11.736 E308.75859
G1 X-32.209 Y-11.736 E308.86799
G1 X-8.736 Y11.736 E312.43992
G1 X-9.753 Y11.736 E312.54932
G1 X-33.225 Y-11.736 E316.12125
G1 X-34.242 Y-11.736 E316.23066
G1 X-10.770 Y11.736 E319.80258
G1 X-11.787 Y11.736 E319.91199
G1 X-35.259 Y-11.736 E323.48391
G1 X-36.276 Y-11.736 E323.59332
G1 X-12.803 Y11.736 E327.16524
G1 X-13.820 Y11.736 E327.27465
G1 X-37.292 Y-11.736 E330.84658
G1 X-38.309 Y-11.736 E330.95598
G1 X-14.837 Y11.736 E334.52791
G1 X-15.854 Y11.736 E334.63731
G1 X-39.326 Y-11.736 E338.20924
G1 X-40.343 Y-11.736 E338.31865
G1 X-16.870 Y11.736 E341.89057
G1 X-17.887 Y11.736 E341.99998
G1 X-41.359 Y-11.736 E345.57190
G1 X-42.376 Y-11.736 E345.68131
G1 X-18.904 Y11.736 E349.25324
G1 X-19.921 Y11.736 E349.36264
G1 X-43.393 Y-11.736 E352.93457
G1 X-44.410 Y-11.736 E353.04397
G1 X-20.937 Y11.736 E356.61590
G1 X-21.954 Y11.736 E356.72530
G1 X-45.426 Y-11.736 E360.29723
G1 X-46.443 Y-11.736 E360.40664
G1 X-22.971 Y11.736 E363.97856
G1 X-23.988 Y11.736 E364.08797
G1 X-47.460 Y-11.736 E367.65989
G1 X-48.477 Y-11.736 E367.76930
G1 X-25.004 Y11.736 E371.34123
G1 X-26.021 Y11.736 E371.45063
G1 X-49.493 Y-11.736 E375.02256
G1 X-50.510 Y-11.736 E375.13196
G1 X-27.038 Y11.736 E378.70389
G1 X-28.054 Y11.736 E378.81330
G1 X-51.527 Y-11.736 E382.38522
G1 X-52.544 Y-11.736 E382.49463
G1 X-29.071 Y11.736 E386.06655
G1 X-30.088 Y11.736 E386.17596
G1 X-53.560 Y-11.736 E389.74789
G1 X-54.577 Y-11.736 E389.85729
G1 X-31.105 Y11.736 E393.42922
G1 X-32.121 Y11.736 E393.53862
G1 X-55.594 Y-11.736 E397.11055
G1 X-56.611 Y-11.736 E397.21995
G1 X-33.138 Y11.736 E400.79188
G1 X-34.155 Y11.736 E400.90129
G1 X-56.866 Y-10.975 E404.35739
G1 X-56.866 Y-9.958 E404.46680
G1 X-35.172 Y11.736 E407.76818
G1 X-36.188 Y11.736 E407.87758
G1 X-56.866 Y-8.942 E411.02424
G1 X-56.866 Y-7.925 E411.13364
G1 X-37.205 Y11.736 E414.12558
G1 X-38.222 Y11.736 E414.23498
G1 X-56.866 Y-6.908 E417.07219
G1 X-56.866 Y-5.891 E417.18160
G1 X-39.239 Y11.736 E419.86409
G1 X-40.255 Y11.736 E419.97349
G1 X-56.866 Y-4.875 E422.50125
G1 X-56.866 Y-3.858 E422.61066
G1 X-41.272 Y11.736 E424.98370
