; generated by Slic3r 1.2.9 on 2018-08-10 at 21:04:02

; external perimeters extrusion width = 0.40mm
; perimeters extrusion width = 0.68mm
; infill extrusion width = 0.87mm
; solid infill extrusion width = 0.68mm
; top infill extrusion width = 0.68mm
; support material extrusion width = 0.40mm

M107
M190 S65 ; set bed temperature
M104 S190 ; set temperature
G28 ; home all axes
G1 Z5 F5000 ; lift nozzle

M109 S190 ; wait for temperature to be reached
G21 ; set units to millimeters
G90 ; use absolute coordinates
M82 ; use absolute distances for extrusion
G92 E0
G1 Z0.300 F4800.000
G1 X0.000 Y22.946 F4800.000
G1 X-25.225 Y22.946 E1.51665 F1080.000
G1 X-27.562 Y22.549 E1.65915
G1 X-29.636 Y21.402 E1.80164
G1 X-31.214 Y19.634 E1.94414
G1 X-32.120 Y17.444 E2.08664
G1 X-32.296 Y15.875 E2.18158
G1 X-32.296 Y-15.875 E4.09055
G1 X-31.899 Y-18.212 E4.23305
G1 X-30.752 Y-20.286 E4.37554
G1 X-28.984 Y-21.864 E4.51804
G1 X-26.794 Y-22.770 E4.66054
G1 X-25.225 Y-22.946 E4.75548
G1 X19.225 Y-22.946 E7.42804
G1 X21.562 Y-22.549 E7.57053
G1 X23.636 Y-21.402 E7.71303 F1080.000
G1 X25.214 Y-19.634 E7.85553
G1 X26.120 Y-17.444 E7.99802
G1 X26.296 Y-15.875 E8.09297
G1 X26.296 Y15.875 E10.00193
G1 X25.899 Y18.212 E10.14443
G1 X24.752 Y20.286 E10.28693
G1 X22.984 Y21.864 E10.42943
G1 X20.794 Y22.770 E10.57192
G1 X19.225 Y22.946 E10.66687
G1 X0.060 Y22.946 E11.81916
G1 X0.000 Y22.411 F4800.000
G1 X-25.225 Y22.411 E13.33581 F1080.000
G1 X-27.468 Y22.014 E13.47277
G1 X-29.438 Y20.871 E13.60972
G1 X-30.897 Y19.122 E13.74667
G1 X-31.761 Y15.875 E13.94866
G1 X-31.761 Y-15.875 E15.85763
G1 X-31.364 Y-18.118 E15.99458
G1 X-30.221 Y-20.088 E16.13153
G1 X-28.472 Y-21.547 E16.26849
G1 X-25.225 Y-22.411 E16.47047
G1 X19.225 Y-22.411 E19.14303
G1 X21.468 Y-22.014 E19.27998
G1 X23.438 Y-20.871 E19.41693 F1080.000
G1 X24.897 Y-19.122 E19.55389
G1 X25.761 Y-15.875 E19.75587
G1 X25.761 Y15.875 E21.66484
G1 X25.364 Y18.118 E21.80179
G1 X24.221 Y20.088 E21.93875
G1 X22.472 Y21.547 E22.07570
G1 X19.225 Y22.411 E22.27769
G1 X0.060 Y22.411 E23.42998
G1 E21.42998 F2400.00000
G92 E0
G1 X-23.854 Y14.504 F4800.000
G1 E2.00000 F2400.00000
G1 X-23.854 Y-14.504 E3.74407 F720.000
G1 X17.854 Y-14.504 E6.25173
G1 X17.854 Y14.504 E7.99581
G1 X-23.794 Y14.504 E10.49986
G1 X-24.389 Y15.039 F4800.000
G1 X-24.389 Y-15.039 E12.30834 F720.000
G1 X18.389 Y-15.039 E14.88041
G1 X18.389 Y15.039 E16.68889
G1 X-24.329 Y15.039 E19.25735
G1 X-24.925 Y15.575 F4800.000
G1 X-24.925 Y-15.575 E21.13024 F360.000
G1 X18.925 Y-15.575 E23.76671
G1 X18.925 Y15.575 E25.63960
G1 X-24.865 Y15.575 E28.27247
G1 X-24.725 Y15.229 F4800.000
G1 X-23.532 Y13.915 F4800.000
G1 X-23.265 Y14.182 E28.29543 F360.000
G1 X-22.499 Y14.182 E28.34194
G1 X-23.532 Y13.149 E28.43068
G1 X-23.532 Y12.384 E28.47719
G1 X-21.734 Y14.182 E28.63170
G1 X-20.968 Y14.182 E28.67821
G1 X-23.532 Y11.618 E28.89851
G1 X-23.532 Y10.853 E28.94502
G1 X-20.203 Y14.182 E29.23108
G1 X-19.437 Y14.182 E29.27760
G1 X-23.532 Y10.087 E29.62944
G1 X-23.532 Y9.322 E29.67595
G1 X-18.672 Y14.182 E30.09358
G1 X-17.907 Y14.182 E30.14009
G1 X-23.532 Y8.557 E30.62349
G1 X-23.532 Y7.791 E30.67000
G1 X-17.141 Y14.182 E31.21918
G1 X-16.376 Y14.182 E31.26569
G1 X-23.532 Y7.026 E31.88064
G1 X-23.532 Y6.260 E31.92716
G1 X-15.610 Y14.182 E32.60789
G1 X-14.845 Y14.182 E32.65440
G1 X-23.532 Y5.495 E33.40091
G1 X-23.532 Y4.729 E33.44742
G1 X-14.079 Y14.182 E34.25971
G1 X-13.314 Y14.182 E34.30622
G1 X-23.532 Y3.964 E35.18428
G1 X-23.532 Y3.198 E35.23080
G1 X-12.548 Y14.182 E36.17464
G1 X-11.783 Y14.182 E36.22115
G1 X-23.532 Y2.433 E37.23077
G1 X-23.532 Y1.667 E37.27728
G1 X-11.017 Y14.182 E38.35268
G1 X-10.252 Y14.182 E38.39919
G1 X-23.532 Y0.902 E39.54036
G1 X-23.532 Y0.136 E39.58687
G1 X-9.486 Y14.182 E40.79383
G1 X-8.721 Y14.182 E40.84034
G1 X-23.532 Y-0.629 E42.11307
G1 X-23.532 Y-1.395 E42.15958
G1 X-7.955 Y14.182 E43.49808
G1 X-7.190 Y14.182 E43.54460
G1 X-23.532 Y-2.160 E44.94888
G1 X-23.532 Y-2.926 E44.99539
G1 X-6.424 Y14.182 E46.46545
G1 X-5.659 Y14.182 E46.51196
G1 X-23.532 Y-3.691 E48.04780
G1 X-23.532 Y-4.457 E48.09431
G1 X-4.893 Y14.182 E49.69593
G1 X-4.128 Y14.182 E49.74244
G1 X-23.532 Y-5.222 E51.40983
G1 X-23.532 Y-5.988 E51.45635
G1 X-3.362 Y14.182 E53.18952
G1 X-2.597 Y14.182 E53.23603
G1 X-23.532 Y-6.753 E55.03498
G1 X-23.532 Y-7.519 E55.08149
G1 X-1.831 Y14.182 E56.94621
G1 X-1.066 Y14.182 E56.99272
G1 X-23.532 Y-8.284 E58.92323
G1 X-23.532 Y-9.050 E58.96974
G1 X-0.300 Y14.182 E60.96602
G1 X0.465 Y14.182 E61.01253
G1 X-23.532 Y-9.815 E63.07459
G1 X-23.532 Y-10.581 E63.12110
G1 X1.231 Y14.182 E65.24893
G1 X1.996 Y14.182 E65.29545
G1 X-23.532 Y-11.346 E67.48906
G1 X-23.532 Y-12.112 E67.53557
G1 X2.762 Y14.182 E69.79496
G1 X3.527 Y14.182 E69.84147
G1 X-23.532 Y-12.877 E72.16664
G1 X-23.532 Y-13.643 E72.21315
G1 X4.293 Y14.182 E74.60409
G1 X5.058 Y14.182 E74.65061
G1 X-23.306 Y-14.182 E77.08790
G1 X-22.541 Y-14.182 E77.13441
G1 X5.824 Y14.182 E79.57171
G1 X6.589 Y14.182 E79.61822
G1 X-21.775 Y-14.182 E82.05552
G1 X-21.010 Y-14.182 E82.10203
G1 X7.355 Y14.182 E84.53933
G1 X8.120 Y14.182 E84.58584
G1 X-20.244 Y-14.182 E87.02314
G1 X-19.479 Y-14.182 E87.06965
G1 X8.886 Y14.182 E89.50695
G1 X9.651 Y14.182 E89.55346
G1 X-18.713 Y-14.182 E91.99076
G1 X-17.948 Y-14.182 E92.03727
G1 X10.417 Y14.182 E94.47457
G1 X11.182 Y14.182 E94.52108
G1 X-17.182 Y-14.182 E96.95838
G1 X-16.417 Y-14.182 E97.00489
G1 X11.948 Y14.182 E99.44219
G1 X12.713 Y14.182 E99.48870
G1 X-15.651 Y-14.182 E101.92600
G1 X-14.886 Y-14.182 E101.97251
G1 X13.479 Y14.182 E104.40981
G1 X14.244 Y14.182 E104.45632
G1 X-14.120 Y-14.182 E106.89362
G1 X-13.355 Y-14.182 E106.94013
G1 X15.010 Y14.182 E109.37743
G1 X15.775 Y14.182 E109.42394
G1 X-12.589 Y-14.182 E111.86124
G1 X-11.824 Y-14.182 E111.90775
G1 X16.541 Y14.182 E114.34505
G1 X17.306 Y14.182 E114.39156
G1 X-11.058 Y-14.182 E116.82886
G1 X-10.293 Y-14.182 E116.87537
G1 X17.532 Y13.643 E119.26632
G1 X17.532 Y12.877 E119.31283
G1 X-9.527 Y-14.182 E121.63800
G1 X-8.762 Y-14.182 E121.68451
G1 X17.532 Y12.112 E123.94391
G1 X17.532 Y11.346 E123.99042
G1 X-7.996 Y-14.182 E126.18404
G1 X-7.231 Y-14.182 E126.23055
G1 X17.532 Y10.581 E128.35839
G1 X17.532 Y9.815 E128.40490
G1 X-6.465 Y-14.182 E130.46697
G1 X-5.700 Y-14.182 E130.51348
G1 X17.532 Y9.050 E132.50976
G1 X17.532 Y8.284 E132.55628
G1 X-4.934 Y-14.182 E134.48678
G1 X-4.169 Y-14.182 E134.53330
G1 X17.532 Y7.519 E136.39803
G1 X17.532 Y6.753 E136.44454
G1 X-3.403 Y-14.182 E138.24349
G1 X-2.638 Y-14.182 E138.29000
G1 X17.532 Y5.988 E140.02318
G1 X17.532 Y5.222 E140.06969
G1 X-1.872 Y-14.182 E141.73709
G1 X-1.107 Y-14.182 E141.78360
G1 X17.532 Y4.457 E143.38522
G1 X17.532 Y3.691 E143.43174
G1 X-0.341 Y-14.182 E144.96758
G1 X0.424 Y-14.182 E145.01409
G1 X17.532 Y2.926 E146.48416
G1 X17.532 Y2.160 E146.53067
G1 X1.190 Y-14.182 E147.93496
G1 X1.955 Y-14.182 E147.98147
G1 X17.532 Y1.395 E149.31998
G1 X17.532 Y0.629 E149.36649
G1 X2.721 Y-14.182 E150.63923
G1 X3.486 Y-14.182 E150.68574
G1 X17.532 Y-0.136 E151.89270
G1 X17.532 Y-0.902 E151.93921
G1 X4.252 Y-14.182 E153.08039
G1 X5.017 Y-14.182 E153.12690
G1 X17.532 Y-1.667 E154.20230
G1 X17.532 Y-2.433 E154.24881
G1 X5.783 Y-14.182 E155.25844
G1 X6.548 Y-14.182 E155.30495
G1 X17.532 Y-3.198 E156.24880
G1 X17.532 Y-3.964 E156.29531
G1 X7.314 Y-14.182 E157.17338
G1 X8.079 Y-14.182 E157.21989
G1 X17.532 Y-4.729 E158.03218
G1 X17.532 Y-5.494 E158.07870
G1 X8.844 Y-14.182 E158.82521
G1 X9.610 Y-14.182 E158.87172
G1 X17.532 Y-6.260 E159.55246
G1 X17.532 Y-7.025 E159.59897
G1 X10.375 Y-14.182 E160.21393
G1 X11.141 Y-14.182 E160.26044
G1 X17.532 Y-7.791 E160.80963
G1 X17.532 Y-8.556 E160.85614
G1 X11.906 Y-14.182 E161.33955
G1 X12.672 Y-14.182 E161.38606
G1 X17.532 Y-9.322 E161.80369
G1 X17.532 Y-10.087 E161.85020
G1 X13.437 Y-14.182 E162.20205
G1 X14.203 Y-14.182 E162.24856
G1 X17.532 Y-10.853 E162.53463
G1 X17.532 Y-11.618 E162.58114
G1 X14.968 Y-14.182 E162.80144
G1 X15.734 Y-14.182 E162.84795
G1 X17.532 Y-12.384 E163.00247
G1 X17.532 Y-13.149 E163.04898
G1 X16.499 Y-14.182 E163.13772
G1 X17.265 Y-14.182 E163.18424
G1 X17.532 Y-13.915 E163.20720
G1 Z0.300 F4800.000
M104 S185 ; set temperature
M140 S60 ; wait for bed temperature to be reached
G1 Z0.450 F4800.000
G1 X-23.869 Y14.519 F4800.000
G1 X-23.869 Y-14.519 E164.26303 F2400.000
G1 X17.869 Y-14.519 E165.78062
G1 X17.869 Y14.519 E166.83645
G1 X-23.809 Y14.519 E168.35186
G1 X-24.517 Y15.167 F4800.000
G1 X-24.517 Y-15.167 E169.45479 F2400.000
G1 X18.517 Y-15.167 E171.01949
G1 X18.517 Y15.167 E172.12243
G1 X-24.457 Y15.167 E173.68495
G1 X-25.025 Y15.675 F4800.000
G1 X-25.025 Y-15.675 E174.33213 F1200.000
G1 X19.025 Y-15.675 E175.24149
G1 X19.025 Y15.675 E175.88868
G1 X-24.965 Y15.675 E176.79680
G1 X-24.825 Y15.329 F4800.000
G1 X-23.161 Y-14.126 F4800.000
G1 X-23.476 Y-13.811 E176.81317 F1200.000
G1 X-23.476 Y-12.885 E176.84726
G1 X-22.235 Y-14.126 E176.91183
G1 X-21.308 Y-14.126 E176.94591
G1 X-23.476 Y-11.958 E177.05868
G1 X-23.476 Y-11.031 E177.09276
G1 X-20.381 Y-14.126 E177.25373
G1 X-19.455 Y-14.126 E177.28781
G1 X-23.476 Y-10.105 E177.49698
G1 X-23.476 Y-9.178 E177.53106
G1 X-18.528 Y-14.126 E177.78843
G1 X-17.601 Y-14.126 E177.82251
G1 X-23.476 Y-8.251 E178.12807
G1 X-23.476 Y-7.325 E178.16215
G1 X-16.675 Y-14.126 E178.51592
G1 X-15.748 Y-14.126 E178.55000
G1 X-23.476 Y-6.398 E178.95196
G1 X-23.476 Y-5.471 E178.98604
G1 X-14.821 Y-14.126 E179.43621
G1 X-13.895 Y-14.126 E179.47029
G1 X-23.476 Y-4.545 E179.96865
G1 X-23.476 Y-3.618 E180.00273
G1 X-12.968 Y-14.126 E180.54929
G1 X-12.041 Y-14.126 E180.58337
G1 X-23.476 Y-2.691 E181.17813
G1 X-23.476 Y-1.764 E181.21221
G1 X-11.114 Y-14.126 E181.85517
G1 X-10.188 Y-14.126 E181.88925
G1 X-23.476 Y-0.838 E182.58041
G1 X-23.476 Y0.089 E182.61449
G1 X-9.261 Y-14.126 E183.35385
G1 X-8.334 Y-14.126 E183.38793
G1 X-23.476 Y1.016 E184.17549
G1 X-23.476 Y1.942 E184.20957
G1 X-7.408 Y-14.126 E185.04532
G1 X-6.481 Y-14.126 E185.07940
G1 X-23.476 Y2.869 E185.96336
G1 X-23.476 Y3.796 E185.99744
G1 X-5.554 Y-14.126 E186.92959
G1 X-4.628 Y-14.126 E186.96367
G1 X-23.476 Y4.722 E187.94402
G1 X-23.476 Y5.649 E187.97810
G1 X-3.701 Y-14.126 E189.00665
G1 X-2.774 Y-14.126 E189.04073
G1 X-23.476 Y6.576 E190.11748
G1 X-23.476 Y7.502 E190.15156
G1 X-1.848 Y-14.126 E191.27651
G1 X-0.921 Y-14.126 E191.31059
G1 X-23.476 Y8.429 E192.48374
G1 X-23.476 Y9.356 E192.51782
G1 X0.006 Y-14.126 E193.73917
G1 X0.933 Y-14.126 E193.77325
G1 X-23.476 Y10.283 E195.04279
G1 X-23.476 Y11.209 E195.07688
G1 X1.859 Y-14.126 E196.39462
G1 X2.786 Y-14.126 E196.42870
G1 X-23.476 Y12.136 E197.79464
G1 X-23.476 Y13.063 E197.82873
G1 X3.713 Y-14.126 E199.24287
G1 X4.639 Y-14.126 E199.27695
G1 X-23.476 Y13.989 E200.73929
G1 X-22.686 Y14.126 E200.76877
G1 X5.566 Y-14.126 E202.23823
G1 X6.493 Y-14.126 E202.27231
G1 X-21.760 Y14.126 E203.74177
G1 X-20.833 Y14.126 E203.77585
G1 X7.419 Y-14.126 E205.24531
G1 X8.346 Y-14.126 E205.27939
G1 X-19.906 Y14.126 E206.74885
G1 X-18.980 Y14.126 E206.78293
G1 X9.273 Y-14.126 E208.25239
G1 X10.199 Y-14.126 E208.28648
G1 X-18.053 Y14.126 E209.75594
G1 X-17.126 Y14.126 E209.79002
G1 X11.126 Y-14.126 E211.25948
G1 X12.053 Y-14.126 E211.29356
G1 X-16.200 Y14.126 E212.76302
G1 X-15.273 Y14.126 E212.79710
G1 X12.980 Y-14.126 E214.26656
G1 X13.906 Y-14.126 E214.30064
G1 X-14.346 Y14.126 E215.77010
G1 X-13.419 Y14.126 E215.80418
G1 X14.833 Y-14.126 E217.27364
G1 X15.760 Y-14.126 E217.30772
G1 X-12.493 Y14.126 E218.77718
G1 X-11.566 Y14.126 E218.81126
G1 X16.686 Y-14.126 E220.28072
G1 X17.476 Y-13.989 E220.31021
G1 X-10.639 Y14.126 E221.77255
G1 X-9.713 Y14.126 E221.80663
G1 X17.476 Y-13.063 E223.22078
G1 X17.476 Y-12.136 E223.25486
G1 X-8.786 Y14.126 E224.62081
G1 X-7.859 Y14.126 E224.65489
G1 X17.476 Y-11.209 E225.97264
G1 X17.476 Y-10.283 E226.00672
G1 X-6.933 Y14.126 E227.27627
G1 X-6.006 Y14.126 E227.31035
G1 X17.476 Y-9.356 E228.53170
G1 X17.476 Y-8.429 E228.56578
G1 X-5.079 Y14.126 E229.73893
G1 X-4.153 Y14.126 E229.77301
G1 X17.476 Y-7.503 E230.89796
G1 X17.476 Y-6.576 E230.93204
G1 X-3.226 Y14.126 E232.00880
G1 X-2.299 Y14.126 E232.04288
G1 X17.476 Y-5.649 E233.07143
G1 X17.476 Y-4.722 E233.10551
G1 X-1.372 Y14.126 E234.08587
G1 X-0.446 Y14.126 E234.11995
G1 X17.476 Y-3.796 E235.05211
G1 X17.476 Y-2.869 E235.08619
G1 X0.481 Y14.126 E235.97015
G1 X1.408 Y14.126 E236.00423
G1 X17.476 Y-1.942 E236.83999
G1 X17.476 Y-1.016 E236.87407
G1 X2.334 Y14.126 E237.66163
G1 X3.261 Y14.126 E237.69571
G1 X17.476 Y-0.089 E238.43507
G1 X17.476 Y0.838 E238.46915
G1 X4.188 Y14.126 E239.16031
G1 X5.114 Y14.126 E239.19439
G1 X17.476 Y1.764 E239.83735
G1 X17.476 Y2.691 E239.87144
G1 X6.041 Y14.126 E240.46620
G1 X6.968 Y14.126 E240.50028
G1 X17.476 Y3.618 E241.04685
G1 X17.476 Y4.544 E241.08093
G1 X7.894 Y14.126 E241.57929
G1 X8.821 Y14.126 E241.61337
G1 X17.476 Y5.471 E242.06354
G1 X17.476 Y6.398 E242.09762
G1 X9.748 Y14.126 E242.49959
G1 X10.675 Y14.126 E242.53367
G1 X17.476 Y7.325 E242.88744
G1 X17.476 Y8.251 E242.92152
G1 X11.601 Y14.126 E243.22709
G1 X12.528 Y14.126 E243.26117
G1 X17.476 Y9.178 E243.51854
G1 X17.476 Y10.105 E243.55262
G1 X13.455 Y14.126 E243.76180
G1 X14.381 Y14.126 E243.79588
G1 X17.476 Y11.031 E243.95685
G1 X17.476 Y11.958 E243.99093
G1 X15.308 Y14.126 E244.10371
G1 X16.235 Y14.126 E244.13779
G1 X17.476 Y12.885 E244.20236
G1 X17.476 Y13.811 E244.23644
G1 X17.161 Y14.126 E244.25282
G1 Z0.600 F4800.000
G1 X-23.869 Y14.519 F4800.000
G1 X-23.869 Y-14.519 E245.30865 F2400.000
G1 X17.869 Y-14.519 E246.82624
G1 X17.869 Y14.519 E247.88207
G1 X-23.809 Y14.519 E249.39748
G1 X-24.517 Y15.167 F4800.000
G1 X-24.517 Y-15.167 E250.50041 F2400.000
G1 X18.517 Y-15.167 E252.06511
G1 X18.517 Y15.167 E253.16805
G1 X-24.457 Y15.167 E254.73057
G1 X-25.025 Y15.675 F4800.000
G1 X-25.025 Y-15.675 E255.37775 F1200.000
G1 X19.025 Y-15.675 E256.28711
G1 X19.025 Y15.675 E256.93430
G1 X-24.965 Y15.675 E257.84242
G1 X-24.825 Y15.329 F4800.000
G1 X-23.476 Y13.811 F4800.000
G1 X-23.161 Y14.126 E257.85879 F1200.000
G1 X-22.235 Y14.126 E257.89288
G1 X-23.476 Y12.885 E257.95745
G1 X-23.476 Y11.958 E257.99153
G1 X-21.308 Y14.126 E258.10430
G1 X-20.381 Y14.126 E258.13838
G1 X-23.476 Y11.031 E258.29935
G1 X-23.476 Y10.105 E258.33343
G1 X-19.455 Y14.126 E258.54260
G1 X-18.528 Y14.126 E258.57668
G1 X-23.476 Y9.178 E258.83404
G1 X-23.476 Y8.251 E258.86813
G1 X-17.601 Y14.126 E259.17369
G1 X-16.675 Y14.126 E259.20777
G1 X-23.476 Y7.325 E259.56154
G1 X-23.476 Y6.398 E259.59562
G1 X-15.748 Y14.126 E259.99758
G1 X-14.821 Y14.126 E260.03166
G1 X-23.476 Y5.471 E260.48183
G1 X-23.476 Y4.545 E260.51591
G1 X-13.895 Y14.126 E261.01427
G1 X-12.968 Y14.126 E261.04835
G1 X-23.476 Y3.618 E261.59491
G1 X-23.476 Y2.691 E261.62899
G1 X-12.041 Y14.126 E262.22375
G1 X-11.114 Y14.126 E262.25783
G1 X-23.476 Y1.764 E262.90079
G1 X-23.476 Y0.838 E262.93487
G1 X-10.188 Y14.126 E263.62603
G1 X-9.261 Y14.126 E263.66011
G1 X-23.476 Y-0.089 E264.39947
G1 X-23.476 Y-1.016 E264.43355
G1 X-8.334 Y14.126 E265.22110
G1 X-7.408 Y14.126 E265.25519
G1 X-23.476 Y-1.942 E266.09094
G1 X-23.476 Y-2.869 E266.12502
G1 X-6.481 Y14.126 E267.00897
G1 X-5.554 Y14.126 E267.04306
G1 X-23.476 Y-3.796 E267.97521
G1 X-23.476 Y-4.722 E268.00929
G1 X-4.628 Y14.126 E268.98964
G1 X-3.701 Y14.126 E269.02372
G1 X-23.476 Y-5.649 E270.05227
G1 X-23.476 Y-6.576 E270.08635
G1 X-2.774 Y14.126 E271.16310
G1 X-1.848 Y14.126 E271.19718
G1 X-23.476 Y-7.502 E272.32213
G1 X-23.476 Y-8.429 E272.35621
G1 X-0.921 Y14.126 E273.52936
G1 X0.006 Y14.126 E273.56344
G1 X-23.476 Y-9.356 E274.78479
G1 X-23.476 Y-10.283 E274.81887
G1 X0.933 Y14.126 E276.08841
G1 X1.859 Y14.126 E276.12250
G1 X-23.476 Y-11.209 E277.44024
G1 X-23.476 Y-12.136 E277.47432
G1 X2.786 Y14.126 E278.84026
G1 X3.713 Y14.126 E278.87434
G1 X-23.476 Y-13.063 E280.28849
G1 X-23.476 Y-13.989 E280.32257
G1 X4.639 Y14.126 E281.78491
G1 X5.566 Y14.126 E281.81899
G1 X-22.686 Y-14.126 E283.28845
G1 X-21.760 Y-14.126 E283.32253
G1 X6.493 Y14.126 E284.79199
G1 X7.419 Y14.126 E284.82607
G1 X-20.833 Y-14.126 E286.29553
G1 X-19.906 Y-14.126 E286.32961
G1 X8.346 Y14.126 E287.79907
G1 X9.273 Y14.126 E287.83315
