;FLAVOR:Marlin
;TIME:1665
;Filament used: 0.924951m
;Layer height: 0.2
;MINX:-21.4
;MINY:-12.723
;MINZ:0.3
;MAXX:21.4
;MAXY:14.35
;MAXZ:11.1
;Generated with Cura_SteamEngine 4.13.1
M140 S65
M105
M190 S65
M104 S200
M105
M109 S200
M82 ;absolute extrusion mode
M190 S65 ; set bed temperature
M104 S190 ; set temperature
G28 ; home all axes
G1 Z100 F9000
M109 S190 ; wait for temperature to be reached
G21 ; set units to millimeters
G90 ; use absolute coordinates
M82 ; use absolute distances for extrusion
G92 E0

G1 Z0.300 F4800.000
G1 X0.000 Y70.000 F4800.000
G1 X40.000 Y50.000 E10.000 F1080.000

G1 Z5 F5000 ; lift nozzle
G92 E0
G92 E0
G1 F750 E-6.5
;LAYER_COUNT:56
;LAYER:0
M107
G0 F3600 X-5.21 Y-5.471 Z0.3
;TYPE:SKIRT
G1 F750 E0
G1 F900 X-5.21 Y5.65 E0.66579
G1 X5.21 Y5.65 E1.28962
G1 X5.21 Y-5.472 E1.95548
G1 X5.25 Y-5.779 E1.97401
G1 X5.367 Y-6.065 E1.99251
G1 X5.553 Y-6.312 E2.01102
G1 X5.796 Y-6.503 E2.02953
G1 X6.08 Y-6.626 E2.04806
G1 X6.41 Y-6.672 E2.068
G1 X20.2 Y-6.671 E2.89359
G1 X20.507 Y-6.631 E2.91212
G1 X20.793 Y-6.514 E2.93062
G1 X21.04 Y-6.328 E2.94913
G1 X21.231 Y-6.085 E2.96764
G1 X21.354 Y-5.801 E2.98616
G1 X21.4 Y-5.471 E3.00611
G1 X21.4 Y13.15 E4.12092
G1 X21.36 Y13.457 E4.13945
G1 X21.243 Y13.743 E4.15795
G1 X21.057 Y13.99 E4.17646
G1 X20.814 Y14.181 E4.19497
G1 X20.53 Y14.304 E4.2135
G1 X20.2 Y14.35 E4.23344
G1 X-20.2 Y14.35 E6.65212
G1 X-20.507 Y14.31 E6.67066
G1 X-20.793 Y14.193 E6.68916
G1 X-21.04 Y14.007 E6.70767
G1 X-21.231 Y13.764 E6.72617
G1 X-21.354 Y13.48 E6.7447
G1 X-21.4 Y13.15 E6.76465
G1 X-21.4 Y-5.471 E7.87945
G1 X-21.36 Y-5.778 E7.89799
G1 X-21.243 Y-6.064 E7.91649
G1 X-21.057 Y-6.311 E7.935
G1 X-20.814 Y-6.502 E7.9535
G1 X-20.53 Y-6.625 E7.97203
G1 X-20.2 Y-6.671 E7.99198
G1 X-6.41 Y-6.671 E8.81756
G1 X-6.103 Y-6.631 E8.8361
G1 X-5.817 Y-6.514 E8.8546
G1 X-5.57 Y-6.328 E8.87311
G1 X-5.379 Y-6.085 E8.89161
G1 X-5.256 Y-5.801 E8.91014
G1 X-5.21 Y-5.471 E8.93009
G0 F3600 X-5.69 Y-5.471
G1 F900 X-5.69 Y6.13 E9.62462
G1 X5.69 Y6.13 E10.30592
G1 X5.69 Y-5.472 E11.00051
G1 X5.73 Y-5.708 E11.01484
G1 X5.845 Y-5.918 E11.02918
G1 X6.022 Y-6.078 E11.04346
G1 X6.242 Y-6.172 E11.05778
G1 X6.41 Y-6.192 E11.06791
G1 X20.2 Y-6.191 E11.8935
G1 X20.436 Y-6.151 E11.90783
G1 X20.646 Y-6.036 E11.92216
G1 X20.806 Y-5.859 E11.93645
G1 X20.9 Y-5.639 E11.95077
G1 X20.92 Y-5.471 E11.9609
G1 X20.92 Y13.15 E13.0757
G1 X20.88 Y13.386 E13.09003
G1 X20.765 Y13.596 E13.10437
G1 X20.588 Y13.756 E13.11865
G1 X20.368 Y13.85 E13.13298
G1 X20.2 Y13.87 E13.1431
G1 X-20.2 Y13.87 E15.56178
G1 X-20.436 Y13.83 E15.57611
G1 X-20.646 Y13.715 E15.59045
G1 X-20.806 Y13.538 E15.60473
G1 X-20.9 Y13.318 E15.61905
G1 X-20.92 Y13.15 E15.62918
G1 X-20.92 Y-5.471 E16.74399
G1 X-20.88 Y-5.707 E16.75832
G1 X-20.765 Y-5.917 E16.77265
G1 X-20.588 Y-6.077 E16.78694
G1 X-20.368 Y-6.171 E16.80126
G1 X-20.2 Y-6.191 E16.81139
G1 X-6.41 Y-6.191 E17.63697
G1 X-6.174 Y-6.151 E17.6513
G1 X-5.964 Y-6.036 E17.66564
G1 X-5.804 Y-5.859 E17.67992
G1 X-5.71 Y-5.639 E17.69424
G1 X-5.69 Y-5.471 E17.70437
G0 F3600 X-6.17 Y-5.471
G1 F900 X-6.17 Y6.61 E18.42764
G1 X6.17 Y6.61 E19.16642
G1 X6.17 Y-5.472 E19.88974
G1 X6.209 Y-5.603 E19.89793
G1 X6.314 Y-5.692 E19.90617
G1 X6.41 Y-5.712 E19.91204
G1 X20.2 Y-5.711 E20.73762
G1 X20.331 Y-5.672 E20.7458
G1 X20.42 Y-5.567 E20.75404
G1 X20.44 Y-5.471 E20.75992
G1 X20.44 Y13.15 E21.87472
G1 X20.401 Y13.281 E21.8829
G1 X20.296 Y13.37 E21.89115
G1 X20.2 Y13.39 E21.89702
G1 X-20.2 Y13.39 E24.31569
G1 X-20.331 Y13.351 E24.32388
G1 X-20.42 Y13.246 E24.33212
G1 X-20.44 Y13.15 E24.33799
G1 X-20.44 Y-5.471 E25.45279
G1 X-20.401 Y-5.602 E25.46098
G1 X-20.296 Y-5.691 E25.46922
G1 X-20.2 Y-5.711 E25.47509
G1 X-6.41 Y-5.711 E26.30067
G1 X-6.279 Y-5.672 E26.30885
G1 X-6.19 Y-5.567 E26.31709
G1 X-6.17 Y-5.471 E26.32297
G1 F750 E19.82297
;MESH:Print Fan Mount V1.stl
G0 F3600 X6.964 Y-4.918
G0 X18.618 Y-3.889
G0 X18.618 Y11.568
G0 X16.742 Y7.034
G0 X12.366 Y7.803
G0 X12.603 Y10.692
G0 X13.245 Y11.805
G0 X14.366 Y12.509
G1 F750 E26.32297
G0 F3600 X14.393 Y12.312
;TYPE:WALL-OUTER
G1 F900 X15 Y12.392 E26.35962
G1 X15.607 Y12.312 E26.39627
G1 X16.171 Y12.078 E26.43283
G1 X16.656 Y11.706 E26.46942
G1 X17.029 Y11.221 E26.50605
G1 X17.262 Y10.656 E26.54264
G1 X17.342 Y10.05 E26.57924
G1 X17.262 Y9.443 E26.61589
G1 X17.029 Y8.879 E26.65243
G1 X16.656 Y8.394 E26.68906
G1 X16.171 Y8.021 E26.72569
G1 X15.607 Y7.787 E26.76224
G1 X15 Y7.708 E26.79889
G1 X14.393 Y7.787 E26.83554
G1 X13.829 Y8.021 E26.87209
G1 X13.344 Y8.394 E26.90872
G1 X12.971 Y8.879 E26.94535
G1 X12.738 Y9.443 E26.98189
G1 X12.658 Y10.05 E27.01854
G1 X12.738 Y10.656 E27.05514
G1 X12.971 Y11.221 E27.09172
G1 X13.344 Y11.706 E27.12835
G1 X13.829 Y12.078 E27.16495
G1 X14.393 Y12.312 E27.2015
G0 F3600 X14.591 Y12.338
G1 F750 E20.7015
G0 F3600 X14.564 Y12.535
G0 X-14.317 Y12.496
G1 F750 E27.2015
G0 F3600 X-14.393 Y12.312
G1 F900 X-13.829 Y12.078 E27.23806
G1 X-13.344 Y11.706 E27.27465
G1 X-12.971 Y11.221 E27.31128
G1 X-12.738 Y10.656 E27.34787
G1 X-12.658 Y10.05 E27.38447
G1 X-12.738 Y9.443 E27.42112
G1 X-12.971 Y8.879 E27.45766
G1 X-13.344 Y8.394 E27.49429
G1 X-13.829 Y8.021 E27.53092
G1 X-14.393 Y7.787 E27.56747
G1 X-15 Y7.708 E27.60412
G1 X-15.607 Y7.787 E27.64077
G1 X-16.171 Y8.021 E27.67732
G1 X-16.656 Y8.394 E27.71395
G1 X-17.029 Y8.879 E27.75058
G1 X-17.262 Y9.443 E27.78712
G1 X-17.342 Y10.05 E27.82377
G1 X-17.262 Y10.656 E27.86037
G1 X-17.029 Y11.221 E27.89695
G1 X-16.656 Y11.706 E27.93358
G1 X-16.171 Y12.078 E27.97018
G1 X-15.607 Y12.312 E28.00673
G1 X-15 Y12.392 E28.04339
G1 X-14.393 Y12.312 E28.08004
G0 F3600 X-14.209 Y12.236
G0 X-14.133 Y12.42
G0 X-19.59 Y12.54
G0 X-19.76 Y12.71
G1 F900 X-19.76 Y-5.031 E29.14217
G1 X-6.85 Y-5.031 E29.91506
G1 X-6.85 Y7.29 E30.6527
G1 X6.85 Y7.29 E31.4729
G1 X6.85 Y-5.032 E32.21059
G1 X19.76 Y-5.031 E32.98349
G1 X19.76 Y12.71 E34.04561
G1 X15.607 Y12.71 E34.29425
G1 X15 Y12.71 E34.32134
G1 X14.393 Y12.71 E34.34842
G1 X-14.393 Y12.71 E36.07179
G1 X-15 Y12.71 E36.09888
G1 X-15.607 Y12.71 E36.12597
G1 X-19.76 Y12.71 E36.3746
G0 F3600 X-19.76 Y12.51
G1 F750 E29.8746
G0 F3600 X-19.56 Y12.51
G0 X-16.975 Y12.522
G0 X13.238 Y12.23
;TYPE:WALL-INNER
G1 F750 E36.3746
G1 F900 X-13.238 Y12.23 E37.95967
G1 X-13.002 Y12.049 E37.97748
G1 X-12.552 Y11.463 E38.02171
G1 X-12.27 Y10.781 E38.06589
G1 X-12.174 Y10.05 E38.11003
G1 X-12.27 Y9.318 E38.15423
G1 X-12.552 Y8.637 E38.19836
G1 X-13.002 Y8.052 E38.24255
G1 X-13.587 Y7.602 E38.28673
G1 X-14.268 Y7.319 E38.33088
G1 X-15 Y7.224 E38.37507
G1 X-15.732 Y7.319 E38.41927
G1 X-16.413 Y7.602 E38.46342
G1 X-16.998 Y8.052 E38.5076
G1 X-17.448 Y8.637 E38.55179
G1 X-17.73 Y9.318 E38.59592
G1 X-17.826 Y10.05 E38.64011
G1 X-17.73 Y10.781 E38.68425
G1 X-17.448 Y11.463 E38.72844
G1 X-16.998 Y12.049 E38.77267
G1 X-16.762 Y12.23 E38.79048
G1 X-19.28 Y12.23 E38.94122
G1 X-19.28 Y-4.551 E39.94587
G1 X-7.33 Y-4.551 E40.6613
G1 X-7.33 Y7.77 E41.39894
G1 X7.33 Y7.77 E42.2766
G1 X7.33 Y-4.552 E43.0143
G1 X19.28 Y-4.551 E43.72973
G1 X19.28 Y12.23 E44.73437
G1 X16.762 Y12.23 E44.88512
G1 X16.998 Y12.049 E44.90293
G1 X17.448 Y11.463 E44.94716
G1 X17.73 Y10.781 E44.99135
G1 X17.826 Y10.05 E45.03548
G1 X17.73 Y9.318 E45.07968
G1 X17.448 Y8.637 E45.12381
G1 X16.998 Y8.052 E45.168
G1 X16.413 Y7.602 E45.21218
G1 X15.732 Y7.319 E45.25633
G1 X15 Y7.224 E45.30052
G1 X14.268 Y7.319 E45.34472
G1 X13.587 Y7.602 E45.38887
G1 X13.002 Y8.052 E45.43305
G1 X12.552 Y8.637 E45.47724
G1 X12.27 Y9.318 E45.52137
G1 X12.174 Y10.05 E45.56556
G1 X12.27 Y10.781 E45.6097
G1 X12.552 Y11.463 E45.65389
G1 X13.002 Y12.049 E45.69812
G1 X13.238 Y12.23 E45.71593
G0 F3600 X12.168 Y11.75
G1 F900 X-12.168 Y11.75 E47.17288
G1 X-12.133 Y11.705 E47.17629
G1 X-11.802 Y10.906 E47.22807
G1 X-11.69 Y10.05 E47.27975
G1 X-11.802 Y9.193 E47.3315
G1 X-12.133 Y8.395 E47.38322
G1 X-12.66 Y7.71 E47.43496
G1 X-13.344 Y7.183 E47.48666
G1 X-14.143 Y6.851 E47.53846
G1 X-15 Y6.74 E47.59019
G1 X-15.857 Y6.851 E47.64193
G1 X-16.656 Y7.183 E47.69373
G1 X-17.34 Y7.71 E47.74542
G1 X-17.867 Y8.395 E47.79716
G1 X-18.198 Y9.193 E47.84889
G1 X-18.31 Y10.05 E47.90063
G1 X-18.198 Y10.906 E47.95231
G1 X-17.867 Y11.705 E48.00409
G1 X-17.832 Y11.75 E48.0075
G1 X-18.8 Y11.75 E48.06545
G1 X-18.8 Y-4.071 E49.01263
G1 X-7.81 Y-4.071 E49.67058
G1 X-7.81 Y8.25 E50.40822
G1 X7.81 Y8.25 E51.34336
G1 X7.81 Y-4.072 E52.08106
G1 X18.8 Y-4.071 E52.73901
G1 X18.8 Y11.75 E53.68618
G1 X17.832 Y11.75 E53.74414
G1 X17.867 Y11.705 E53.74755
G1 X18.198 Y10.906 E53.79933
G1 X18.31 Y10.05 E53.85101
G1 X18.198 Y9.193 E53.90275
G1 X17.867 Y8.395 E53.95448
G1 X17.34 Y7.71 E54.00622
G1 X16.656 Y7.183 E54.05791
G1 X15.857 Y6.851 E54.10971
G1 X15 Y6.74 E54.16145
G1 X14.143 Y6.851 E54.21318
G1 X13.344 Y7.183 E54.26498
G1 X12.66 Y7.71 E54.31668
G1 X12.133 Y8.395 E54.36842
G1 X11.802 Y9.193 E54.42014
G1 X11.69 Y10.05 E54.47189
G1 X11.802 Y10.906 E54.52357
G1 X12.133 Y11.705 E54.57535
G1 X12.168 Y11.75 E54.57876
G0 F3600 X11.448 Y11.28
;TYPE:SKIN
G1 F900 X-11.448 Y11.28 E55.9495
G1 X-11.344 Y11.029 E55.96577
G1 X-11.216 Y10.05 E56.02488
G1 X-11.344 Y9.07 E56.08405
G1 X-11.722 Y8.158 E56.14315
G1 X-12.325 Y7.375 E56.20232
G1 X-13.107 Y6.773 E56.2614
G1 X-14.02 Y6.393 E56.32061
G1 X-15 Y6.266 E56.37977
G1 X-15.98 Y6.393 E56.43893
G1 X-16.893 Y6.773 E56.49813
G1 X-17.675 Y7.375 E56.55722
G1 X-18.278 Y8.158 E56.61638
G1 X-18.33 Y8.283 E56.62449
G1 X-18.33 Y-3.601 E57.33596
G1 X-8.28 Y-3.601 E57.93764
G1 X-8.28 Y8.72 E58.67528
G1 X8.28 Y8.72 E59.66669
G1 X8.28 Y-3.602 E60.40439
G1 X18.33 Y-3.601 E61.00607
G1 X18.33 Y8.283 E61.71754
G1 X18.278 Y8.158 E61.72565
G1 X17.675 Y7.375 E61.78481
G1 X16.893 Y6.773 E61.84389
G1 X15.98 Y6.393 E61.9031
G1 X15 Y6.266 E61.96226
G1 X14.02 Y6.393 E62.02142
G1 X13.107 Y6.773 E62.08063
G1 X12.325 Y7.375 E62.13971
G1 X11.722 Y8.158 E62.19888
G1 X11.344 Y9.07 E62.25798
G1 X11.216 Y10.05 E62.31715
G1 X11.344 Y11.029 E62.37626
G1 X11.448 Y11.28 E62.39253
G1 F750 E55.89253
G0 F3600 X11.78 Y11.143
G0 X12.85 Y8.809
G0 X14.098 Y6.684
G0 X18.365 Y9.148
G0 X18.13 Y11.562
G0 X18.69 Y-2.934
G1 F750 E62.39253
G0 F3600 X18.109 Y-2.934
G1 F900 X17.662 Y-3.381 E62.43037
G0 F3600 X16.983 Y-3.381
G1 F900 X18.109 Y-2.255 E62.52571
G0 F3600 X18.109 Y-1.576
G1 F900 X16.304 Y-3.381 E62.67853
G0 F3600 X15.625 Y-3.381
G1 F900 X18.109 Y-.898 E62.8888
G0 F3600 X18.109 Y-.219
G1 F900 X14.946 Y-3.381 E63.15656
G0 F3600 X14.268 Y-3.381
G1 F900 X18.109 Y0.459 E63.48172
G0 F3600 X18.109 Y1.138
G1 F900 X13.589 Y-3.381 E63.86437
G0 F3600 X12.91 Y-3.381
G1 F900 X18.109 Y1.817 E64.30451
G0 F3600 X18.109 Y2.496
G1 F900 X12.231 Y-3.381 E64.80213
G0 F3600 X11.552 Y-3.381
G1 F900 X18.109 Y3.174 E65.35721
G0 F3600 X18.109 Y3.853
G1 F900 X10.873 Y-3.381 E65.96977
G0 F3600 X10.195 Y-3.381
G1 F900 X18.109 Y4.532 E66.63978
G0 F3600 X18.109 Y5.211
G1 F900 X9.516 Y-3.381 E67.36727
G0 F3600 X8.837 Y-3.381
G1 F900 X18.109 Y5.89 E68.15226
G0 F3600 X18.109 Y6.569
G1 F900 X8.498 Y-3.041 E68.96595
G0 F3600 X8.498 Y-2.362
G1 F900 X18.109 Y7.247 E69.77959
G1 X18.179 Y7.317
G0 F3600 X18.69 Y7.317
G0 X18.618 Y11.568
G0 X17.735 Y10.27
G0 X16.369 Y6.944
G0 X16.592 Y6.409
G1 F900 X8.498 Y-1.683 E70.4648
G0 F3600 X8.498 Y-1.004
G1 F900 X15.629 Y6.125 E71.06847
G0 F3600 X14.883 Y6.059
G1 F900 X8.498 Y-.325 E71.60902
G0 F3600 X8.498 Y0.352
G1 F900 X14.282 Y6.136 E72.09873
G0 F3600 X13.738 Y6.271
G1 F900 X8.498 Y1.031 E72.54239
G0 F3600 X8.498 Y1.71
G1 F900 X13.258 Y6.47 E72.9454
G0 F3600 X12.822 Y6.713
G1 F900 X8.498 Y2.389 E73.3115
G0 F3600 X8.498 Y3.068
G1 F900 X12.438 Y7.008 E73.64508
G0 F3600 X12.081 Y7.329
G1 F900 X8.498 Y3.746 E73.94844
G0 F3600 X8.498 Y4.425
G1 F900 X11.786 Y7.713 E74.22683
G0 F3600 X11.503 Y8.109
G1 F900 X8.498 Y5.104 E74.48125
G0 F3600 X8.498 Y5.783
G1 F900 X11.304 Y8.589 E74.71882
G0 F3600 X11.12 Y9.084
G1 F900 X8.498 Y6.462 E74.94082
G0 F3600 X8.498 Y7.141
G1 F900 X11.041 Y9.683 E75.15608
G0 F3600 X11.033 Y10.354
G1 F900 X8.498 Y7.819 E75.37071
G0 F3600 X8.498 Y8.498
G1 F900 X11.059 Y11.059 E75.58754
G0 F3600 X10.381 Y11.059
G1 F900 X8.26 Y8.939 E75.76708
G0 F3600 X7.581 Y8.939
G1 F900 X9.702 Y11.059 E75.94661
G0 F3600 X9.023 Y11.059
G1 F900 X6.902 Y8.939 E76.12615
G0 F3600 X6.223 Y8.939
G1 F900 X8.344 Y11.059 E76.30568
G0 F3600 X7.665 Y11.059
G1 F900 X5.545 Y8.939 E76.48518
G0 F3600 X4.866 Y8.939
G1 F900 X6.986 Y11.059 E76.66467
G0 F3600 X6.308 Y11.059
G1 F900 X4.187 Y8.939 E76.8442
G0 F3600 X3.508 Y8.939
G1 F900 X5.629 Y11.059 E77.02374
G0 F3600 X4.95 Y11.059
G1 F900 X2.829 Y8.939 E77.20328
G0 F3600 X2.151 Y8.939
G1 F900 X4.271 Y11.059 E77.38277
G0 F3600 X3.592 Y11.059
G1 F900 X1.472 Y8.939 E77.56226
G0 F3600 X0.793 Y8.939
G1 F900 X2.913 Y11.059 E77.74175
G0 F3600 X2.235 Y11.059
G1 F900 X0.114 Y8.939 E77.92129
G0 F3600 X-.564 Y8.939
G1 F900 X1.556 Y11.059 E78.10078
G0 F3600 X0.877 Y11.059
G1 F900 X-1.243 Y8.939 E78.28028
G0 F3600 X-1.921 Y8.939
G1 F900 X0.198 Y11.059 E78.45973
G0 F3600 X-.48 Y11.059
G1 F900 X-2.6 Y8.939 E78.63922
G0 F3600 X-3.279 Y8.939
G1 F900 X-1.158 Y11.059 E78.81875
G0 F3600 X-1.837 Y11.059
G1 F900 X-3.958 Y8.939 E78.99829
G0 F3600 X-4.637 Y8.939
G1 F900 X-2.516 Y11.059 E79.17782
G0 F3600 X-3.195 Y11.059
G1 F900 X-5.316 Y8.939 E79.35736
G0 F3600 X-5.994 Y8.939
G1 F900 X-3.874 Y11.059 E79.53685
G0 F3600 X-4.553 Y11.059
G1 F900 X-6.673 Y8.939 E79.71635
G0 F3600 X-7.352 Y8.939
G1 F900 X-5.231 Y11.059 E79.89588
G0 F3600 X-5.91 Y11.059
G1 F900 X-8.031 Y8.939 E80.07542
G0 F3600 X-8.499 Y8.471
G1 F900 X-18.109 Y-1.138 E80.88902
G0 F3600 X-18.109 Y-1.817
G1 F900 X-8.499 Y7.792 E81.70262
G0 F3600 X-8.499 Y7.113
G1 F900 X-18.109 Y-2.496 E82.51622
G0 F3600 X-18.109 Y-3.174
G1 F900 X-8.499 Y6.434 E83.32978
G0 F3600 X-8.499 Y5.755
G1 F900 X-17.636 Y-3.381 E84.10334
G0 F3600 X-16.957 Y-3.381
G1 F900 X-8.499 Y5.077 E84.81945
G0 F3600 X-8.499 Y4.398
G1 F900 X-16.279 Y-3.381 E85.47811
G0 F3600 X-15.6 Y-3.381
G1 F900 X-8.499 Y3.719 E86.07929
G0 F3600 X-8.499 Y3.04
G1 F900 X-14.921 Y-3.381 E86.62297
G0 F3600 X-14.242 Y-3.381
G1 F900 X-8.499 Y2.361 E87.10917
G0 F3600 X-8.499 Y1.682
G1 F900 X-13.563 Y-3.381 E87.53788
G0 F3600 X-12.884 Y-3.381
G1 F900 X-8.499 Y1.004 E87.90914
G0 F3600 X-8.499 Y0.325
G1 F900 X-12.206 Y-3.381 E88.22296
G0 F3600 X-11.527 Y-3.381
G1 F900 X-8.499 Y-.353 E88.47933
G0 F3600 X-8.499 Y-1.032
G1 F900 X-10.848 Y-3.381 E88.67821
G0 F3600 X-10.169 Y-3.381
G1 F900 X-8.499 Y-1.711 E88.8196
G0 F3600 X-8.499 Y-2.39
G1 F900 X-9.49 Y-3.381 E88.90351
G0 F3600 X-8.811 Y-3.381
G1 F900 X-8.499 Y-3.068 E88.92996
G1 F750 E82.42996
G0 F3600 X-7.92 Y-3.068
G0 X-7.992 Y-3.889
G0 X-18.618 Y-3.889
G0 X-18.69 Y-.459
G1 F750 E88.92996
G0 F3600 X-18.109 Y-.459
G1 F900 X-6.589 Y11.059 E89.90524
G0 F3600 X-7.268 Y11.059
G1 F900 X-18.109 Y0.219 E90.82306
G0 F3600 X-18.109 Y0.898
G1 F900 X-7.947 Y11.059 E91.6834
G0 F3600 X-8.625 Y11.059
G1 F900 X-11.451 Y8.234 E91.92263
G1 X-11.521 Y8.164
G0 F3600 X-12.024 Y8.372
G0 X-11.671 Y9.342
G0 X-11.095 Y9.268
G1 F900 X-9.304 Y11.059 E92.07427
G0 F3600 X-9.983 Y11.059
G1 F900 X-10.993 Y10.05 E92.15974
G0 F3600 X-11.071 Y10.65
G1 F900 X-10.662 Y11.059 E92.19437
G0 F3600 X-10.662 Y11.64
G0 X-11.87 Y11.562
G0 X-13.406 Y7.037
G0 X-13.183 Y6.502
G1 F900 X-18.109 Y1.576 E92.61143
G0 F3600 X-18.109 Y2.255
G1 F900 X-14.219 Y6.145 E92.94078
G0 F3600 X-14.999 Y6.044
G1 F900 X-18.109 Y2.934 E93.2041
G0 F3600 X-18.109 Y3.613
G1 F900 X-15.6 Y6.122 E93.41653
G0 F3600 X-16.168 Y6.232
G1 F900 X-18.109 Y4.292 E93.58082
G0 F3600 X-18.109 Y4.97
G1 F900 X-16.647 Y6.432 E93.7046
G0 F3600 X-17.102 Y6.656
G1 F900 X-18.109 Y5.649 E93.78986
G0 F3600 X-18.109 Y6.328
G1 F900 X-17.486 Y6.951 E93.84261
G0 F3600 X-17.86 Y7.256
G1 F900 X-18.109 Y7.007 E93.86369
G0 F3600 X-19.07 Y7.007
G1 F750 E87.36369
;MESH:NONMESH
G0 F600 X-19.07 Y7.007 Z0.5
G0 F3600 X-18.618 Y11.568
G0 X-17.136 Y7.324
G0 X-14.357 Y7.652
G0 X-11.984 Y8.309
G0 X-11.87 Y11.562
G0 X14.372 Y12.51
G1 F750 E93.86369
G0 F3600 X14.404 Y12.273
;TIME_ELAPSED:120.322288
;LAYER:1
M106 S255
;TYPE:WALL-OUTER
;MESH:Print Fan Mount V1.stl
G1 F900 X15 Y12.352 E93.88369
G1 X15.596 Y12.273 E93.90368
G1 X16.151 Y12.043 E93.92367
