;FLAVOR:Marlin
;TIME:6279
;Filament used: 3.25356m
;Layer height: 0.2
;MINX:-29.316
;MINY:-26.9
;MINZ:0.3
;MAXX:29.4
;MAXY:-13.1
;MAXZ:40.1
;Generated with Cura_SteamEngine 4.13.1
M140 S65
M105
M190 S65
M104 S200
M105
M109 S200
M82 ;absolute extrusion mode
M190 S65 ; set bed temperature
M104 S190 ; set temperature
G28 ; home all axes
G1 Z100 F9000
M109 S190 ; wait for temperature to be reached
G21 ; set units to millimeters
G90 ; use absolute coordinates
M82 ; use absolute distances for extrusion
G92 E0

G1 Z0.300 F4800.000
G1 X0.000 Y70.000 F4800.000
G1 X40.000 Y50.000 E10.000 F1080.000

G1 Z5 F5000 ; lift nozzle
G1 X0 Y0
G28
G92 E0
G92 E0
G1 F750 E-6.5
;LAYER_COUNT:200
;LAYER:0
M107
G0 F3600 X-23.485 Y-13.1 Z0.3
;TYPE:SKIRT
G1 F750 E0
G1 F900 X-23.792 Y-13.14 E0.01853
G1 X-24.214 Y-13.324 E0.0461
G1 X-24.469 Y-13.499 E0.06461
G1 X-24.63 Y-13.674 E0.07885
G1 X-29.086 Y-19.614 E0.52341
G1 X-29.238 Y-19.883 E0.5419
G1 X-29.316 Y-20.182 E0.5604
G1 X-29.262 Y-20.866 E0.60148
G1 X-29.178 Y-21.163 E0.61996
G1 X-29.022 Y-21.43 E0.63847
G1 X-28.794 Y-21.654 E0.65761
G1 X-24.846 Y-24.614 E0.95302
G1 X-24.382 Y-24.835 E0.98379
G1 X-23.992 Y-24.9 E1.00746
G1 X20.46 Y-24.9 E3.66872
G1 X20.46 Y-25.442 E3.70117
G1 X20.5 Y-25.749 E3.71971
G1 X20.617 Y-26.035 E3.73821
G1 X21.069 Y-26.549 E3.77919
G1 X21.314 Y-26.737 E3.79767
G1 X21.599 Y-26.857 E3.81619
G1 X21.918 Y-26.9 E3.83546
G1 X27.942 Y-26.9 E4.1961
G1 X28.249 Y-26.86 E4.21464
G1 X28.535 Y-26.743 E4.23314
G1 X29.049 Y-26.291 E4.27412
G1 X29.237 Y-26.046 E4.29261
G1 X29.357 Y-25.761 E4.31112
G1 X29.4 Y-25.442 E4.33039
G1 X29.4 Y-14.558 E4.982
G1 X29.36 Y-14.251 E5.00053
G1 X29.243 Y-13.965 E5.01903
G1 X28.791 Y-13.451 E5.06001
G1 X28.546 Y-13.263 E5.0785
G1 X28.261 Y-13.143 E5.09701
G1 X27.942 Y-13.1 E5.11628
G1 X-23.485 Y-13.1 E8.19512
G0 F3600 X-23.485 Y-13.58
G1 F900 X-23.811 Y-13.658 E8.21519
G1 X-23.996 Y-13.752 E8.22762
G1 X-24.246 Y-13.962 E8.24716
G1 X-28.702 Y-19.902 E8.69172
G1 X-28.812 Y-20.114 E8.70602
G1 X-28.839 Y-20.437 E8.72542
G1 X-28.714 Y-21.025 E8.76141
G1 X-28.506 Y-21.27 E8.78065
G1 X-24.558 Y-24.23 E9.07607
G1 X-24.226 Y-24.381 E9.0979
G1 X-23.992 Y-24.42 E9.11211
G1 X20.94 Y-24.42 E11.80211
G1 X20.94 Y-25.442 E11.86329
G1 X20.98 Y-25.678 E11.87762
G1 X21.151 Y-25.951 E11.89691
G1 X21.604 Y-26.348 E11.93297
G1 X21.918 Y-26.42 E11.95225
G1 X27.942 Y-26.42 E12.3129
G1 X28.178 Y-26.38 E12.32723
G1 X28.451 Y-26.209 E12.34652
G1 X28.848 Y-25.756 E12.38258
G1 X28.92 Y-25.442 E12.40186
G1 X28.92 Y-14.558 E13.05347
G1 X28.88 Y-14.322 E13.0678
G1 X28.709 Y-14.049 E13.08709
G1 X28.256 Y-13.652 E13.12315
G1 X27.942 Y-13.58 E13.14243
G1 X-23.485 Y-13.58 E16.22128
G0 F3600 X-23.485 Y-14.06
G1 F900 X-23.779 Y-14.18 E16.24029
G1 X-23.862 Y-14.25 E16.24679
G1 X-28.318 Y-20.19 E16.69135
G1 X-28.364 Y-20.368 E16.70235
G1 X-28.312 Y-20.728 E16.72413
G1 X-28.218 Y-20.886 E16.73514
G1 X-24.27 Y-23.846 E17.03055
G1 X-23.992 Y-23.94 E17.04812
G1 X21.42 Y-23.94 E19.76686
G1 X21.42 Y-25.442 E19.85678
G1 X21.49 Y-25.612 E19.86778
G1 X21.748 Y-25.87 E19.88963
G1 X21.918 Y-25.94 E19.90064
G1 X27.942 Y-25.94 E20.26128
G1 X28.112 Y-25.87 E20.27229
G1 X28.37 Y-25.612 E20.29413
G1 X28.44 Y-25.442 E20.30514
G1 X28.44 Y-14.558 E20.95675
G1 X28.37 Y-14.388 E20.96775
G1 X28.112 Y-14.13 E20.9896
G1 X27.942 Y-14.06 E21.0006
G1 X-23.485 Y-14.06 E24.07945
G1 F750 E17.57945
;MESH:Print Fan Mount.3mf
G0 F3600 X-23.272 Y-14.957
G0 X27.46 Y-15.01
G1 F750 E24.07945
G0 F3600 X27.76 Y-14.74
;TYPE:WALL-OUTER
G1 F900 X-23.38 Y-14.74 E27.14111
G1 X-27.664 Y-20.452 E27.56857
G1 X-23.92 Y-23.26 E27.84875
G1 X22.1 Y-23.26 E30.60389
G1 X22.1 Y-25.26 E30.72362
G1 X27.76 Y-25.26 E31.06248
G1 X27.76 Y-14.74 E31.69229
G0 F3600 X27.56 Y-14.74
G0 X27.28 Y-15.22
;TYPE:WALL-INNER
G1 F900 X-23.14 Y-15.22 E34.71085
G1 X-26.992 Y-20.356 E35.0952
G1 X-23.76 Y-22.78 E35.33707
G1 X22.58 Y-22.78 E38.11137
G1 X22.58 Y-24.78 E38.2311
G1 X27.28 Y-24.78 E38.51248
G1 X27.28 Y-15.22 E39.08482
G0 F3600 X26.8 Y-15.7
G1 F900 X-22.9 Y-15.7 E42.06027
G1 X-26.32 Y-20.26 E42.40152
G1 X-23.6 Y-22.3 E42.60508
G1 X23.06 Y-22.3 E45.39853
G1 X23.06 Y-24.3 E45.51826
G1 X26.8 Y-24.3 E45.74217
G1 X26.8 Y-15.7 E46.25704
G0 F3600 X26.33 Y-16.17
;TYPE:SKIN
G1 F900 X-22.665 Y-16.17 E49.19028
G1 X-25.662 Y-20.166 E49.48932
G1 X-23.443 Y-21.83 E49.65538
G1 X23.53 Y-21.83 E52.46757
G1 X23.53 Y-23.83 E52.5873
G1 X26.33 Y-23.83 E52.75493
G1 X26.33 Y-16.17 E53.21352
G0 F3600 X26.69 Y-16.17
G0 X26.69 Y-23.444
G0 X26.109 Y-23.444
G1 F900 X25.943 Y-23.61 E53.22758
G0 F3600 X25.264 Y-23.61
G1 F900 X26.109 Y-22.765 E53.29912
G0 F3600 X26.109 Y-22.086
G1 F900 X24.586 Y-23.61 E53.42811
G0 F3600 X23.907 Y-23.61
G1 F900 X26.109 Y-21.407 E53.61459
G0 F3600 X26.109 Y-20.728
G1 F900 X23.748 Y-23.089 E53.81449
G0 F3600 X23.748 Y-22.411
G1 F900 X26.109 Y-20.05 E54.01438
G0 F3600 X26.109 Y-19.371
G1 F900 X23.748 Y-21.732 E54.21428
G0 F3600 X23.192 Y-21.609
G1 F900 X26.109 Y-18.692 E54.46125
G0 F3600 X26.109 Y-18.013
G1 F900 X22.513 Y-21.609 E54.76572
G0 F3600 X21.834 Y-21.609
G1 F900 X26.109 Y-17.334 E55.12766
G0 F3600 X26.109 Y-16.655
G1 F900 X21.155 Y-21.609 E55.5471
G0 F3600 X20.477 Y-21.609
G1 F900 X25.696 Y-16.39 E55.98898
G0 F3600 X25.018 Y-16.39
G1 F900 X19.798 Y-21.609 E56.43089
G0 F3600 X19.119 Y-21.609
G1 F900 X24.339 Y-16.39 E56.87281
G0 F3600 X23.66 Y-16.39
G1 F900 X18.44 Y-21.609 E57.31473
G0 F3600 X17.761 Y-21.609
G1 F900 X22.981 Y-16.39 E57.75664
G0 F3600 X22.302 Y-16.39
G1 F900 X17.082 Y-21.609 E58.19856
G0 F3600 X16.404 Y-21.609
G1 F900 X21.624 Y-16.39 E58.64048
G0 F3600 X20.945 Y-16.39
G1 F900 X15.725 Y-21.609 E59.08239
G0 F3600 X15.046 Y-21.609
G1 F900 X20.266 Y-16.39 E59.52431
G0 F3600 X19.587 Y-16.39
G1 F900 X14.367 Y-21.609 E59.96623
G0 F3600 X13.688 Y-21.609
G1 F900 X18.908 Y-16.39 E60.40814
G0 F3600 X18.229 Y-16.39
G1 F900 X13.01 Y-21.609 E60.85002
G0 F3600 X12.331 Y-21.609
G1 F900 X17.551 Y-16.39 E61.29193
G0 F3600 X16.872 Y-16.39
G1 F900 X11.652 Y-21.609 E61.73385
G0 F3600 X10.973 Y-21.609
G1 F900 X16.193 Y-16.39 E62.17577
G0 F3600 X15.514 Y-16.39
G1 F900 X10.294 Y-21.609 E62.61768
G0 F3600 X9.615 Y-21.609
G1 F900 X14.835 Y-16.39 E63.0596
G0 F3600 X14.156 Y-16.39
G1 F900 X8.937 Y-21.609 E63.50148
G0 F3600 X8.258 Y-21.609
G1 F900 X13.478 Y-16.39 E63.94339
G0 F3600 X12.799 Y-16.39
G1 F900 X7.579 Y-21.609 E64.38531
G0 F3600 X6.9 Y-21.609
G1 F900 X12.12 Y-16.39 E64.82723
G0 F3600 X11.441 Y-16.39
G1 F900 X6.221 Y-21.609 E65.26914
G0 F3600 X5.543 Y-21.609
G1 F900 X10.762 Y-16.39 E65.71102
G0 F3600 X10.084 Y-16.39
G1 F900 X4.864 Y-21.609 E66.15293
G0 F3600 X4.185 Y-21.609
G1 F900 X9.405 Y-16.39 E66.59485
G0 F3600 X8.726 Y-16.39
G1 F900 X3.506 Y-21.609 E67.03677
G0 F3600 X2.827 Y-21.609
G1 F900 X8.047 Y-16.39 E67.47868
G0 F3600 X7.368 Y-16.39
G1 F900 X2.148 Y-21.609 E67.9206
G0 F3600 X1.47 Y-21.609
G1 F900 X6.689 Y-16.39 E68.36247
G0 F3600 X6.011 Y-16.39
G1 F900 X0.791 Y-21.609 E68.80439
G0 F3600 X0.112 Y-21.609
G1 F900 X5.332 Y-16.39 E69.24631
G0 F3600 X4.653 Y-16.39
G1 F900 X-.566 Y-21.609 E69.68818
G0 F3600 X-1.245 Y-21.609
G1 F900 X3.974 Y-16.39 E70.13006
G0 F3600 X3.295 Y-16.39
G1 F900 X-1.924 Y-21.609 E70.57193
G0 F3600 X-2.602 Y-21.609
G1 F900 X2.617 Y-16.39 E71.01381
G0 F3600 X1.938 Y-16.39
G1 F900 X-3.281 Y-21.609 E71.45568
G0 F3600 X-3.96 Y-21.609
G1 F900 X1.259 Y-16.39 E71.89755
G0 F3600 X0.58 Y-16.39
G1 F900 X-4.639 Y-21.609 E72.33943
G0 F3600 X-5.318 Y-21.609
G1 F900 X-0.098 Y-16.39 E72.78135
G0 F3600 X-.777 Y-16.39
G1 F900 X-5.996 Y-21.609 E73.22322
G0 F3600 X-6.675 Y-21.609
G1 F900 X-1.455 Y-16.39 E73.66514
G0 F3600 X-2.134 Y-16.39
G1 F900 X-7.354 Y-21.609 E74.10705
G0 F3600 X-8.033 Y-21.609
G1 F900 X-2.813 Y-16.39 E74.54897
G0 F3600 X-3.492 Y-16.39
G1 F900 X-8.712 Y-21.609 E74.99089
G0 F3600 X-9.391 Y-21.609
G1 F900 X-4.171 Y-16.39 E75.4328
G0 F3600 X-4.85 Y-16.39
G1 F900 X-10.069 Y-21.609 E75.87468
G0 F3600 X-10.748 Y-21.609
G1 F900 X-5.528 Y-16.39 E76.31659
G0 F3600 X-6.207 Y-16.39
G1 F900 X-11.427 Y-21.609 E76.75851
G0 F3600 X-12.106 Y-21.609
G1 F900 X-6.886 Y-16.39 E77.20043
G0 F3600 X-7.565 Y-16.39
G1 F900 X-12.785 Y-21.609 E77.64234
G0 F3600 X-13.464 Y-21.609
G1 F900 X-8.244 Y-16.39 E78.08426
G0 F3600 X-8.922 Y-16.39
G1 F900 X-14.142 Y-21.609 E78.52618
G0 F3600 X-14.821 Y-21.609
G1 F900 X-9.601 Y-16.39 E78.96809
G0 F3600 X-10.28 Y-16.39
G1 F900 X-15.5 Y-21.609 E79.41001
G0 F3600 X-16.179 Y-21.609
G1 F900 X-10.959 Y-16.39 E79.85193
G0 F3600 X-11.638 Y-16.39
G1 F900 X-16.858 Y-21.609 E80.29384
G0 F3600 X-17.536 Y-21.609
G1 F900 X-12.317 Y-16.39 E80.73572
G0 F3600 X-12.995 Y-16.39
G1 F900 X-18.215 Y-21.609 E81.17764
G0 F3600 X-18.894 Y-21.609
G1 F900 X-13.674 Y-16.39 E81.61955
G0 F3600 X-14.353 Y-16.39
G1 F900 X-19.573 Y-21.609 E82.06147
G0 F3600 X-20.252 Y-21.609
G1 F900 X-15.032 Y-16.39 E82.50339
G0 F3600 X-15.711 Y-16.39
G1 F900 X-20.931 Y-21.609 E82.9453
G0 F3600 X-21.609 Y-21.609
G1 F900 X-16.39 Y-16.39 E83.38718
G0 F3600 X-17.068 Y-16.39
G1 F900 X-22.288 Y-21.609 E83.82909
G0 F3600 X-22.967 Y-21.609
G1 F900 X-17.747 Y-16.39 E84.27101
G0 F3600 X-18.426 Y-16.39
G1 F900 X-23.527 Y-21.491 E84.70289
G0 F3600 X-23.915 Y-21.199
G1 F900 X-19.105 Y-16.39 E85.1101
G0 F3600 X-19.784 Y-16.39
G1 F900 X-24.303 Y-20.909 E85.49271
G0 F3600 X-24.69 Y-20.617
G1 F900 X-20.462 Y-16.39 E85.85063
G0 F3600 X-21.141 Y-16.39
G1 F900 X-25.078 Y-20.327 E86.18396
G1 X-25.148 Y-20.397
G0 F3600 X-25.438 Y-20.784
G0 X-26.065 Y-20.223
G0 X-25.22 Y-18.977
G0 X-24.755 Y-19.325
G1 F900 X-21.82 Y-16.39 E86.43246
G0 F3600 X-22.499 Y-16.39
G1 F900 X-22.72 Y-16.61 E86.45113
G0 F3600 X-23.488 Y-16.034
G1 F750 E79.95113
;MESH:NONMESH
G0 F600 X-23.488 Y-16.034 Z0.5
G0 F3600 X27.49 Y-15.01
G1 F750 E86.45113
G0 F3600 X27.8 Y-14.7
;TIME_ELAPSED:105.798185
;LAYER:1
M106 S255
;TYPE:WALL-OUTER
;MESH:Print Fan Mount.3mf
G1 F900 X-23.4 Y-14.7 E88.15405
G1 X-27.72 Y-20.46 E88.39352
G1 X-23.933 Y-23.3 E88.55096
G1 X22.06 Y-23.3 E90.0807
G1 X22.06 Y-25.3 E90.14722
G1 X27.8 Y-25.3 E90.33813
G1 X27.8 Y-14.7 E90.69069
G0 F5400 X27.6 Y-14.7
G0 X27.4 Y-15.1
;TYPE:WALL-INNER
G1 F1350 X-23.2 Y-15.1 E92.37365
G1 X-27.16 Y-20.38 E92.59317
G1 X-23.8 Y-22.9 E92.73286
G1 X22.46 Y-22.9 E94.27147
G1 X22.46 Y-24.9 E94.33799
G1 X27.4 Y-24.9 E94.5023
G1 X27.4 Y-15.1 E94.82825
G0 F5400 X27 Y-15.5
G1 F1350 X-23 Y-15.5 E96.49125
G1 X-26.6 Y-20.3 E96.69081
G1 X-23.667 Y-22.5 E96.81276
G1 X22.86 Y-22.5 E98.36025
G1 X22.86 Y-24.5 E98.42677
G1 X27 Y-24.5 E98.56447
G1 X27 Y-15.5 E98.86381
G0 F5400 X26.6 Y-15.9
G1 F1350 X-22.8 Y-15.9 E100.50686
G1 X-26.04 Y-20.22 E100.68647
G1 X-23.534 Y-22.1 E100.79067
G1 X23.26 Y-22.1 E102.34704
G1 X23.26 Y-24.1 E102.41356
G1 X26.6 Y-24.1 E102.52465
G1 X26.6 Y-15.9 E102.79738
G0 F5400 X26.21 Y-16.29
;TYPE:SKIN
G1 F900 X-22.605 Y-16.29 E104.42098
G1 X-25.494 Y-20.142 E104.58112
G1 X-23.404 Y-21.71 E104.66803
G1 X23.65 Y-21.71 E106.23305
G1 X23.65 Y-23.71 E106.29957
G1 X26.21 Y-23.71 E106.38471
G1 X26.21 Y-16.29 E106.6315
G0 F5400 X26.029 Y-16.978
G1 F900 X25.52 Y-16.469 E106.65545
G0 F5400 X24.955 Y-16.469
G1 F900 X26.029 Y-17.544 E106.70599
G0 F5400 X26.029 Y-18.109
G1 F900 X24.389 Y-16.469 E106.78313
G0 F5400 X23.823 Y-16.469
G1 F900 X26.029 Y-18.675 E106.88689
G0 F5400 X26.029 Y-19.241
G1 F900 X23.258 Y-16.469 E107.01725
G0 F5400 X22.692 Y-16.469
G1 F900 X26.029 Y-19.806 E107.17422
G0 F5400 X26.029 Y-20.372
G1 F900 X22.126 Y-16.469 E107.3578
G0 F5400 X21.561 Y-16.469
G1 F900 X26.029 Y-20.938 E107.56799
G0 F5400 X26.029 Y-21.503
G1 F900 X20.995 Y-16.469 E107.80477
G0 F5400 X20.429 Y-16.469
G1 F900 X26.029 Y-22.069 E108.06818
G0 F5400 X26.029 Y-22.635
G1 F900 X19.864 Y-16.469 E108.35818
G0 F5400 X19.298 Y-16.469
G1 F900 X26.029 Y-23.2 E108.67479
G0 F5400 X25.793 Y-23.53
G1 F900 X23.829 Y-21.566 E108.76717
G1 X23.792 Y-21.529
G1 X18.732 Y-16.469 E109.00518
G0 F5400 X18.166 Y-16.469
G1 F900 X23.227 Y-21.529 E109.24321
G0 F5400 X22.661 Y-21.529
G1 F900 X17.601 Y-16.469 E109.48121
G0 F5400 X17.035 Y-16.469
G1 F900 X22.095 Y-21.529 E109.71922
G0 F5400 X21.529 Y-21.529
G1 F900 X16.469 Y-16.469 E109.95723
G0 F5400 X15.904 Y-16.469
G1 F900 X20.964 Y-21.529 E110.19523
G0 F5400 X20.398 Y-21.529
G1 F900 X15.338 Y-16.469 E110.43324
G0 F5400 X14.772 Y-16.469
G1 F900 X19.832 Y-21.529 E110.67125
G0 F5400 X19.267 Y-21.529
G1 F900 X14.207 Y-16.469 E110.90925
G0 F5400 X13.641 Y-16.469
G1 F900 X18.701 Y-21.529 E111.14726
G0 F5400 X18.135 Y-21.529
G1 F900 X13.075 Y-16.469 E111.38527
G0 F5400 X12.51 Y-16.469
G1 F900 X17.57 Y-21.529 E111.62328
G0 F5400 X17.004 Y-21.529
G1 F900 X11.944 Y-16.469 E111.86128
G0 F5400 X11.378 Y-16.469
G1 F900 X16.438 Y-21.529 E112.09929
G0 F5400 X15.873 Y-21.529
G1 F900 X10.813 Y-16.469 E112.3373
G0 F5400 X10.247 Y-16.469
G1 F900 X15.307 Y-21.529 E112.5753
G0 F5400 X14.741 Y-21.529
G1 F900 X9.681 Y-16.469 E112.81331
G0 F5400 X9.116 Y-16.469
G1 F900 X14.176 Y-21.529 E113.05132
G0 F5400 X13.61 Y-21.529
G1 F900 X8.55 Y-16.469 E113.28932
G0 F5400 X7.984 Y-16.469
G1 F900 X13.044 Y-21.529 E113.52733
G0 F5400 X12.479 Y-21.529
G1 F900 X7.418 Y-16.469 E113.76536
G0 F5400 X6.853 Y-16.469
G1 F900 X11.913 Y-21.529 E114.00337
G0 F5400 X11.347 Y-21.529
G1 F900 X6.287 Y-16.469 E114.24137
G0 F5400 X5.721 Y-16.469
G1 F900 X10.781 Y-21.529 E114.47938
G0 F5400 X10.216 Y-21.529
G1 F900 X5.156 Y-16.469 E114.71739
G0 F5400 X4.59 Y-16.469
G1 F900 X9.65 Y-21.529 E114.9554
G0 F5400 X9.084 Y-21.529
G1 F900 X4.024 Y-16.469 E115.1934
G0 F5400 X3.459 Y-16.469
G1 F900 X8.519 Y-21.529 E115.43141
G0 F5400 X7.953 Y-21.529
G1 F900 X2.893 Y-16.469 E115.66942
G0 F5400 X2.327 Y-16.469
G1 F900 X7.387 Y-21.529 E115.90742
G0 F5400 X6.822 Y-21.529
G1 F900 X1.762 Y-16.469 E116.14543
G0 F5400 X1.196 Y-16.469
G1 F900 X6.256 Y-21.529 E116.38344
G0 F5400 X5.69 Y-21.529
G1 F900 X0.63 Y-16.469 E116.62144
G0 F5400 X0.065 Y-16.469
G1 F900 X5.125 Y-21.529 E116.85945
G0 F5400 X4.559 Y-21.529
G1 F900 X-.5 Y-16.469 E117.09743
G0 F5400 X-1.066 Y-16.469
G1 F900 X3.993 Y-21.529 E117.33542
G0 F5400 X3.428 Y-21.529
G1 F900 X-1.632 Y-16.469 E117.57342
G0 F5400 X-2.197 Y-16.469
G1 F900 X2.862 Y-21.529 E117.81141
G0 F5400 X2.296 Y-21.529
G1 F900 X-2.763 Y-16.469 E118.04939
G0 F5400 X-3.329 Y-16.469
G1 F900 X1.73 Y-21.529 E118.28737
G0 F5400 X1.165 Y-21.529
G1 F900 X-3.894 Y-16.469 E118.52536
G0 F5400 X-4.46 Y-16.469
G1 F900 X0.599 Y-21.529 E118.76334
G0 F5400 X0.033 Y-21.529
G1 F900 X-5.026 Y-16.469 E119.00132
G0 F5400 X-5.591 Y-16.469
G1 F900 X-.531 Y-21.529 E119.23933
G0 F5400 X-1.097 Y-21.529
G1 F900 X-6.157 Y-16.469 E119.47734
G0 F5400 X-6.723 Y-16.469
G1 F900 X-1.663 Y-21.529 E119.71534
G0 F5400 X-2.228 Y-21.529
G1 F900 X-7.288 Y-16.469 E119.95335
G0 F5400 X-7.854 Y-16.469
G1 F900 X-2.794 Y-21.529 E120.19136
G0 F5400 X-3.36 Y-21.529
G1 F900 X-8.42 Y-16.469 E120.42937
G0 F5400 X-8.985 Y-16.469
G1 F900 X-3.925 Y-21.529 E120.66737
G0 F5400 X-4.491 Y-21.529
G1 F900 X-9.551 Y-16.469 E120.90538
G0 F5400 X-10.117 Y-16.469
G1 F900 X-5.057 Y-21.529 E121.14339
G0 F5400 X-5.622 Y-21.529
G1 F900 X-10.682 Y-16.469 E121.38139
G0 F5400 X-11.248 Y-16.469
G1 F900 X-6.188 Y-21.529 E121.6194
G0 F5400 X-6.754 Y-21.529
G1 F900 X-11.814 Y-16.469 E121.85741
G0 F5400 X-12.38 Y-16.469
G1 F900 X-7.319 Y-21.529 E122.09544
G0 F5400 X-7.885 Y-21.529
G1 F900 X-12.945 Y-16.469 E122.33344
G0 F5400 X-13.511 Y-16.469
G1 F900 X-8.451 Y-21.529 E122.57145
G0 F5400 X-9.017 Y-21.529
G1 F900 X-14.077 Y-16.469 E122.80946
G0 F5400 X-14.642 Y-16.469
G1 F900 X-9.582 Y-21.529 E123.04746
G0 F5400 X-10.148 Y-21.529
G1 F900 X-15.208 Y-16.469 E123.28547
G0 F5400 X-15.774 Y-16.469
G1 F900 X-10.714 Y-21.529 E123.52348
G0 F5400 X-11.279 Y-21.529
G1 F900 X-16.339 Y-16.469 E123.76149
G0 F5400 X-16.905 Y-16.469
G1 F900 X-11.845 Y-21.529 E123.99949
G0 F5400 X-12.411 Y-21.529
G1 F900 X-17.471 Y-16.469 E124.2375
G0 F5400 X-18.036 Y-16.469
G1 F900 X-12.976 Y-21.529 E124.47551
G0 F5400 X-13.542 Y-21.529
G1 F900 X-18.602 Y-16.469 E124.71351
G0 F5400 X-19.168 Y-16.469
G1 F900 X-14.108 Y-21.529 E124.95152
G0 F5400 X-14.673 Y-21.529
G1 F900 X-19.733 Y-16.469 E125.18953
G0 F5400 X-20.299 Y-16.469
G1 F900 X-15.239 Y-21.529 E125.42753
