;FLAVOR:Marlin
;TIME:6778
;Filament used: 3.3968m
;Layer height: 0.2
;MINX:-27.8
;MINY:-21.4
;MINZ:0.3
;MAXX:29.4
;MAXY:21.4
;MAXZ:11.1
;Generated with Cura_SteamEngine 4.13.1
M140 S65
M105
M190 S65
M104 S200
M105
M109 S200
M82 ;absolute extrusion mode
M190 S65 ; set bed temperature
M104 S190 ; set temperature
G28 ; home all axes
G1 Z100 F9000
M109 S190 ; wait for temperature to be reached
G21 ; set units to millimeters
G90 ; use absolute coordinates
M82 ; use absolute distances for extrusion
G92 E0

G1 Z0.300 F4800.000
G1 X0.000 Y70.000 F4800.000
G1 X40.000 Y50.000 E10.000 F1080.000

G1 Z5 F5000 ; lift nozzle
G1 X0 Y0
G28
G92 E0
G92 E0
G1 F750 E-6.5
;LAYER_COUNT:55
;LAYER:0
M107
G0 F3600 X-23.555 Y21.4 Z0.3
;TYPE:SKIRT
G1 F750 E0
G1 F900 X-23.862 Y21.36 E0.01853
G1 X-24.148 Y21.243 E0.03703
G1 X-24.662 Y20.791 E0.07801
G1 X-24.85 Y20.546 E0.0965
G1 X-24.97 Y20.261 E0.11501
G1 X-25.013 Y19.942 E0.13428
G1 X-25.013 Y-19.942 E2.52207
G1 X-24.973 Y-20.249 E2.5406
G1 X-24.856 Y-20.535 E2.5591
G1 X-24.404 Y-21.049 E2.60008
G1 X-24.159 Y-21.237 E2.61857
G1 X-23.874 Y-21.357 E2.63708
G1 X-23.555 Y-21.4 E2.65635
G1 X27.942 Y-21.4 E5.73939
G1 X28.249 Y-21.36 E5.75792
G1 X28.535 Y-21.243 E5.77642
G1 X29.049 Y-20.791 E5.8174
G1 X29.237 Y-20.546 E5.83589
G1 X29.357 Y-20.261 E5.8544
G1 X29.4 Y-19.942 E5.87367
G1 X29.4 Y19.942 E8.26146
G1 X29.36 Y20.249 E8.27999
G1 X29.243 Y20.535 E8.29849
G1 X28.791 Y21.049 E8.33947
G1 X28.546 Y21.237 E8.35796
G1 X28.261 Y21.357 E8.37647
G1 X27.942 Y21.4 E8.39574
G1 X-23.555 Y21.4 E11.47878
G0 F3600 X-23.555 Y20.92
G1 F900 X-23.791 Y20.88 E11.49311
G1 X-24.064 Y20.709 E11.5124
G1 X-24.461 Y20.256 E11.54846
G1 X-24.533 Y19.942 E11.56774
G1 X-24.533 Y-19.942 E13.95553
G1 X-24.493 Y-20.178 E13.96986
G1 X-24.322 Y-20.451 E13.98914
G1 X-23.869 Y-20.848 E14.02521
G1 X-23.555 Y-20.92 E14.04449
G1 X27.942 Y-20.92 E17.12753
G1 X28.178 Y-20.88 E17.14186
G1 X28.451 Y-20.709 E17.16114
G1 X28.848 Y-20.256 E17.1972
G1 X28.92 Y-19.942 E17.21649
G1 X28.92 Y19.942 E19.60428
G1 X28.88 Y20.178 E19.61861
G1 X28.709 Y20.451 E19.63789
G1 X28.256 Y20.848 E19.67395
G1 X27.942 Y20.92 E19.69324
G1 X-23.555 Y20.92 E22.77627
G0 F3600 X-23.555 Y20.44
G1 F900 X-23.725 Y20.37 E22.78728
G1 X-23.983 Y20.112 E22.80913
G1 X-24.053 Y19.942 E22.82013
G1 X-24.053 Y-19.942 E25.20792
G1 X-23.983 Y-20.112 E25.21892
G1 X-23.725 Y-20.37 E25.24077
G1 X-23.555 Y-20.44 E25.25177
G1 X27.942 Y-20.44 E28.33481
G1 X28.112 Y-20.37 E28.34582
G1 X28.37 Y-20.112 E28.36766
G1 X28.44 Y-19.942 E28.37867
G1 X28.44 Y19.942 E30.76645
G1 X28.37 Y20.112 E30.77746
G1 X28.112 Y20.37 E30.7993
G1 X27.942 Y20.44 E30.81031
G1 X-23.555 Y20.44 E33.89334
G1 F750 E27.39334
G0 F3600 X-8.48 Y16.179
;TYPE:SUPPORT
G1 F750 E33.89334
G1 F900 X-8.544 Y15.926 E33.90897
G1 X-8.523 Y15.673 E33.92417
G1 X-8.418 Y15.434 E33.93979
G1 X-8.246 Y15.248 E33.95496
G1 X-8.018 Y15.123 E33.97053
G1 X-7.764 Y15.081 E33.98594
G1 X-7.51 Y15.123 E34.00135
G1 X-7.282 Y15.248 E34.01692
G1 X-7.11 Y15.434 E34.03209
G1 X-7.005 Y15.673 E34.04772
G1 X-6.984 Y15.926 E34.06291
G1 X-7.048 Y16.179 E34.07854
G1 X-7.191 Y16.397 E34.09415
G1 X-7.389 Y16.552 E34.1092
G1 X-7.634 Y16.636 E34.12471
G1 X-7.894 Y16.636 E34.14027
G1 X-8.139 Y16.552 E34.15578
G1 X-8.337 Y16.397 E34.17083
G1 X-8.48 Y16.179 E34.18644
G1 X-8.339 Y16
G1 X-7.188 Y16 E34.25535
G0 F3600 X-8 Y16.408
G1 F900 X-8 Y15.318 E34.32061
G1 F750 E27.82061
G0 F3600 X-4.55 Y12.887
G1 F750 E34.32061
G1 F900 X-5.746 Y11.595 E34.42601
G1 X-5.821 Y11.5 E34.43326
G1 X-6.866 Y10.107 E34.53751
G1 X-6.933 Y10.003 E34.54492
G1 X-7.828 Y8.51 E34.64913
G1 X-7.881 Y8.406 E34.65612
G1 X-8.611 Y6.845 E34.75929
G1 X-8.651 Y6.739 E34.76607
G1 X-9.235 Y5.063 E34.87233
G1 X-9.264 Y4.953 E34.87914
G1 X-9.664 Y3.253 E34.98369
G1 X-9.68 Y3.149 E34.98999
G1 X-9.901 Y1.433 E35.09357
G1 X-9.909 Y1.298 E35.10167
G1 X-9.953 Y-.429 E35.2051
G1 X-9.948 Y-.54 E35.21175
G1 X-9.815 Y-2.275 E35.31592
G1 X-9.798 Y-2.381 E35.32235
G1 X-9.481 Y-4.122 E35.4283
G1 X-9.458 Y-4.216 E35.43409
G1 X-8.97 Y-5.894 E35.53871
G1 X-8.932 Y-5.994 E35.54512
G1 X-8.268 Y-7.631 E35.65087
G1 X-7.389 Y-9.285 E35.76301
G1 X-6.356 Y-10.825 E35.87403
G1 X-5.175 Y-12.243 E35.98451
G1 X-3.826 Y-13.561 E36.09742
G1 X-3.754 Y-13.621 E36.10303
G1 X-2.383 Y-14.706 E36.2077
G1 X-.796 Y-15.714 E36.32026
G1 X-.716 Y-15.757 E36.3257
G1 X0.86 Y-16.544 E36.43116
G1 X0.955 Y-16.582 E36.43729
G1 X2.605 Y-17.202 E36.54281
G1 X4.393 Y-17.674 E36.65352
G1 X6.243 Y-17.962 E36.76561
G1 X8.081 Y-18.057 E36.8758
G1 X9.959 Y-17.961 E36.98838
G1 X11.808 Y-17.673 E37.10041
G1 X13.586 Y-17.205 E37.21048
G1 X15.26 Y-16.575 E37.31756
G1 X15.341 Y-16.542 E37.3228
G1 X16.999 Y-15.714 E37.43375
G1 X18.577 Y-14.71 E37.54572
G1 X20.017 Y-13.568 E37.65575
G1 X21.363 Y-12.255 E37.76833
G1 X22.543 Y-10.84 E37.87863
G1 X23.575 Y-9.307 E37.98927
G1 X24.461 Y-7.645 E38.10202
G1 X25.152 Y-5.944 E38.21194
G1 X25.674 Y-4.161 E38.32317
G1 X26.01 Y-2.32 E38.4352
G1 X26.013 Y-2.301 E38.43636
G1 X26.153 Y-.488 E38.54522
G1 X26.104 Y1.388 E38.65757
G1 X25.868 Y3.22 E38.76816
G1 X25.441 Y5.04 E38.88008
G1 X24.842 Y6.765 E38.9894
G1 X24.799 Y6.871 E38.99625
G1 X24.07 Y8.432 E39.09939
G1 X24.022 Y8.521 E39.10544
G1 X23.123 Y10.02 E39.21009
G1 X23.056 Y10.12 E39.21729
G1 X22.008 Y11.518 E39.3219
G1 X21.939 Y11.602 E39.3284
G1 X20.743 Y12.894 E39.43381
G1 X20.665 Y12.971 E39.44037
G1 X19.362 Y14.115 E39.54418
G1 X19.277 Y14.183 E39.55069
G1 X17.828 Y15.214 E39.65716
G1 X17.769 Y15.252 E39.66136
G1 X16.228 Y16.125 E39.76739
G1 X16.142 Y16.17 E39.77321
G1 X14.537 Y16.871 E39.87806
G1 X14.448 Y16.907 E39.88381
G1 X12.694 Y17.465 E39.994
G1 X10.876 Y17.845 E40.10519
G1 X9.026 Y18.035 E40.21653
G1 X7.175 Y18.035 E40.32735
G1 X5.323 Y17.844 E40.43881
G1 X3.507 Y17.465 E40.54988
G1 X1.749 Y16.905 E40.66034
G1 X1.657 Y16.868 E40.66627
G1 X0.058 Y16.169 E40.77075
G1 X-0.035 Y16.121 E40.77701
G1 X-1.584 Y15.243 E40.88361
G1 X-3.085 Y14.178 E40.9938
G1 X-3.156 Y14.12 E40.99928
G1 X-4.485 Y12.953 E41.10517
G1 X-4.55 Y12.887 E41.11072
G0 F3600 X-4 Y13.14
G1 F900 X-4 Y-13.139 E42.68399
G0 F3600 X-5.142 Y-12
G1 F900 X21.342 Y-11.999 E44.26954
G0 F3600 X20 Y-13.332
G1 F900 X20 Y13.316 E45.86491
G0 F3600 X21.324 Y12
G1 F900 X-5.126 Y12 E47.44843
G1 F750 E40.94843
G0 F3600 X-7.872 Y7.999
G1 F750 E47.44843
G1 F900 X24.073 Y8 E49.36092
G1 X24 Y8.159
G1 X24 Y-8.124 E50.33575
G1 X24.067 Y-7.999
G1 X-7.865 Y-8 E52.24747
G0 F3600 X-8 Y-7.75
G1 F900 X-8 Y7.726 E53.17399
G1 F750 E46.67399
G0 F3600 X-9.303 Y3.999
G1 F750 E53.17399
G1 F900 X25.499 Y4 E55.25752
G1 F750 E48.75752
G0 F3600 X25.96 Y0.00
G1 F750 E55.25752
G1 F900 X-9.763 Y0.00 E57.3962
G1 F750 E50.8962
G0 F3600 X-9.32 Y-4
G1 F750 E57.3962
G1 F900 X25.521 Y-3.999 E59.48206
G1 F750 E52.98206
G0 F3600 X16.023 Y-15.999
G1 F750 E59.48206
G1 F900 X0.173 Y-16 E60.43098
G1 X0.00 Y-15.914
G1 X0.00 Y15.934 E62.33766
G1 X0.121 Y16
G1 X16.074 Y16 E63.29274
G1 X16 Y16.036
G1 X16 Y-16.011 E65.21134
G1 F750 E58.71134
G0 F3600 X12 Y-17.436
G1 F750 E65.21134
G1 F900 X12 Y17.426 E67.29846
G1 F750 E60.79846
G0 F3600 X8 Y17.855
G1 F750 E67.29846
G1 F900 X8 Y-17.872 E69.43738
G1 F750 E62.93738
G0 F3600 X4 Y-17.385
G1 F750 E69.43738
G1 F900 X4 Y17.383 E71.51887
G1 F750 E65.01887
G0 F3600 X-7.391 Y-15.11
G1 F750 E71.51887
G1 F900 X-7.637 Y-15.025 E71.53446
G1 X-7.89 Y-15.026 E71.5496
G1 X-8.138 Y-15.111 E71.5653
G1 X-8.343 Y-15.272 E71.5809
G1 X-8.484 Y-15.484 E71.59615
G1 X-8.547 Y-15.738 E71.61181
G1 X-8.525 Y-15.989 E71.6269
G1 X-8.419 Y-16.232 E71.64277
G1 X-8.246 Y-16.42 E71.65807
G1 X-8.021 Y-16.542 E71.67339
G1 X-7.767 Y-16.584 E71.6888
G1 X-7.506 Y-16.54 E71.70465
G1 X-7.281 Y-16.419 E71.71994
G1 X-7.108 Y-16.231 E71.73524
G1 X-7.004 Y-15.994 E71.75073
G1 X-6.982 Y-15.738 E71.76612
G1 X-7.046 Y-15.485 E71.78174
G1 X-7.188 Y-15.269 E71.79722
G1 X-7.391 Y-15.11 E71.81265
G0 F3600 X-8 Y-15.255
G1 F900 X-8 Y-16.349 E71.87815
G0 F3600 X-8.322 Y-16
G1 F900 X-7.202 Y-16 E71.9452
G1 F750 E65.4452
G0 F3600 X23.056 Y-15.734
G1 F750 E71.9452
G1 F900 X23.079 Y-16.009 E71.96172
G1 X23.191 Y-16.264 E71.9784
G1 X23.379 Y-16.468 E71.995
G1 X23.623 Y-16.599 E72.01158
G1 X23.9 Y-16.646 E72.02841
G1 X24.177 Y-16.599 E72.04523
G1 X24.421 Y-16.468 E72.06181
G1 X24.609 Y-16.264 E72.07841
G1 X24.721 Y-16.009 E72.09509
G1 X24.744 Y-15.734 E72.11161
G1 X24.674 Y-15.458 E72.12866
G1 X24.521 Y-15.225 E72.14534
G1 X24.303 Y-15.054 E72.16193
G1 X24.041 Y-14.965 E72.1785
G1 X23.759 Y-14.965 E72.19538
G1 X23.497 Y-15.054 E72.21195
G1 X23.279 Y-15.225 E72.22853
G1 X23.126 Y-15.458 E72.24522
G1 X23.056 Y-15.734 E72.26227
G0 F3600 X23.273 Y-15.999
G1 F900 X24.528 Y-15.999 E72.3374
G0 F3600 X24 Y-16.446
G1 F900 X24 Y-15.145 E72.41529
G1 F750 E65.91529
G0 F3600 X23.9 Y15.081
G1 F750 E72.41529
G1 F900 X24.154 Y15.123 E72.4307
G1 X24.382 Y15.248 E72.44627
G1 X24.554 Y15.434 E72.46144
G1 X24.659 Y15.673 E72.47707
G1 X24.68 Y15.926 E72.49227
G1 X24.616 Y16.179 E72.50789
G1 X24.473 Y16.397 E72.5235
G1 X24.275 Y16.552 E72.53855
G1 X24.03 Y16.636 E72.55406
G1 X23.77 Y16.636 E72.56962
G1 X23.525 Y16.552 E72.58513
G1 X23.327 Y16.397 E72.60018
G1 X23.184 Y16.179 E72.61579
G1 X23.12 Y15.926 E72.63142
G1 X23.141 Y15.673 E72.64661
G1 X23.246 Y15.434 E72.66224
G1 X23.418 Y15.248 E72.67741
G1 X23.646 Y15.123 E72.69298
G1 X23.9 Y15.081 E72.70839
G1 X24 Y15.281
G1 X24 Y16.456 E72.77873
G0 F3600 X24.475 Y16
G1 F900 X23.324 Y16 E72.84764
G1 F750 E66.34764
;MESH:Print Fan Mount.3mf
G0 F3600 X21.907 Y16.355
G0 X20.897 Y16.563
G0 X14.883 Y18.153
G0 X13.021 Y18.745
G0 X11.075 Y19.151
G0 X9.472 Y19.314
G0 X7.102 Y19.414
G1 F750 E72.84764
G0 F3600 X7.112 Y19.215
;TYPE:WALL-OUTER
G1 F900 X9.088 Y19.215 E72.96594
G1 X11.054 Y19.013 E73.08426
G1 X12.987 Y18.61 E73.20248
G1 X13.103 Y18.575 E73.20973
G1 X14.836 Y18.022 E73.31864
G1 X14.98 Y17.965 E73.32791
G1 X16.649 Y17.236 E73.43694
G1 X16.788 Y17.164 E73.44632
G1 X18.373 Y16.267 E73.55535
G1 X18.503 Y16.182 E73.56465
G1 X19.988 Y15.126 E73.67374
G1 X20.109 Y15.029 E73.68302
G1 X21.477 Y13.828 E73.79201
G1 X21.588 Y13.718 E73.80136
G1 X22.824 Y12.382 E73.91033
G1 X22.924 Y12.262 E73.91968
G1 X24.016 Y10.807 E74.02859
G1 X24.104 Y10.677 E74.03799
G1 X25.042 Y9.115 E74.14707
G1 X25.116 Y8.978 E74.15639
G1 X25.887 Y7.329 E74.26537
G1 X25.946 Y7.184 E74.27474
G1 X26.564 Y5.406 E74.38744
G1 X26.579 Y5.357 E74.3905
G1 X27.03 Y3.436 E74.50864
G1 X27.283 Y1.473 E74.62713
G1 X27.334 Y-.504 E74.74553
G1 X27.281 Y-1.206 E74.78768
G1 X27.186 Y-2.431 E74.86124
G1 X27.179 Y-2.483 E74.86438
G1 X26.825 Y-4.424 E74.9825
G1 X26.269 Y-6.33 E75.10136
G1 X25.524 Y-8.162 E75.21976
G1 X24.594 Y-9.907 E75.33814
G1 X23.489 Y-11.547 E75.45654
G1 X22.224 Y-13.065 E75.57484
G1 X20.809 Y-14.445 E75.69317
G1 X19.259 Y-15.674 E75.81159
G1 X17.593 Y-16.734 E75.92981
G1 X17.455 Y-16.806 E75.93913
G1 X15.826 Y-17.62 E76.04815
G1 X15.682 Y-17.678 E76.05745
G1 X13.957 Y-18.327 E76.16779
G1 X12.046 Y-18.83 E76.28609
G1 X10.101 Y-19.134 E76.40395
G1 X10.049 Y-19.139 E76.40708
G1 X8.081 Y-19.24 E76.52505
G1 X6.152 Y-19.14 E76.64069
G1 X6.1 Y-19.135 E76.64382
G1 X4.155 Y-18.831 E76.76168
G1 X2.243 Y-18.327 E76.88006
G1 X0.519 Y-17.679 E76.99032
G1 X0.37 Y-17.619 E76.99993
G1 X-1.259 Y-16.805 E77.10896
G1 X-1.4 Y-16.73 E77.11852
G1 X-2.938 Y-15.753 E77.2276
G1 X-3.072 Y-15.665 E77.2372
G1 X-4.5 Y-14.535 E77.34622
G1 X-4.624 Y-14.432 E77.35587
G1 X-5.928 Y-13.16 E77.46493
G1 X-6.041 Y-13.047 E77.4745
G1 X-7.208 Y-11.648 E77.58357
G1 X-7.309 Y-11.522 E77.59324
G1 X-8.324 Y-10.011 E77.70221
G1 X-8.412 Y-9.876 E77.71186
G1 X-9.267 Y-8.268 E77.82089
G1 X-9.34 Y-8.125 E77.8305
G1 X-10.025 Y-6.437 E77.93957
G1 X-10.083 Y-6.286 E77.94925
G1 X-10.592 Y-4.538 E78.05825
G1 X-10.633 Y-4.382 E78.0679
G1 X-10.959 Y-2.592 E78.17683
G1 X-10.985 Y-2.434 E78.18642
G1 X-11.126 Y-.617 E78.29552
G1 X-11.134 Y-.456 E78.30517
G1 X-11.088 Y1.365 E78.41423
G1 X-11.079 Y1.525 E78.42382
G1 X-10.846 Y3.331 E78.53284
G1 X-10.821 Y3.49 E78.54248
G1 X-10.403 Y5.263 E78.65153
G1 X-10.362 Y5.418 E78.66113
G1 X-9.762 Y7.139 E78.77025
G1 X-9.705 Y7.289 E78.77985
G1 X-8.934 Y8.939 E78.88889
G1 X-8.861 Y9.083 E78.89855
G1 X-7.924 Y10.644 E79.00755
G1 X-7.837 Y10.779 E79.01717
G1 X-6.744 Y12.235 E79.12616
G1 X-6.643 Y12.361 E79.13583
G1 X-5.406 Y13.698 E79.24488
G1 X-5.293 Y13.813 E79.25453
G1 X-3.926 Y15.013 E79.36343
G1 X-3.803 Y15.116 E79.37304
G1 X-2.317 Y16.172 E79.48218
G1 X-2.182 Y16.261 E79.49186
G1 X-.598 Y17.158 E79.60084
G1 X-.456 Y17.232 E79.61042
G1 X1.214 Y17.962 E79.71954
G1 X1.363 Y18.021 E79.72913
G1 X3.166 Y18.596 E79.84243
G1 X3.214 Y18.609 E79.84541
G1 X5.145 Y19.012 E79.9635
G1 X7.112 Y19.215 E80.08189
G0 F3600 X7.312 Y19.215
G1 F750 E73.58189
G0 F3600 X7.312 Y19.415
G0 X-6.221 Y18.602
G0 X-7.438 Y18.016
G1 F750 E80.08189
G0 F3600 X-7.438 Y17.816
G1 F900 X-6.822 Y17.605 E80.12087
G1 X-6.308 Y17.205 E80.15987
G1 X-5.951 Y16.659 E80.19892
G1 X-5.792 Y16.027 E80.23794
G1 X-5.845 Y15.378 E80.27692
G1 X-6.107 Y14.781 E80.31595
G1 X-6.549 Y14.302 E80.35497
G1 X-7.121 Y13.992 E80.39392
G1 X-7.764 Y13.885 E80.43295
G1 X-8.407 Y13.992 E80.47197
G1 X-8.979 Y14.302 E80.51092
G1 X-9.421 Y14.781 E80.54994
G1 X-9.683 Y15.378 E80.58897
G1 X-9.736 Y16.027 E80.62796
G1 X-9.577 Y16.659 E80.66697
G1 X-9.22 Y17.205 E80.70603
G1 X-8.706 Y17.605 E80.74502
G1 X-8.09 Y17.816 E80.784
G1 X-7.438 Y17.816 E80.82304
G0 F3600 X-7.249 Y17.752
G1 F750 E74.32304
G0 F3600 X-7.185 Y17.94
G0 X-9.307 Y18.602
G0 X-23.203 Y19.59
G1 F750 E80.82304
G0 F3600 X-23.373 Y19.76
G1 F900 X-23.373 Y-19.76 E83.18903
G1 X27.76 Y-19.76 E86.25027
G1 X27.76 Y-1.208 E87.36095
G1 X27.76 Y-.504 E87.40073
G1 X27.76 Y1.473 E87.51206
G1 X27.76 Y19.76 E88.60687
G1 X-23.373 Y19.76 E91.66812
G0 F3600 X-23.373 Y19.56
G1 F750 E85.16812
G0 F3600 X-23.173 Y19.56
G0 X-9.307 Y18.602
G0 X-10.38 Y14.153
G0 X-7.811 Y12.726
G0 X-12.219 Y1.413
G0 X-11.782 Y-4.537
G0 X-7.839 Y-12.692
G0 X-7.479 Y-13.646
G1 F750 E91.66812
G0 F3600 X-7.478 Y-13.845
G1 F900 X-7.396 Y-13.86 E91.67311
G1 X-6.86 Y-14.044 E91.70703
G1 X-6.787 Y-14.084 E91.71202
G1 X-6.342 Y-14.431 E91.7458
G1 X-6.285 Y-14.492 E91.7508
G1 X-5.974 Y-14.967 E91.78479
G1 X-5.939 Y-15.044 E91.78985
G1 X-5.801 Y-15.594 E91.8238
G1 X-5.793 Y-15.677 E91.82879
G1 X-5.84 Y-16.244 E91.86285
G1 X-5.861 Y-16.325 E91.86786
G1 X-6.088 Y-16.844 E91.90178
G1 X-6.134 Y-16.915 E91.90684
G1 X-6.518 Y-17.333 E91.94082
G1 X-6.585 Y-17.384 E91.94587
G1 X-7.083 Y-17.654 E91.97978
G1 X-7.162 Y-17.681 E91.98478
G1 X-7.72 Y-17.773 E92.01864
G1 X-7.802 Y-17.774 E92.02355
G1 X-8.365 Y-17.682 E92.0577
G1 X-8.444 Y-17.655 E92.0627
G1 X-8.942 Y-17.385 E92.09661
G1 X-9.009 Y-17.334 E92.10165
G1 X-9.393 Y-16.916 E92.13563
G1 X-9.439 Y-16.845 E92.1407
G1 X-9.666 Y-16.326 E92.17461
G1 X-9.687 Y-16.246 E92.17956
G1 X-9.735 Y-15.681 E92.21351
G1 X-9.729 Y-15.598 E92.21849
G1 X-9.59 Y-15.045 E92.25263
G1 X-9.555 Y-14.968 E92.25769
G1 X-9.244 Y-14.493 E92.29168
G1 X-9.187 Y-14.432 E92.29668
G1 X-8.742 Y-14.085 E92.33047
G1 X-8.669 Y-14.045 E92.33545
G1 X-8.133 Y-13.861 E92.36938
G1 X-8.051 Y-13.846 E92.37437
G1 X-7.478 Y-13.845 E92.40867
G0 F3600 X-7.396 Y-13.86
G0 X-7.286 Y-13.898
G1 F750 E85.90867
G0 F3600 X-7.222 Y-13.709
G0 X-1.323 Y-16.929
G0 X0.469 Y-17.809
G0 X2.201 Y-18.46
G0 X4.126 Y-18.968
G0 X6.142 Y-19.279
G0 X8.081 Y-19.38
G0 X10.119 Y-19.272
G0 X12.075 Y-18.967
G0 X13.999 Y-18.46
G0 X15.883 Y-17.747
G0 X17.662 Y-16.855
G0 X19.34 Y-15.788
G0 X23.499 Y-13.597
G1 F750 E92.40867
G0 F3600 X23.564 Y-13.785
G1 F900 X24.236 Y-13.785 E92.4489
G1 X24.873 Y-14.003 E92.48921
G1 X25.403 Y-14.416 E92.52944
G1 X25.771 Y-14.979 E92.56971
G1 X25.936 Y-15.631 E92.60997
G1 X25.881 Y-16.302 E92.65028
G1 X25.611 Y-16.918 E92.69054
G1 X25.155 Y-17.412 E92.73079
G1 X24.563 Y-17.732 E92.77108
G1 X23.9 Y-17.843 E92.81132
G1 X23.237 Y-17.732 E92.85157
G1 X22.645 Y-17.412 E92.89186
G1 X22.189 Y-16.918 E92.93211
G1 X21.919 Y-16.302 E92.97237
G1 X21.864 Y-15.631 E93.01268
G1 X22.029 Y-14.979 E93.05294
G1 X22.397 Y-14.416 E93.09321
G1 X22.927 Y-14.003 E93.13344
G1 X23.564 Y-13.785 E93.17374
G0 F3600 X23.764 Y-13.785
G1 F750 E86.67374
