;FLAVOR:Marlin
;TIME:8669
;Filament used: 4.55832m
;Layer height: 0.2
;MINX:-36.42
;MINY:-47.04
;MINZ:0.3
;MAXX:32.438
;MAXY:45.529
;MAXZ:38.9
;Generated with Cura_SteamEngine 4.13.1
M140 S65
M105
M190 S65
M104 S200
M105
M109 S200
M82 ;absolute extrusion mode
M190 S65 ; set bed temperature
M104 S190 ; set temperature
G28 ; home all axes
G1 Z100 F9000
M109 S190 ; wait for temperature to be reached
G21 ; set units to millimeters
G90 ; use absolute coordinates
M82 ; use absolute distances for extrusion
G92 E0

G1 Z0.300 F4800.000
G1 X0.000 Y70.000 F4800.000
G1 X40.000 Y50.000 E10.000 F1080.000

G1 Z5 F5000 ; lift nozzle
G92 E0
G92 E0
G1 F750 E-6.5
;LAYER_COUNT:194
;LAYER:0
M107
G0 F3600 X9.761 Y-29.95 Z0.3
;TYPE:SKIRT
G1 F750 E0
G1 F900 X9.421 Y-30.086 E0.02192
G1 X9.118 Y-30.292 E0.04386
G1 X8.868 Y-30.559 E0.06576
G1 X8.681 Y-30.874 E0.08769
G1 X8.567 Y-31.222 E0.10961
G1 X8.531 Y-31.568 E0.13044
G1 X8.531 Y-32.26 E0.17187
G1 X8.571 Y-32.624 E0.19379
G1 X8.689 Y-32.97 E0.21568
G1 X8.879 Y-33.283 E0.2376
G1 X9.132 Y-33.548 E0.25953
G1 X9.436 Y-33.751 E0.28142
G1 X9.778 Y-33.883 E0.30336
G1 X10.211 Y-33.94 E0.32951
G1 X19.531 Y-33.94 E0.88748
G1 X19.531 Y-45.36 E1.57118
G1 X19.571 Y-45.724 E1.5931
G1 X19.689 Y-46.07 E1.61499
G1 X19.879 Y-46.383 E1.63691
G1 X20.132 Y-46.648 E1.65884
G1 X20.436 Y-46.851 E1.68073
G1 X20.778 Y-46.983 E1.70267
G1 X21.211 Y-47.04 E1.72882
G1 X30.145 Y-47.04 E2.26368
G1 X30.509 Y-47 E2.28561
G1 X30.855 Y-46.882 E2.30749
G1 X31.168 Y-46.692 E2.32941
G1 X31.433 Y-46.439 E2.35135
G1 X31.636 Y-46.135 E2.37323
G1 X31.768 Y-45.793 E2.39518
G1 X31.825 Y-45.36 E2.42133
G1 X31.825 Y-30.663 E3.30121
G1 X31.785 Y-30.299 E3.32313
G1 X31.667 Y-29.953 E3.34502
G1 X31.477 Y-29.64 E3.36694
G1 X31.224 Y-29.375 E3.38887
G1 X30.92 Y-29.172 E3.41076
G1 X30.578 Y-29.04 E3.43271
G1 X30.145 Y-28.983 E3.45885
G1 X13.497 Y-28.985 E4.45554
G1 X13.133 Y-29.025 E4.47746
G1 X12.662 Y-29.207 E4.50769
G1 X12.082 Y-29.516 E4.54704
G1 X11.229 Y-29.788 E4.60064
G1 X10.797 Y-29.854 E4.6268
G1 X10.122 Y-29.89 E4.66727
G1 X9.761 Y-29.95 E4.68918
G0 F3600 X9.843 Y-30.426
G1 F900 X9.564 Y-30.558 E4.70766
G1 X9.327 Y-30.757 E4.72618
G1 X9.149 Y-31.009 E4.74465
G1 X9.041 Y-31.299 E4.76318
G1 X9.011 Y-31.568 E4.77939
G1 X9.011 Y-32.26 E4.82081
G1 X9.051 Y-32.567 E4.83935
G1 X9.168 Y-32.853 E4.85785
G1 X9.354 Y-33.1 E4.87636
G1 X9.597 Y-33.291 E4.89486
G1 X9.881 Y-33.414 E4.91339
G1 X10.211 Y-33.46 E4.93334
G1 X20.011 Y-33.46 E5.52005
G1 X20.011 Y-45.36 E6.23248
G1 X20.051 Y-45.667 E6.25102
G1 X20.168 Y-45.953 E6.26952
G1 X20.354 Y-46.2 E6.28803
G1 X20.597 Y-46.391 E6.30653
G1 X20.881 Y-46.514 E6.32506
G1 X21.211 Y-46.56 E6.34501
G1 X30.145 Y-46.56 E6.87987
G1 X30.452 Y-46.52 E6.89841
G1 X30.738 Y-46.403 E6.9169
G1 X30.985 Y-46.217 E6.93542
G1 X31.176 Y-45.974 E6.95392
G1 X31.299 Y-45.69 E6.97245
G1 X31.345 Y-45.36 E6.9924
G1 X31.345 Y-30.663 E7.87228
G1 X31.305 Y-30.356 E7.89081
G1 X31.188 Y-30.07 E7.90931
G1 X31.002 Y-29.823 E7.92783
G1 X30.759 Y-29.632 E7.94633
G1 X30.475 Y-29.509 E7.96486
G1 X30.145 Y-29.463 E7.98481
G1 X13.497 Y-29.465 E8.98149
G1 X13.19 Y-29.505 E9.00003
G1 X12.573 Y-29.811 E9.04126
G1 X11.817 Y-30.129 E9.09036
G1 X11.328 Y-30.258 E9.12064
G1 X10.836 Y-30.333 E9.15043
G1 X10.147 Y-30.37 E9.19174
G1 X9.843 Y-30.426 E9.21025
G0 F3600 X9.939 Y-30.901
G1 F900 X9.736 Y-31.027 E9.22455
G1 X9.585 Y-31.212 E9.23885
G1 X9.491 Y-31.568 E9.26089
G1 X9.491 Y-32.26 E9.30232
G1 X9.531 Y-32.496 E9.31665
G1 X9.646 Y-32.706 E9.33099
G1 X9.823 Y-32.866 E9.34527
G1 X10.043 Y-32.96 E9.35959
G1 X10.211 Y-32.98 E9.36972
G1 X20.491 Y-32.98 E9.98517
G1 X20.491 Y-45.36 E10.72634
G1 X20.531 Y-45.596 E10.74067
G1 X20.646 Y-45.806 E10.755
G1 X20.823 Y-45.966 E10.76929
G1 X21.043 Y-46.06 E10.78361
G1 X21.211 Y-46.08 E10.79374
G1 X30.145 Y-46.08 E11.3286
G1 X30.381 Y-46.04 E11.34293
G1 X30.591 Y-45.925 E11.35726
G1 X30.751 Y-45.748 E11.37155
G1 X30.845 Y-45.528 E11.38587
G1 X30.865 Y-45.36 E11.396
G1 X30.865 Y-30.663 E12.27588
G1 X30.825 Y-30.427 E12.29021
G1 X30.71 Y-30.217 E12.30455
G1 X30.533 Y-30.057 E12.31883
G1 X30.313 Y-29.963 E12.33316
G1 X30.145 Y-29.943 E12.34328
G1 X13.497 Y-29.945 E13.33997
G1 X13.139 Y-30.04 E13.36215
G1 X12.456 Y-30.401 E13.4084
G1 X11.954 Y-30.59 E13.44051
G1 X11.436 Y-30.726 E13.47257
G1 X10.884 Y-30.811 E13.50601
G1 X10.173 Y-30.849 E13.54864
G1 X9.939 Y-30.901 E13.56299
G0 F3600 X10.198 Y-31.328
G1 F900 X10.069 Y-31.374 E13.57119
G1 X9.971 Y-31.568 E13.5842
G1 X9.971 Y-32.26 E13.62563
G1 X10.01 Y-32.391 E13.63381
G1 X10.115 Y-32.48 E13.64205
G1 X10.211 Y-32.5 E13.64792
G1 X20.971 Y-32.5 E14.2921
G1 X20.971 Y-45.36 E15.06201
G1 X21.01 Y-45.491 E15.07019
G1 X21.115 Y-45.58 E15.07843
G1 X21.211 Y-45.6 E15.0843
G1 X30.145 Y-45.6 E15.61917
G1 X30.276 Y-45.561 E15.62735
G1 X30.365 Y-45.456 E15.63559
G1 X30.385 Y-45.36 E15.64146
G1 X30.385 Y-30.663 E16.52134
G1 X30.346 Y-30.532 E16.52953
G1 X30.241 Y-30.443 E16.53777
G1 X30.145 Y-30.423 E16.54364
G1 X13.497 Y-30.425 E17.54033
G1 X13.036 Y-30.653 E17.57112
G1 X12.649 Y-30.841 E17.59687
G1 X12.106 Y-31.046 E17.63162
G1 X11.524 Y-31.199 E17.66765
G1 X10.943 Y-31.288 E17.70284
G1 X10.198 Y-31.328 E17.7475
G1 F750 E11.2475
G0 F3600 X12.992 Y-22.157
G1 F750 E17.7475
G1 F900 X13.496 Y-22.234 E17.77803
G1 X19.453 Y-22.234 E18.13466
G1 X30.145 Y-22.239 E18.77477
G1 X30.509 Y-22.199 E18.7967
G1 X30.855 Y-22.081 E18.81858
G1 X31.168 Y-21.891 E18.8405
G1 X31.433 Y-21.638 E18.86244
G1 X31.636 Y-21.334 E18.88432
G1 X31.768 Y-20.992 E18.90627
G1 X31.825 Y-20.559 E18.93242
G1 X31.825 Y-5.86 E19.81242
G1 X31.785 Y-5.496 E19.83434
G1 X31.667 Y-5.15 E19.85623
G1 X31.477 Y-4.837 E19.87815
G1 X31.224 Y-4.572 E19.90009
G1 X30.92 Y-4.369 E19.92197
G1 X30.578 Y-4.237 E19.94392
G1 X30.145 Y-4.18 E19.97006
G1 X21.211 Y-4.18 E20.50493
G1 X20.847 Y-4.22 E20.52685
G1 X20.501 Y-4.338 E20.54874
G1 X20.188 Y-4.528 E20.57066
G1 X19.923 Y-4.781 E20.59259
G1 X19.72 Y-5.085 E20.61448
G1 X19.588 Y-5.427 E20.63642
G1 X19.531 Y-5.86 E20.66257
G1 X19.531 Y-17.28 E21.34627
G1 X10.211 Y-17.28 E21.90424
G1 X9.847 Y-17.32 E21.92616
G1 X9.501 Y-17.438 E21.94805
G1 X9.188 Y-17.628 E21.96997
G1 X8.923 Y-17.881 E21.9919
G1 X8.72 Y-18.185 E22.01379
G1 X8.588 Y-18.527 E22.03573
G1 X8.531 Y-18.96 E22.06188
G1 X8.531 Y-19.653 E22.10337
G1 X8.571 Y-20.017 E22.12529
G1 X8.689 Y-20.363 E22.14718
G1 X8.879 Y-20.676 E22.1691
G1 X9.132 Y-20.941 E22.19103
G1 X9.436 Y-21.144 E22.21292
G1 X9.778 Y-21.276 E22.23487
G1 X10.126 Y-21.331 E22.25596
G1 X10.811 Y-21.366 E22.29702
G1 X11.654 Y-21.543 E22.34859
G1 X12.355 Y-21.836 E22.39408
G1 X12.992 Y-22.157 E22.43678
G0 F3600 X13.182 Y-21.712
G1 F900 X13.496 Y-21.754 E22.45575
G1 X19.453 Y-21.754 E22.81238
G1 X30.145 Y-21.759 E23.45249
G1 X30.452 Y-21.719 E23.47103
G1 X30.738 Y-21.602 E23.48953
G1 X30.985 Y-21.416 E23.50804
G1 X31.176 Y-21.173 E23.52654
G1 X31.299 Y-20.889 E23.54507
G1 X31.345 Y-20.559 E23.56502
G1 X31.345 Y-5.86 E24.44502
G1 X31.305 Y-5.553 E24.46356
G1 X31.188 Y-5.267 E24.48206
G1 X31.002 Y-5.02 E24.50057
G1 X30.759 Y-4.829 E24.51907
G1 X30.475 Y-4.706 E24.5376
G1 X30.145 Y-4.66 E24.55755
G1 X21.211 Y-4.66 E25.09241
G1 X20.904 Y-4.7 E25.11095
G1 X20.618 Y-4.817 E25.12945
G1 X20.371 Y-5.003 E25.14796
G1 X20.18 Y-5.246 E25.16646
G1 X20.057 Y-5.53 E25.18499
G1 X20.011 Y-5.86 E25.20494
G1 X20.011 Y-17.76 E25.91737
G1 X10.211 Y-17.76 E26.50408
G1 X9.904 Y-17.8 E26.52261
G1 X9.618 Y-17.917 E26.54111
G1 X9.371 Y-18.103 E26.55963
G1 X9.18 Y-18.346 E26.57813
G1 X9.057 Y-18.63 E26.59666
G1 X9.011 Y-18.96 E26.61661
G1 X9.011 Y-19.653 E26.65809
G1 X9.051 Y-19.96 E26.67663
G1 X9.168 Y-20.246 E26.69513
G1 X9.354 Y-20.493 E26.71364
G1 X9.597 Y-20.684 E26.73214
G1 X9.881 Y-20.807 E26.75067
G1 X10.151 Y-20.851 E26.76705
G1 X10.853 Y-20.886 E26.80913
G1 X11.332 Y-20.961 E26.83816
G1 X11.804 Y-21.086 E26.86739
G1 X12.287 Y-21.269 E26.89831
G1 X12.897 Y-21.594 E26.93969
G1 X13.182 Y-21.712 E26.95816
G0 F3600 X13.137 Y-21.178
G1 F900 X13.496 Y-21.274 E26.98041
G1 X19.453 Y-21.274 E27.33704
G1 X30.145 Y-21.279 E27.97715
G1 X30.381 Y-21.239 E27.99148
G1 X30.591 Y-21.124 E28.00582
G1 X30.751 Y-20.947 E28.0201
G1 X30.845 Y-20.727 E28.03442
G1 X30.865 Y-20.559 E28.04455
G1 X30.865 Y-5.86 E28.92456
G1 X30.825 Y-5.624 E28.93889
G1 X30.71 Y-5.414 E28.95322
G1 X30.533 Y-5.254 E28.9675
G1 X30.313 Y-5.16 E28.98183
G1 X30.145 Y-5.14 E28.99196
G1 X21.211 Y-5.14 E29.52682
G1 X20.975 Y-5.18 E29.54115
G1 X20.765 Y-5.295 E29.55548
G1 X20.605 Y-5.472 E29.56977
G1 X20.511 Y-5.692 E29.58409
G1 X20.491 Y-5.86 E29.59422
G1 X20.491 Y-18.24 E30.33539
G1 X10.211 Y-18.24 E30.95083
G1 X9.975 Y-18.28 E30.96516
G1 X9.765 Y-18.395 E30.9795
G1 X9.605 Y-18.572 E30.99378
G1 X9.511 Y-18.792 E31.00811
G1 X9.491 Y-18.96 E31.01823
G1 X9.491 Y-19.653 E31.05972
G1 X9.531 Y-19.889 E31.07405
G1 X9.646 Y-20.099 E31.08839
G1 X9.823 Y-20.259 E31.10267
G1 X10.175 Y-20.372 E31.12481
G1 X10.913 Y-20.409 E31.16904
G1 X11.421 Y-20.489 E31.19983
G1 X11.957 Y-20.63 E31.23301
G1 X12.471 Y-20.825 E31.26592
G1 X13.137 Y-21.178 E31.31105
G0 F3600 X13.376 Y-20.762
G1 F900 X13.496 Y-20.794 E31.31849
G1 X19.453 Y-20.794 E31.67512
G1 X30.145 Y-20.799 E32.31523
G1 X30.276 Y-20.76 E32.32342
G1 X30.365 Y-20.655 E32.33166
G1 X30.385 Y-20.559 E32.33753
G1 X30.385 Y-5.86 E33.21753
G1 X30.346 Y-5.729 E33.22571
G1 X30.241 Y-5.64 E33.23395
G1 X30.145 Y-5.62 E33.23983
G1 X21.211 Y-5.62 E33.77469
G1 X21.08 Y-5.659 E33.78287
G1 X20.991 Y-5.764 E33.79111
G1 X20.971 Y-5.86 E33.79698
G1 X20.971 Y-18.72 E34.56689
G1 X10.211 Y-18.72 E35.21107
G1 X10.08 Y-18.759 E35.21925
G1 X9.991 Y-18.864 E35.22749
G1 X9.971 Y-18.96 E35.23336
G1 X9.971 Y-19.653 E35.27485
G1 X10.01 Y-19.784 E35.28304
G1 X10.199 Y-19.893 E35.2961
G1 X10.963 Y-19.932 E35.3419
G1 X11.523 Y-20.019 E35.37583
G1 X12.104 Y-20.172 E35.41179
G1 X12.659 Y-20.383 E35.44734
G1 X13.376 Y-20.762 E35.4959
G1 F750 E28.9959
G0 F3600 X8.284 Y-3.614
G1 F750 E35.4959
G1 F900 X30.112 Y-3.614 E36.8027
G1 X30.476 Y-3.574 E36.82462
G1 X30.822 Y-3.456 E36.84651
G1 X31.135 Y-3.266 E36.86843
G1 X31.4 Y-3.013 E36.89036
G1 X31.603 Y-2.709 E36.91225
G1 X31.735 Y-2.367 E36.9342
G1 X31.792 Y-1.934 E36.96034
G1 X31.792 Y38.366 E39.37303
G1 X31.752 Y38.73 E39.39496
G1 X31.634 Y39.076 E39.41684
G1 X31.444 Y39.389 E39.43876
G1 X31.191 Y39.654 E39.4607
G1 X30.887 Y39.857 E39.48258
G1 X30.545 Y39.989 E39.50453
G1 X30.112 Y40.046 E39.53068
G1 X8.284 Y40.046 E40.83748
G1 X7.585 Y39.917 E40.88003
G1 X7.244 Y39.782 E40.90199
G1 X6.84 Y39.484 E40.93205
G1 X6.409 Y38.996 E40.97102
G1 X6.206 Y38.539 E41.00096
G1 X6.076 Y37.839 E41.04359
G1 X6.076 Y25.203 E41.80008
G1 X6.206 Y24.503 E41.84271
G1 X6.342 Y24.162 E41.86468
G1 X6.632 Y23.767 E41.89402
G1 X7.12 Y23.331 E41.9332
G1 X7.596 Y23.121 E41.96435
G1 X8.284 Y22.996 E42.00621
G1 X18.846 Y22.995 E42.63854
G1 X19.658 Y22.931 E42.6873
G1 X20.395 Y22.752 E42.73271
G1 X21.081 Y22.466 E42.7772
G1 X21.73 Y22.064 E42.82291
G1 X22.309 Y21.565 E42.86867
G1 X22.793 Y20.988 E42.91376
G1 X23.184 Y20.336 E42.95927
G1 X23.459 Y19.652 E43.00341
G1 X23.63 Y18.898 E43.04969
G1 X23.679 Y18.137 E43.09535
G1 X23.61 Y17.394 E43.14002
G1 X23.415 Y16.647 E43.18624
G1 X23.125 Y15.982 E43.22968
G1 X22.705 Y15.325 E43.27636
G1 X22.21 Y14.769 E43.32093
G1 X21.61 Y14.282 E43.36719
G1 X20.96 Y13.907 E43.41212
G1 X20.259 Y13.639 E43.45705
G1 X19.557 Y13.491 E43.5
G1 X8.284 Y13.491 E44.17489
G1 X7.585 Y13.362 E44.21745
G1 X7.244 Y13.227 E44.2394
G1 X6.84 Y12.929 E44.26946
G1 X6.409 Y12.441 E44.30844
G1 X6.206 Y11.984 E44.33838
G1 X6.076 Y11.284 E44.381
G1 X6.076 Y-1.407 E45.14079
G1 X6.206 Y-2.107 E45.18341
G1 X6.341 Y-2.447 E45.20531
G1 X6.638 Y-2.85 E45.23528
G1 X7.126 Y-3.281 E45.27426
G1 X7.585 Y-3.485 E45.30433
G1 X8.284 Y-3.614 E45.34689
G0 F3600 X8.284 Y-3.134
G1 F900 X30.112 Y-3.134 E46.65369
G1 X30.419 Y-3.094 E46.67223
G1 X30.705 Y-2.977 E46.69073
G1 X30.952 Y-2.791 E46.70924
G1 X31.143 Y-2.548 E46.72774
G1 X31.266 Y-2.264 E46.74627
G1 X31.312 Y-1.934 E46.76622
G1 X31.312 Y38.366 E49.17891
G1 X31.272 Y38.673 E49.19744
G1 X31.155 Y38.959 E49.21594
G1 X30.969 Y39.206 E49.23446
G1 X30.726 Y39.397 E49.25296
G1 X30.442 Y39.52 E49.27149
G1 X30.112 Y39.566 E49.29144
G1 X8.284 Y39.566 E50.59824
G1 X7.711 Y39.454 E50.63319
G1 X7.426 Y39.334 E50.65171
G1 X6.977 Y38.943 E50.68735
G1 X6.789 Y38.698 E50.70584
G1 X6.599 Y38.157 E50.74017
G1 X6.556 Y37.839 E50.75938
G1 X6.556 Y25.203 E51.51587
G1 X6.669 Y24.63 E51.55084
G1 X6.789 Y24.345 E51.56935
G1 X7.176 Y23.9 E51.60466
G1 X7.42 Y23.71 E51.62317
G1 X7.975 Y23.517 E51.65835
G1 X8.284 Y23.476 E51.67701
G1 X18.871 Y23.475 E52.31084
G1 X19.734 Y23.407 E52.36267
G1 X20.542 Y23.211 E52.41244
G1 X21.301 Y22.895 E52.46166
G1 X22.01 Y22.455 E52.51162
G1 X22.654 Y21.9 E52.56252
G1 X23.183 Y21.269 E52.61181
G1 X23.616 Y20.549 E52.66211
G1 X23.921 Y19.789 E52.71114
G1 X24.106 Y18.972 E52.76129
G1 X24.16 Y18.13 E52.8118
G1 X24.084 Y17.308 E52.86122
G1 X23.872 Y16.492 E52.9117
G1 X23.55 Y15.756 E52.95979
G1 X23.09 Y15.037 E53.01089
G1 X22.538 Y14.416 E53.06064
G1 X21.884 Y13.886 E53.11103
G1 X21.171 Y13.474 E53.16033
G1 X20.39 Y13.176 E53.21038
G1 X19.608 Y13.011 E53.25823
G1 X8.284 Y13.011 E53.93618
G1 X7.711 Y12.899 E53.97113
G1 X7.426 Y12.779 E53.98964
G1 X6.977 Y12.388 E54.02529
G1 X6.789 Y12.143 E54.04377
G1 X6.599 Y11.602 E54.0781
G1 X6.556 Y11.284 E54.09731
G1 X6.556 Y-1.407 E54.8571
G1 X6.669 Y-1.98 E54.89207
G1 X6.788 Y-2.265 E54.91056
G1 X7.179 Y-2.713 E54.94616
G1 X7.424 Y-2.901 E54.96465
G1 X7.967 Y-3.092 E54.99911
G1 X8.284 Y-3.134 E55.01825
G0 F3600 X8.284 Y-2.654
G1 F900 X30.112 Y-2.654 E56.32505
G1 X30.348 Y-2.614 E56.33938
G1 X30.558 Y-2.499 E56.35372
G1 X30.718 Y-2.322 E56.368
G1 X30.812 Y-2.102 E56.38233
G1 X30.832 Y-1.934 E56.39246
G1 X30.832 Y38.366 E58.80515
G1 X30.792 Y38.602 E58.81948
G1 X30.677 Y38.812 E58.83381
G1 X30.5 Y38.972 E58.84809
G1 X30.28 Y39.066 E58.86242
G1 X30.112 Y39.086 E58.87255
G1 X8.284 Y39.086 E60.17935
G1 X7.838 Y38.991 E60.20665
G1 X7.519 Y38.805 E60.22876
G1 X7.178 Y38.408 E60.26009
G1 X7.062 Y38.03 E60.28376
G1 X7.036 Y37.839 E60.2953
G1 X7.036 Y25.203 E61.0518
G1 X7.132 Y24.758 E61.07905
G1 X7.314 Y24.442 E61.10088
G1 X7.712 Y24.098 E61.13238
G1 X8.098 Y23.98 E61.15654
G1 X8.284 Y23.956 E61.16777
G1 X18.884 Y23.955 E61.80237
G1 X19.81 Y23.882 E61.85798
G1 X20.693 Y23.667 E61.91239
G1 X21.523 Y23.322 E61.9662
G1 X22.299 Y22.841 E62.02086
G1 X22.996 Y22.24 E62.07596
G1 X23.575 Y21.55 E62.12989
G1 X24.048 Y20.763 E62.18486
G1 X24.38 Y19.936 E62.23821
G1 X24.582 Y19.04 E62.2932
G1 X24.642 Y18.123 E62.34821
G1 X24.558 Y17.228 E62.40203
G1 X24.325 Y16.331 E62.45752
G1 X23.974 Y15.525 E62.51015
G1 X23.476 Y14.748 E62.5654
G1 X22.872 Y14.069 E62.61981
G1 X22.16 Y13.491 E62.67471
G1 X21.375 Y13.039 E62.72894
G1 X20.53 Y12.715 E62.78312
G1 X19.655 Y12.531 E62.83665
G1 X8.284 Y12.531 E63.51741
G1 X7.838 Y12.436 E63.54471
G1 X7.519 Y12.25 E63.56682
G1 X7.178 Y11.853 E63.59815
G1 X7.062 Y11.475 E63.62182
G1 X7.036 Y11.284 E63.63336
G1 X7.036 Y-1.407 E64.39315
G1 X7.132 Y-1.853 E64.42046
G1 X7.317 Y-2.171 E64.44249
G1 X7.714 Y-2.512 E64.47382
G1 X8.094 Y-2.629 E64.49762
G1 X8.284 Y-2.654 E64.5091
G0 F3600 X8.284 Y-2.174
G1 F900 X30.112 Y-2.174 E65.8159
G1 X30.243 Y-2.135 E65.82408
G1 X30.332 Y-2.03 E65.83233
G1 X30.352 Y-1.934 E65.8382
G1 X30.352 Y38.366 E68.25089
G1 X30.313 Y38.497 E68.25907
G1 X30.208 Y38.586 E68.26731
G1 X30.112 Y38.606 E68.27318
G1 X8.284 Y38.606 E69.57998
G1 X7.965 Y38.528 E69.59964
G1 X7.656 Y38.264 E69.62398
G1 X7.525 Y37.903 E69.64697
G1 X7.516 Y37.839 E69.65084
G1 X7.516 Y25.203 E70.40733
G1 X7.595 Y24.885 E70.42695
G1 X7.858 Y24.575 E70.45129
G1 X8.222 Y24.444 E70.47445
G1 X8.284 Y24.436 E70.47819
G1 X18.91 Y24.435 E71.11435
G1 X19.886 Y24.358 E71.17296
G1 X20.84 Y24.126 E71.23174
G1 X21.743 Y23.75 E71.2903
G1 X22.58 Y23.232 E71.34923
G1 X23.34 Y22.576 E71.40934
G1 X23.966 Y21.831 E71.46759
G1 X24.479 Y20.976 E71.52729
G1 X24.839 Y20.078 E71.58521
G1 X25.059 Y19.108 E71.64476
G1 X25.123 Y18.115 E71.70433
G1 X25.033 Y17.142 E71.76283
G1 X24.781 Y16.176 E71.8226
G1 X24.399 Y15.299 E71.87987
