; generated by Slic3r 1.2.9 on 2021-11-01 at 21:10:11

; external perimeters extrusion width = 0.40mm
; perimeters extrusion width = 0.67mm
; infill extrusion width = 0.67mm
; solid infill extrusion width = 0.67mm
; top infill extrusion width = 0.67mm

M190 S64 ; set bed temperature
M104 S185 ; set temperature
G28 ; home all axes
G1 Z5 F5000 ; lift nozzle

M109 S185 ; wait for temperature to be reached
G21 ; set units to millimeters
G90 ; use absolute coordinates
M82 ; use absolute distances for extrusion
G92 E0
G1 E-6.00000 F3000.00000
G92 E0
G1 Z0.500 F4800.000
G1 X0.000 Y39.157 F4800.000
G1 Z0.300 F4800.000
G1 E5.00000 F3000.00000
G1 X-53.500 Y39.157 E8.57409 F1080.000
G1 X-54.606 Y39.070 E8.64821
G1 X-55.533 Y38.923 E8.71092
G1 X-57.637 Y38.240 E8.85872
G1 X-58.474 Y37.814 E8.92142
G1 X-60.263 Y36.513 E9.06922
G1 X-60.927 Y35.850 E9.13193
G1 X-62.228 Y34.060 E9.27972
G1 X-62.654 Y33.223 E9.34243
G1 X-63.337 Y31.119 E9.49022
G1 X-63.484 Y30.192 E9.55293
G1 X-63.571 Y29.086 E9.62706
G1 X-63.571 Y-29.086 E13.51327
G1 X-63.484 Y-30.192 E13.58739
G1 X-63.337 Y-31.119 E13.65011
G1 X-62.654 Y-33.223 E13.79789
G1 X-62.228 Y-34.060 E13.86061
G1 X-60.927 Y-35.850 E14.00840
G1 X-60.263 Y-36.513 E14.07111
G1 X-58.474 Y-37.814 E14.21891
G1 X-57.637 Y-38.240 E14.28161
G1 X-55.533 Y-38.923 E14.42941
G1 X-54.606 Y-39.070 E14.49212
G1 X-53.500 Y-39.157 E14.56624
G1 X53.500 Y-39.157 E21.71442
G1 X54.606 Y-39.070 E21.78853
G1 X55.533 Y-38.923 E21.85125 F1080.000
G1 X57.637 Y-38.240 E21.99904
G1 X58.474 Y-37.814 E22.06175
G1 X60.263 Y-36.513 E22.20955
G1 X60.927 Y-35.850 E22.27226
G1 X62.228 Y-34.060 E22.42006
G1 X62.654 Y-33.223 E22.48276
G1 X63.337 Y-31.119 E22.63056
G1 X63.484 Y-30.192 E22.69327
G1 X63.571 Y-29.086 E22.76739
G1 X63.571 Y29.086 E26.65360
G1 X63.484 Y30.192 E26.72773
G1 X63.337 Y31.119 E26.79043
G1 X62.654 Y33.223 E26.93823
G1 X62.228 Y34.060 E27.00094
G1 X60.927 Y35.850 E27.14873
G1 X60.264 Y36.513 E27.21144
G1 X58.474 Y37.814 E27.35924
G1 X57.637 Y38.240 E27.42194
G1 X55.533 Y38.923 E27.56975
G1 X54.606 Y39.070 E27.63245
G1 X53.500 Y39.157 E27.70657
G1 X0.060 Y39.157 E31.27665
G1 X0.060 Y38.622 F4800.000
G1 X-53.500 Y38.622 E34.85475 F1080.000
G1 X-54.522 Y38.541 E34.92326
G1 X-55.449 Y38.394 E34.98596
G1 X-57.394 Y37.763 E35.12257
G1 X-58.230 Y37.336 E35.18527
G1 X-59.885 Y36.135 E35.32188
G1 X-60.548 Y35.471 E35.38458
G1 X-61.750 Y33.817 E35.52119
G1 X-62.176 Y32.980 E35.58389
G1 X-62.808 Y31.036 E35.72049
G1 X-62.955 Y30.108 E35.78320
G1 X-63.036 Y29.086 E35.85171
G1 X-63.036 Y-29.086 E39.73792
G1 X-62.955 Y-30.108 E39.80643
G1 X-62.808 Y-31.036 E39.86914
G1 X-62.177 Y-32.980 E40.00573
G1 X-61.750 Y-33.817 E40.06845
G1 X-60.548 Y-35.471 E40.20505
G1 X-59.885 Y-36.135 E40.26776
G1 X-58.230 Y-37.336 E40.40436
G1 X-57.394 Y-37.763 E40.46706
G1 X-55.449 Y-38.394 E40.60367
G1 X-54.522 Y-38.541 E40.66637
G1 X-53.500 Y-38.622 E40.73488
G1 X53.500 Y-38.622 E47.88306
G1 X54.522 Y-38.541 E47.95156
G1 X55.449 Y-38.394 E48.01427 F1080.000
G1 X57.394 Y-37.763 E48.15087
G1 X58.230 Y-37.336 E48.21359
G1 X59.885 Y-36.135 E48.35019
G1 X60.548 Y-35.471 E48.41289
G1 X61.750 Y-33.817 E48.54950
G1 X62.176 Y-32.980 E48.61220
G1 X62.808 Y-31.035 E48.74881
G1 X62.955 Y-30.108 E48.81151
G1 X63.036 Y-29.086 E48.88002
G1 X63.036 Y29.086 E52.76623
G1 X62.955 Y30.108 E52.83474
G1 X62.808 Y31.035 E52.89745
G1 X62.176 Y32.980 E53.03405
G1 X61.750 Y33.817 E53.09676
G1 X60.548 Y35.471 E53.23336
G1 X59.885 Y36.134 E53.29606
G1 X58.230 Y37.336 E53.43267
G1 X57.394 Y37.763 E53.49537
G1 X55.449 Y38.394 E53.63198
G1 X54.522 Y38.541 E53.69469
G1 X53.500 Y38.622 E53.76319
G1 X0.120 Y38.622 E57.32927
G1 X0.120 Y33.425 F4800.000
G1 X-53.553 Y33.425 E60.91489 F1080.000
G1 X-54.741 Y33.245 E60.99515
G1 X-54.941 Y33.180 E61.00924
G1 X-55.965 Y32.658 E61.08602
G1 X-56.136 Y32.534 E61.10010
G1 X-56.948 Y31.722 E61.17689
G1 X-57.072 Y31.551 E61.19097
G1 X-57.594 Y30.527 E61.26775
G1 X-57.659 Y30.327 E61.28183
G1 X-57.839 Y29.139 E61.36210
G1 X-57.839 Y-29.139 E65.25534
G1 X-57.659 Y-30.327 E65.33561
G1 X-57.594 Y-30.527 E65.34969
G1 X-57.072 Y-31.551 E65.42648
G1 X-56.948 Y-31.722 E65.44056
G1 X-56.136 Y-32.534 E65.51734
G1 X-55.965 Y-32.658 E65.53142
G1 X-54.941 Y-33.180 E65.60821
G1 X-54.741 Y-33.245 E65.62229
G1 X-53.553 Y-33.425 E65.70256
G1 X53.657 Y-33.417 E72.86477
G1 X54.741 Y-33.245 E72.93803 F1080.000
G1 X54.941 Y-33.180 E72.95211
G1 X55.965 Y-32.658 E73.02890
G1 X56.136 Y-32.534 E73.04298
G1 X56.948 Y-31.722 E73.11976
G1 X57.072 Y-31.551 E73.13385
G1 X57.594 Y-30.527 E73.21063
G1 X57.659 Y-30.327 E73.22471
G1 X57.839 Y-29.139 E73.30498
G1 X57.839 Y29.139 E77.19822
G1 X57.659 Y30.327 E77.27849
G1 X57.594 Y30.527 E77.29257
G1 X57.072 Y31.551 E77.36935
G1 X56.948 Y31.722 E77.38344
G1 X56.136 Y32.535 E77.46022
G1 X55.965 Y32.658 E77.47430
G1 X54.941 Y33.180 E77.55109
G1 X54.741 Y33.245 E77.56517
G1 X53.553 Y33.425 E77.64544
G1 X0.180 Y33.425 E81.21101
G1 X0.180 Y32.889 F4800.000
G1 X-53.532 Y32.889 E84.79924 F1080.000
G1 X-54.615 Y32.723 E84.87248
G1 X-54.735 Y32.684 E84.88093
G1 X-55.684 Y32.200 E84.95208
G1 X-55.787 Y32.126 E84.96053
G1 X-56.540 Y31.373 E85.03168
G1 X-56.614 Y31.271 E85.04013
G1 X-57.098 Y30.322 E85.11128
G1 X-57.137 Y30.201 E85.11973
G1 X-57.303 Y29.118 E85.19297
G1 X-57.303 Y-29.118 E89.08340
G1 X-57.137 Y-30.201 E89.15665
G1 X-57.098 Y-30.322 E89.16509
G1 X-56.614 Y-31.271 E89.23625
G1 X-56.540 Y-31.373 E89.24470
G1 X-55.787 Y-32.126 E89.31585
G1 X-55.684 Y-32.200 E89.32430
G1 X-54.735 Y-32.684 E89.39545
G1 X-54.615 Y-32.723 E89.40390
G1 X-53.532 Y-32.889 E89.47714
G1 X53.532 Y-32.889 E96.62954
G1 X54.615 Y-32.723 E96.70278 F1080.000
G1 X54.735 Y-32.684 E96.71123
G1 X55.684 Y-32.200 E96.78238
G1 X55.787 Y-32.126 E96.79083
G1 X56.540 Y-31.373 E96.86198
G1 X56.614 Y-31.271 E96.87043
G1 X57.098 Y-30.322 E96.94158
G1 X57.137 Y-30.201 E96.95003
G1 X57.303 Y-29.118 E97.02327
G1 X57.303 Y29.118 E100.91370
G1 X57.137 Y30.201 E100.98695
G1 X57.098 Y30.322 E100.99540
G1 X56.614 Y31.271 E101.06655
G1 X56.540 Y31.373 E101.07500
G1 X55.787 Y32.126 E101.14615
G1 X55.684 Y32.200 E101.15460
G1 X54.735 Y32.684 E101.22575
G1 X54.615 Y32.723 E101.23420
G1 X53.532 Y32.889 E101.30744
G1 X0.240 Y32.889 E104.86761
G1 X0.240 Y32.354 F4800.000
G1 X-53.511 Y32.354 E108.45843 F1080.000
G1 X-54.530 Y32.187 E108.52743
G1 X-55.404 Y31.742 E108.59295
G1 X-56.131 Y31.024 E108.66125
G1 X-56.601 Y30.116 E108.72956
G1 X-56.768 Y29.097 E108.79856
G1 X-56.768 Y-29.097 E112.68617
G1 X-56.601 Y-30.116 E112.75517
G1 X-56.131 Y-31.024 E112.82348
G1 X-55.404 Y-31.742 E112.89178
G1 X-54.530 Y-32.187 E112.95730
G1 X-53.511 Y-32.354 E113.02630
G1 X53.531 Y-32.352 E120.17728
G1 X54.530 Y-32.187 E120.24488 F1080.000
G1 X55.404 Y-31.742 E120.31040
G1 X56.131 Y-31.024 E120.37871
G1 X56.601 Y-30.116 E120.44701
G1 X56.768 Y-29.097 E120.51601
G1 X56.768 Y29.097 E124.40363
G1 X56.601 Y30.116 E124.47263
G1 X56.131 Y31.024 E124.54093
G1 X55.438 Y31.717 E124.60645
G1 X54.530 Y32.187 E124.67475
G1 X53.511 Y32.354 E124.74375
G1 X0.300 Y32.354 E128.29850
G1 X0.300 Y31.786 F4800.000
G1 X-53.476 Y31.786 E131.89106 F420.000
G1 X-54.333 Y31.650 E131.94901
G1 X-55.085 Y31.267 E132.00536
G1 X-55.681 Y30.671 E132.06172
G1 X-56.064 Y29.919 E132.11808
G1 X-56.200 Y29.062 E132.17603
G1 X-56.200 Y-29.062 E136.05909
G1 X-56.064 Y-29.919 E136.11704
G1 X-55.681 Y-30.671 E136.17339
G1 X-55.085 Y-31.267 E136.22975
G1 X-54.333 Y-31.650 E136.28611
G1 X-53.476 Y-31.786 E136.34406
G1 X53.523 Y-31.779 E143.49218
G1 X54.333 Y-31.650 E143.54700 F420.000
G1 X55.085 Y-31.267 E143.60335
G1 X55.681 Y-30.671 E143.65971
G1 X56.064 Y-29.919 E143.71606
G1 X56.200 Y-29.062 E143.77402
G1 X56.200 Y29.062 E147.65707
G1 X56.064 Y29.919 E147.71503
G1 X55.681 Y30.671 E147.77138
G1 X55.085 Y31.267 E147.82774
G1 X54.333 Y31.650 E147.88409
G1 X53.476 Y31.786 E147.94205
G1 X0.360 Y31.786 E151.49051
G1 X0.100 Y31.440 F4800.000
G1 X0.360 Y31.250 F4800.000
G1 X-53.434 Y31.250 E155.08426 F840.000
G1 X-54.166 Y31.135 E155.13372
G1 X-54.766 Y30.829 E155.17874
G1 X-55.243 Y30.352 E155.22377
G1 X-55.549 Y29.752 E155.26879
G1 X-55.664 Y29.020 E155.31826
G1 X-55.664 Y-29.020 E159.19568
G1 X-55.549 Y-29.752 E159.24515
G1 X-55.243 Y-30.352 E159.29017
G1 X-54.766 Y-30.829 E159.33519
G1 X-54.166 Y-31.135 E159.38021
G1 X-53.434 Y-31.250 E159.42968
G1 X53.481 Y-31.243 E166.57217
G1 X54.166 Y-31.135 E166.61851 F840.000
G1 X54.766 Y-30.829 E166.66353
G1 X55.243 Y-30.352 E166.70855
G1 X55.549 Y-29.752 E166.75357
G1 X55.664 Y-29.020 E166.80304
G1 X55.664 Y29.020 E170.68046
G1 X55.549 Y29.752 E170.72993
G1 X55.243 Y30.352 E170.77495
G1 X54.766 Y30.829 E170.81997
G1 X54.166 Y31.135 E170.86499
G1 X53.434 Y31.250 E170.91446
G1 X0.420 Y31.250 E174.45610
G1 X-55.129 Y-10.089 F4800.000
G1 X-55.129 Y-28.978 E175.71799 F840.000
G1 X-55.033 Y-29.584 E175.75897
G1 X-54.804 Y-30.033 E175.79266
G1 X-54.447 Y-30.390 E175.82634
G1 X-53.998 Y-30.619 E175.86003
G1 X-53.392 Y-30.715 E175.90101
G1 X53.438 Y-30.707 E183.03787
G1 X53.998 Y-30.619 E183.07572 F840.000
G1 X54.447 Y-30.390 E183.10941
G1 X54.804 Y-30.033 E183.14310
G1 X55.033 Y-29.584 E183.17678
G1 X55.129 Y-28.978 E183.21777
G1 X55.129 Y28.978 E187.08956
G1 X55.033 Y29.584 E187.13055
G1 X54.804 Y30.033 E187.16423
G1 X54.447 Y30.390 E187.19792
G1 X53.998 Y30.619 E187.23160
G1 X53.392 Y30.715 E187.27259
G1 X-53.392 Y30.715 E194.40635
G1 X-53.998 Y30.619 E194.44734
G1 X-54.447 Y30.390 E194.48102
G1 X-54.804 Y30.033 E194.51471
G1 X-55.033 Y29.584 E194.54839
G1 X-55.129 Y28.978 E194.58938
G1 X-55.129 Y-10.029 E197.19528
G1 X-45.063 Y-22.928 F4800.000
G1 X-45.543 Y-23.408 E197.24060 F288.000
G1 X-45.719 Y-24.063 E197.28592
G1 X-45.543 Y-24.719 E197.33124
G1 X-45.063 Y-25.198 E197.37657
G1 X-44.437 Y-25.366 E197.41990 F288.000
G1 X-43.756 Y-25.201 E197.46673
G1 X-43.273 Y-24.719 E197.51231
G1 X-43.098 Y-24.063 E197.55763
G1 X-43.273 Y-23.408 E197.60295
G1 X-43.753 Y-22.928 E197.64828
G1 X-44.408 Y-22.753 E197.69360
G1 X-45.006 Y-22.913 E197.73491
G1 X-45.426 Y-22.759 F4800.000
G1 X-45.144 Y-22.395 F4800.000
G1 X-45.341 Y-22.448 E197.74851 F288.000
G1 X-46.023 Y-23.131 E197.81300
G1 X-46.273 Y-24.063 E197.87750
G1 X-46.023 Y-24.996 E197.94200
G1 X-45.341 Y-25.678 E198.00650
G1 X-44.444 Y-25.919 E198.06855 F288.000
G1 X-43.483 Y-25.686 E198.13456
G1 X-42.793 Y-24.996 E198.19977
G1 X-42.543 Y-24.063 E198.26427
G1 X-42.793 Y-23.131 E198.32877
G1 X-43.476 Y-22.448 E198.39327
G1 X-44.408 Y-22.198 E198.45776
G1 X-45.086 Y-22.380 E198.50465
G1 X-45.225 Y-21.862 F4800.000
G1 X-45.618 Y-21.968 E198.53185 F288.000
G1 X-46.504 Y-22.853 E198.61552
G1 X-46.828 Y-24.063 E198.69919
G1 X-46.504 Y-25.273 E198.78286
G1 X-45.618 Y-26.159 E198.86654
G1 X-44.450 Y-26.472 E198.94731 F288.000
G1 X-43.211 Y-26.171 E199.03250
G1 X-42.313 Y-25.273 E199.11735
G1 X-41.989 Y-24.063 E199.20102
G1 X-42.313 Y-22.853 E199.28469
G1 X-43.198 Y-21.968 E199.36837
G1 X-44.408 Y-21.644 E199.45204
G1 X-45.167 Y-21.847 E199.50451
G1 X-41.770 Y-5.267 F4800.000
G1 X-40.856 Y-5.267 E199.56555 F288.000
G1 X-40.047 Y-4.843 E199.62659
G1 X-39.528 Y-4.091 E199.68763
G1 X-39.418 Y-3.184 E199.74867
G1 X-39.742 Y-2.330 E199.80971
G1 X-40.426 Y-1.724 E199.87075
G1 X-41.313 Y-1.505 E199.93179
G1 X-42.200 Y-1.724 E199.99283
G1 X-42.884 Y-2.330 E200.05387
G1 X-43.208 Y-3.184 E200.11491
G1 X-43.098 Y-4.091 E200.17595
G1 X-42.579 Y-4.843 E200.23699
G1 X-41.823 Y-5.240 E200.29402
G1 X-41.628 Y-5.641 F4800.000
G1 X-42.072 Y-5.714 F4800.000
G1 X-41.902 Y-5.803 E200.30685 F288.000
G1 X-40.724 Y-5.803 E200.38553 F288.000
G1 X-39.681 Y-5.256 E200.46421
G1 X-39.012 Y-4.286 E200.54289
G1 X-38.870 Y-3.117 E200.62156
G1 X-39.288 Y-2.016 E200.70024
G1 X-40.169 Y-1.235 E200.77892
G1 X-41.313 Y-0.953 E200.85760
G1 X-42.456 Y-1.235 E200.93628
G1 X-43.338 Y-2.016 E201.01496
G1 X-43.755 Y-3.117 E201.09364
G1 X-43.613 Y-4.286 E201.17232
G1 X-42.944 Y-5.256 E201.25099
G1 X-42.125 Y-5.686 E201.31284
G1 X-42.374 Y-6.160 F4800.000
G1 X-42.034 Y-6.339 E201.33849 F288.000
G1 X-40.592 Y-6.339 E201.43481 F288.000
G1 X-39.315 Y-5.669 E201.53113
G1 X-38.496 Y-4.482 E201.62745
G1 X-38.322 Y-3.051 E201.72377
G1 X-38.834 Y-1.703 E201.82008
G1 X-39.913 Y-0.747 E201.91640
G1 X-41.313 Y-0.402 E202.01272
G1 X-42.713 Y-0.747 E202.10904
G1 X-43.792 Y-1.703 E202.20535
G1 X-44.303 Y-3.051 E202.30167
G1 X-44.129 Y-4.482 E202.39799
G1 X-43.310 Y-5.669 E202.49431
G1 X-42.427 Y-6.132 E202.56096
G1 F3840
G1 X-42.034 Y-6.339 E202.23140
G1 E196.56096 F3000.00000
G92 E0
G1 Z0.800 F4800.000
G1 X-38.087 Y22.894 F4800.000
G1 Z0.300 F4800.000
G1 E5.00000 F3000.00000
G1 X-37.406 Y23.059 E5.04683 F288.000
G1 X-36.923 Y23.541 E5.09241
G1 X-36.748 Y24.197 E5.13773
G1 X-36.923 Y24.852 E5.18305
G1 X-37.403 Y25.332 E5.22837
G1 X-38.058 Y25.507 E5.27369
G1 X-38.713 Y25.332 E5.31902
G1 X-39.193 Y24.852 E5.36434
G1 X-39.369 Y24.197 E5.40966
G1 X-39.193 Y23.541 E5.45498
G1 X-38.713 Y23.062 E5.50030
G1 X-38.145 Y22.909 E5.53963 F288.000
G1 X-37.863 Y22.563 F4800.000
G1 X-38.283 Y22.392 F4800.000
G1 X-38.093 Y22.341 E5.55277 F288.000
G1 X-37.133 Y22.574 E5.61878
G1 X-36.443 Y23.264 E5.68399
G1 X-36.193 Y24.197 E5.74849
G1 X-36.443 Y25.129 E5.81299
G1 X-37.126 Y25.812 E5.87748
G1 X-38.058 Y26.062 E5.94198
G1 X-38.991 Y25.812 E6.00648
G1 X-39.673 Y25.129 E6.07097
G1 X-39.923 Y24.197 E6.13547
G1 X-39.673 Y23.264 E6.19997
G1 X-38.991 Y22.582 E6.26446
G1 X-38.341 Y22.408 E6.30937 F288.000
G1 X-38.480 Y21.890 F4800.000
G1 X-38.100 Y21.788 E6.33565 F288.000
G1 X-36.861 Y22.089 E6.42084
G1 X-35.963 Y22.987 E6.50569
G1 X-35.639 Y24.197 E6.58936
G1 X-35.963 Y25.407 E6.67303
G1 X-36.848 Y26.292 E6.75670
G1 X-38.058 Y26.616 E6.84038
G1 X-39.268 Y26.292 E6.92405
G1 X-40.154 Y25.407 E7.00772
G1 X-40.478 Y24.197 E7.09140
G1 X-40.154 Y22.987 E7.17507
G1 X-39.268 Y22.101 E7.25874
G1 X-38.538 Y21.906 E7.30923 F288.000
G1 X-1.895 Y18.400 F4800.000
G1 X-1.785 Y17.493 E7.37027 F288.000
G1 X-1.266 Y16.741 E7.43131
G1 X-0.457 Y16.316 E7.49235
G1 X0.457 Y16.316 E7.55339 F288.000
G1 X1.150 Y16.680 E7.60565
G1 X1.266 Y16.741 E7.61443
G1 X1.785 Y17.493 E7.67547
G1 X1.895 Y18.400 E7.73651
G1 X1.571 Y19.254 E7.79755
G1 X0.887 Y19.860 E7.85859
G1 X0.000 Y20.079 E7.91963
G1 X-0.887 Y19.860 E7.98067
G1 X-1.571 Y19.254 E8.04171
G1 X-1.874 Y18.456 E8.09874
G1 X-2.249 Y18.214 F4800.000
G1 X-2.375 Y18.646 F4800.000
G1 X-2.443 Y18.467 E8.11157 F288.000
G1 X-2.301 Y17.297 E8.19024
G1 X-1.632 Y16.328 E8.26892
G1 X-0.589 Y15.781 E8.34760
G1 X0.589 Y15.781 E8.42628 F288.000
G1 X1.632 Y16.328 E8.50496
G1 X2.301 Y17.297 E8.58364
G1 X2.443 Y18.467 E8.66232
G1 X2.025 Y19.568 E8.74100
G1 X1.144 Y20.349 E8.81968
G1 X0.000 Y20.631 E8.89836
G1 X-1.144 Y20.349 E8.97703
G1 X-2.025 Y19.568 E9.05571
G1 X-2.353 Y18.702 E9.11756
G1 X-2.854 Y18.892 F4800.000
G1 X-2.990 Y18.533 E9.14321 F288.000
G1 X-2.817 Y17.102 E9.23953
G1 X-1.998 Y15.915 E9.33585
G1 X-0.721 Y15.245 E9.43217
G1 X0.721 Y15.245 E9.52848 F288.000
G1 X1.998 Y15.915 E9.62480
G1 X2.817 Y17.102 E9.72112
G1 X2.990 Y18.533 E9.81744
G1 X2.479 Y19.881 E9.91376
G1 X1.400 Y20.837 E10.01008
G1 X0.000 Y21.182 E10.10639
G1 X-1.400 Y20.837 E10.20271
G1 X-2.479 Y19.881 E10.29903
G1 X-2.833 Y18.948 E10.36568
G1 X-0.391 Y-20.473 F4800.000
G1 X-0.517 Y-20.504 E10.37439 F288.000
G1 X-1.209 Y-20.867 E10.42658
G1 X-1.306 Y-20.954 E10.43528
G1 X-1.750 Y-21.597 E10.48747
G1 X-1.796 Y-21.718 E10.49618
G1 X-1.891 Y-22.494 E10.54837
G1 X-1.875 Y-22.623 E10.55707
G1 X-1.598 Y-23.354 E10.60926
G1 X-1.524 Y-23.461 E10.61796
G1 X-0.939 Y-23.979 E10.67016
G1 X-0.824 Y-24.040 E10.67886
G1 X-0.065 Y-24.227 E10.73105
G1 X0.065 Y-24.227 E10.73975 F288.000
G1 X0.824 Y-24.040 E10.79194
G1 X0.939 Y-23.979 E10.80065
G1 X1.524 Y-23.461 E10.85284
G1 X1.598 Y-23.354 E10.86154
G1 X1.875 Y-22.623 E10.91373
G1 X1.891 Y-22.494 E10.92244
G1 X1.796 Y-21.718 E10.97463
G1 X1.750 Y-21.597 E10.98333
G1 X1.306 Y-20.954 E11.03552
G1 X1.209 Y-20.867 E11.04422
G1 X0.517 Y-20.504 E11.09642
G1 X0.391 Y-20.473 E11.10512
G1 X-0.331 Y-20.473 E11.15330
G1 X-0.473 Y-20.372 F4800.000
G1 X-0.331 Y-19.937 F4800.000
G1 X-0.456 Y-19.937 E11.16165 F288.000
