; generated by Slic3r 1.2.9 on 2019-05-15 at 17:56:37

; external perimeters extrusion width = 0.40mm
; perimeters extrusion width = 0.48mm
; infill extrusion width = 0.48mm
; solid infill extrusion width = 0.48mm
; top infill extrusion width = 0.48mm

M190 S65 ; set bed temperature
M104 S190 ; set temperature
G28 ; home all axes
G1 Z5 F5000 ; lift nozzle

M109 S190 ; wait for temperature to be reached
G21 ; set units to millimeters
G90 ; use absolute coordinates
M82 ; use absolute distances for extrusion
G92 E0
G1 Z0.400 F4800.000
G1 E-2.00000 F2400.00000
G92 E0
G1 X22.395 Y-1.774 F4800.000
G1 E2.00000 F2400.00000
G1 X23.440 Y11.413 E3.41400 F1800.000
G1 X23.419 Y12.810 E3.56326
G1 X23.272 Y14.149 E3.70725
G1 X22.954 Y15.630 E3.86921
G1 X22.479 Y17.096 E4.03395
G1 X20.471 Y22.566 E4.65679
G1 X19.270 Y24.678 E4.91648
G1 X17.452 Y26.290 E5.17617
G1 X15.211 Y27.229 E5.43586
G1 X13.500 Y27.428 E5.61998
G1 X-13.500 Y27.428 E8.50597
G1 X-15.897 Y27.031 E8.76566
G1 X-18.037 Y25.882 E9.02535
G1 X-19.692 Y24.103 E9.28504
G1 X-20.471 Y22.566 E9.46916
G1 X-22.384 Y17.371 E10.06089
G1 X-22.954 Y15.630 E10.25674
G1 X-23.272 Y14.149 E10.41869
G1 X-23.419 Y12.810 E10.56268
G1 X-23.440 Y11.413 E10.71195
G1 X-20.905 Y-20.587 E14.14310
G1 X-20.320 Y-22.945 E14.40279
G1 X-19.005 Y-24.988 E14.66248
G1 X-17.101 Y-26.497 E14.92217
G1 X-14.812 Y-27.311 E15.18186
G1 X-13.500 Y-27.428 E15.32268
G1 X13.500 Y-27.428 E18.20867
G1 X15.897 Y-27.031 E18.46836
G1 X18.037 Y-25.882 E18.72805 F1800.000
G1 X19.692 Y-24.103 E18.98774
G1 X20.685 Y-21.886 E19.24743
G1 X20.905 Y-20.587 E19.38826
G1 X22.391 Y-1.834 E21.39899
G1 X21.683 Y-1.718 F4800.000
G1 X22.728 Y11.470 E22.81299 F1800.000
G1 X22.709 Y12.732 E22.94791
G1 X22.562 Y14.071 E23.09190
G1 X22.275 Y15.410 E23.23828
G1 X21.799 Y16.876 E23.40302
G1 X19.801 Y22.320 E24.02287
G1 X18.642 Y24.317 E24.26967
G1 X16.876 Y25.804 E24.51647
G1 X14.710 Y26.604 E24.76327
G1 X13.500 Y26.714 E24.89313
G1 X-13.500 Y26.714 E27.77913
G1 X-15.775 Y26.317 E28.02593
G1 X-17.780 Y25.173 E28.27273
G1 X-19.280 Y23.417 E28.51953
G1 X-19.801 Y22.320 E28.64939
G1 X-21.713 Y17.125 E29.24112
G1 X-22.275 Y15.410 E29.43398
G1 X-22.562 Y14.071 E29.58036
G1 X-22.709 Y12.732 E29.72435
G1 X-22.728 Y11.470 E29.85927
G1 X-20.193 Y-20.530 E33.29042
G1 X-19.618 Y-22.766 E33.53722
G1 X-18.319 Y-24.675 E33.78402
G1 X-16.450 Y-26.031 E34.03082
G1 X-13.500 Y-26.714 E34.35449
G1 X13.500 Y-26.714 E37.24048
G1 X15.775 Y-26.317 E37.48729
G1 X17.780 Y-25.173 E37.73409 F1800.000
G1 X19.280 Y-23.417 E37.98089
G1 X20.193 Y-20.530 E38.30456
G1 X21.679 Y-1.777 E40.31530
G1 E38.31530 F2400.00000
G92 E0
G1 X9.043 Y4.342 F4800.000
G1 E2.00000 F2400.00000
G1 X10.000 Y4.086 E2.10591 F450.000
G1 X10.957 Y4.342 E2.21181
G1 X11.658 Y5.043 E2.31772
G1 X11.914 Y6.000 E2.42363
G1 X11.658 Y6.957 E2.52954
G1 X10.957 Y7.658 E2.63543
G1 X10.000 Y7.914 E2.74134
G1 X9.043 Y7.658 E2.84725
G1 X8.342 Y6.957 E2.95316
G1 X8.086 Y6.000 E3.05906
G1 X8.342 Y5.043 E3.16497
G1 X9.001 Y4.385 E3.26446
G1 X9.078 Y3.944 F4800.000
G1 X11.672 Y3.055 F4800.000
G1 X10.000 Y2.607 E3.44945 F1200.000
G1 X8.304 Y3.062 E3.63717
G1 X7.062 Y4.304 E3.82490
G1 X6.607 Y6.000 E4.01262
G1 X7.062 Y7.696 E4.20035
G1 X8.304 Y8.938 E4.38806
G1 X10.000 Y9.393 E4.57579
G1 X11.696 Y8.938 E4.76352
G1 X12.646 Y7.989 E4.90708
G1 X12.919 Y8.377 E4.95778
G1 X13.721 Y9.907 E5.14247
G1 X14.091 Y11.047 E5.27053
G1 X14.196 Y12.000 E5.37306
G1 X14.091 Y12.953 E5.47559
G1 X13.721 Y14.093 E5.60365
G1 X12.919 Y15.623 E5.78834
G1 X11.672 Y17.400 E6.02032
G1 X11.672 Y18.172 E6.10286
G1 X-11.672 Y18.172 E8.59800
G1 X-11.672 Y17.400 E8.68053
G1 X-12.919 Y15.623 E8.91251
G1 X-13.721 Y14.093 E9.09720
G1 X-14.091 Y12.953 E9.22527
G1 X-14.196 Y12.000 E9.32779
G1 X-14.091 Y11.047 E9.43032
G1 X-13.721 Y9.907 E9.55838
G1 X-12.919 Y8.377 E9.74308
G1 X-12.646 Y7.989 E9.79378
G1 X-11.696 Y8.938 E9.93733
G1 X-10.000 Y9.393 E10.12506
G1 X-8.304 Y8.938 E10.31279
G1 X-7.062 Y7.696 E10.50050
G1 X-6.607 Y6.000 E10.68823
G1 X-7.062 Y4.304 E10.87595
G1 X-8.304 Y3.062 E11.06368
G1 X-10.000 Y2.607 E11.25140
G1 X-11.672 Y3.055 E11.43639
G1 X-11.672 Y-11.055 E12.94461
G1 X-10.000 Y-10.607 E13.12960
G1 X-8.304 Y-11.062 E13.31732
G1 X-7.062 Y-12.304 E13.50504
G1 X-6.607 Y-14.000 E13.69277
G1 X-7.062 Y-15.696 E13.88049
G1 X-8.304 Y-16.938 E14.06821
G1 X-10.000 Y-17.393 E14.25593
G1 X-11.672 Y-16.945 E14.44092
G1 X-11.672 Y-18.172 E14.57206
G1 X11.672 Y-18.172 E17.06720
G1 X11.672 Y-16.945 E17.19834
G1 X10.000 Y-17.393 E17.38333
G1 X8.304 Y-16.938 E17.57105
G1 X7.062 Y-15.696 E17.75877
G1 X6.607 Y-14.000 E17.94649
G1 X7.062 Y-12.304 E18.13422
G1 X8.304 Y-11.062 E18.32194
G1 X10.000 Y-10.607 E18.50966
G1 X11.672 Y-11.055 E18.69465
G1 X11.672 Y2.995 E20.19646
G1 X12.386 Y4.761 F4800.000
G1 X11.327 Y3.702 E20.35656 F1200.000
G1 X10.000 Y3.347 E20.50338
G1 X8.673 Y3.702 E20.65019
G1 X7.702 Y4.673 E20.79701
G1 X7.347 Y6.000 E20.94382
G1 X7.702 Y7.327 E21.09064
G1 X8.673 Y8.298 E21.23745
G1 X10.000 Y8.653 E21.38427
G1 X11.327 Y8.298 E21.53109
G1 X12.298 Y7.327 E21.67789
G1 X12.507 Y6.547 E21.76416
G1 X13.530 Y8.004 E21.95443
G1 X14.382 Y9.629 E22.15054
G1 X14.793 Y10.896 E22.29293
G1 X14.914 Y12.000 E22.41165
G1 X14.793 Y13.104 E22.53037
G1 X14.382 Y14.371 E22.67275
G1 X13.530 Y15.996 E22.86886
G1 X12.386 Y17.625 E23.08164
G1 X12.386 Y18.886 E23.21640
G1 X-12.386 Y18.886 E25.86421
G1 X-12.386 Y17.625 E25.99896
G1 X-13.530 Y15.996 E26.21174
G1 X-14.382 Y14.371 E26.40785
G1 X-14.793 Y13.104 E26.55023
G1 X-14.914 Y12.000 E26.66895
G1 X-14.793 Y10.896 E26.78768
G1 X-14.382 Y9.629 E26.93006
G1 X-13.530 Y8.004 E27.12617
G1 X-12.507 Y6.547 E27.31644
G1 X-12.298 Y7.327 E27.40271
G1 X-11.327 Y8.298 E27.54952
G1 X-10.000 Y8.653 E27.69633
G1 X-8.673 Y8.298 E27.84315
G1 X-7.702 Y7.327 E27.98996
G1 X-7.347 Y6.000 E28.13678
G1 X-7.702 Y4.673 E28.28359
G1 X-8.673 Y3.702 E28.43041
G1 X-10.000 Y3.347 E28.57722
G1 X-11.327 Y3.702 E28.72404
G1 X-12.386 Y4.761 E28.88414
G1 X-12.386 Y-12.761 E30.75709
G1 X-11.327 Y-11.702 E30.91719
G1 X-10.000 Y-11.347 E31.06401
G1 X-8.673 Y-11.702 E31.21082
G1 X-7.702 Y-12.673 E31.35764
G1 X-7.347 Y-14.000 E31.50445
G1 X-7.702 Y-15.327 E31.65127
G1 X-8.673 Y-16.298 E31.79808
G1 X-10.000 Y-16.653 E31.94490
G1 X-11.327 Y-16.298 E32.09172
G1 X-12.386 Y-15.239 E32.25181
G1 X-12.386 Y-18.886 E32.64164
G1 X12.386 Y-18.886 E35.28945
G1 X12.386 Y-15.239 E35.67927
G1 X11.327 Y-16.298 E35.83937
G1 X10.000 Y-16.653 E35.98619
G1 X8.673 Y-16.298 E36.13301
G1 X7.702 Y-15.327 E36.27981
G1 X7.347 Y-14.000 E36.42663
G1 X7.702 Y-12.673 E36.57345
G1 X8.673 Y-11.702 E36.72026
G1 X10.000 Y-11.347 E36.86708
G1 X11.327 Y-11.702 E37.01389
G1 X12.386 Y-12.761 E37.17400
G1 X12.386 Y4.701 E39.04053
G1 X10.000 Y-12.086 F4800.000
G1 X9.043 Y-12.342 E39.14644 F450.000
G1 X8.342 Y-13.043 E39.25234
G1 X8.086 Y-14.000 E39.35825
G1 X8.308 Y-14.829 E39.44994
G1 X8.342 Y-14.957 E39.46416
G1 X9.043 Y-15.658 E39.57006
G1 X10.000 Y-15.914 E39.67597 F450.000
G1 X10.957 Y-15.658 E39.78188
G1 X11.658 Y-14.957 E39.88778
G1 X11.914 Y-14.000 E39.99369
G1 X11.658 Y-13.043 E40.09960
G1 X10.957 Y-12.342 E40.20550
G1 X10.058 Y-12.101 E40.30499
G1 X9.771 Y-11.758 F4800.000
G1 X-8.086 Y-14.000 F4800.000
G1 X-8.342 Y-13.043 E40.41090 F450.000
G1 X-9.043 Y-12.342 E40.51681
G1 X-10.000 Y-12.086 E40.62272
G1 X-10.957 Y-12.342 E40.72862
G1 X-11.658 Y-13.043 E40.83453
G1 X-11.914 Y-14.000 E40.94043
G1 X-11.658 Y-14.957 E41.04634
G1 X-10.957 Y-15.658 E41.15224
G1 X-10.000 Y-15.914 E41.25815 F450.000
G1 X-9.043 Y-15.658 E41.36406
G1 X-8.342 Y-14.957 E41.46996
G1 X-8.101 Y-14.058 E41.56946
G1 X-7.758 Y-13.771 F4800.000
G1 X-10.000 Y4.086 F4800.000
G1 X-9.043 Y4.342 E41.67536 F450.000
G1 X-8.342 Y5.043 E41.78127
G1 X-8.086 Y6.000 E41.88718
G1 X-8.342 Y6.957 E41.99309
G1 X-9.043 Y7.658 E42.09899
G1 X-10.000 Y7.914 E42.20490
G1 X-10.957 Y7.658 E42.31081
G1 X-11.658 Y6.957 E42.41671
G1 X-11.914 Y6.000 E42.52262
G1 X-11.658 Y5.043 E42.62852
G1 X-10.957 Y4.342 E42.73443
G1 X-10.058 Y4.101 E42.83392 F450.000
G1 X-9.771 Y3.758 F4800.000
G1 E40.83392 F2400.00000
G92 E0
G1 X-13.100 Y19.600 F4800.000
G1 E2.00000 F2400.00000
G1 X-13.100 Y17.851 E2.18697 F600.000
G1 X-14.141 Y16.368 E2.38056
G1 X-15.043 Y14.649 E2.58808
G1 X-15.495 Y13.255 E2.74478
G1 X-15.632 Y12.000 E2.87970
G1 X-15.495 Y10.745 E3.01462
G1 X-15.043 Y9.351 E3.17132
G1 X-14.141 Y7.632 E3.37884
G1 X-13.100 Y6.149 E3.57243
G1 X-13.100 Y-19.600 E6.32473
G1 X13.100 Y-19.600 E9.12521
G1 X13.100 Y6.149 E11.87750
G1 X14.141 Y7.632 E12.07110
G1 X15.043 Y9.351 E12.27862
G1 X15.495 Y10.745 E12.43532
G1 X15.632 Y12.000 E12.57024
G1 X15.495 Y13.255 E12.70516
G1 X15.043 Y14.649 E12.86185
G1 X14.141 Y16.368 E13.06938
G1 X13.100 Y17.851 E13.26297
G1 X13.100 Y19.600 E13.44994
G1 X-13.040 Y19.600 E16.24401
G1 X-12.900 Y19.254 F4800.000
G1 X-11.236 Y17.393 F4800.000
G1 X-10.893 Y17.736 E16.29684 F600.000
G1 X-9.864 Y17.736 E16.40892
G1 X-12.715 Y14.885 E16.84805
G1 X-13.556 Y13.015 F4800.000
G1 X-8.835 Y17.736 E17.57529 F600.000
G1 X-7.806 Y17.736 E17.68737
G1 X-13.750 Y11.792 E18.60299
G1 X-13.624 Y10.889 E18.70224
G1 X-6.777 Y17.736 E19.75685
G1 X-5.748 Y17.736 E19.86894
G1 X-13.372 Y10.112 E21.04325
G1 X-13.034 Y9.420 E21.12708
G1 X-4.718 Y17.736 E22.40796
G1 X-3.689 Y17.736 E22.52005
G1 X-12.098 Y9.327 E23.81525
G1 X-10.692 Y9.704 E23.97378
G1 X-2.660 Y17.736 E25.21094
G1 X-1.631 Y17.736 E25.32303
G1 X-9.652 Y9.715 E26.55849
G1 X-8.840 Y9.498 E26.65001
G1 X-0.602 Y17.736 E27.91898
G1 X0.427 Y17.736 E28.03106
G1 X-8.074 Y9.235 E29.34043
G1 X-7.559 Y8.721 E29.41969
G1 X1.456 Y17.736 E30.80831
G1 X2.485 Y17.736 E30.92040
G1 X-7.044 Y8.206 E32.38828
G1 X-6.621 Y7.601 E32.46876
G1 X3.515 Y17.736 E34.02986
G1 X4.544 Y17.736 E34.14195
G1 X-6.403 Y6.789 E35.82807
G1 X-6.186 Y5.978 E35.91959
G1 X5.573 Y17.736 E37.73073
G1 X6.602 Y17.736 E37.84281
G1 X-6.468 Y4.667 E39.85591
G1 X-10.789 Y2.403 F4800.000
G1 X-11.236 Y1.956 E39.92472 F600.000
G1 X-11.236 Y0.927 E40.03680
G1 X-9.978 Y2.186 E40.23063
G1 X-8.667 Y2.468 E40.37670
G1 X-11.236 Y-0.102 E40.77249
G1 X-11.236 Y-1.131 E40.88458
G1 X7.631 Y17.736 E43.79068
G1 X8.660 Y17.736 E43.90277
G1 X-11.236 Y-2.160 E46.96738
G1 X-11.236 Y-3.189 E47.07947
G1 X9.689 Y17.736 E50.30260
G1 X10.718 Y17.736 E50.41469
G1 X-11.236 Y-4.218 E53.79634
G1 X-11.236 Y-5.248 E53.90843
G1 X11.294 Y17.283 E57.37877
G1 X11.719 Y16.678 E57.45923
G1 X-11.236 Y-6.277 E60.99495
G1 X-11.236 Y-7.306 E61.10704
G1 X12.143 Y16.074 E64.70815
G1 X12.568 Y15.469 E64.78861
G1 X-11.236 Y-8.335 E68.45510
G1 X-11.236 Y-9.364 E68.56718
G1 X12.922 Y14.794 E72.28823
G1 X13.276 Y14.119 E72.37125
G1 X8.698 Y9.541 E73.07645
G1 X9.996 Y9.810 F4800.000
G1 X13.543 Y13.357 E73.62291 F600.000
G1 X13.718 Y12.503 E73.71792
G1 X10.807 Y9.592 E74.16624
G1 X11.619 Y9.375 E74.25776
G1 X13.678 Y11.433 E74.57487
G1 X13.076 Y9.802 F4800.000
G1 X12.218 Y8.944 E74.70703 F600.000
G1 X6.459 Y7.302 F4800.000
G1 X-11.236 Y-10.393 E77.43266 F600.000
G1 X-10.004 Y-10.190 E77.56863
G1 X6.190 Y6.004 E80.06309
G1 X6.408 Y5.193 E80.15461
G1 X-9.193 Y-10.408 E82.55755
G1 X-8.381 Y-10.625 E82.64907
G1 X6.625 Y4.381 E84.96049
G1 X7.056 Y3.782 E85.04080
G1 X-7.782 Y-11.056 E87.32632
G1 X-7.268 Y-11.570 E87.40558
G1 X7.570 Y3.268 E89.69109
G1 X8.085 Y2.753 E89.77035
G1 X-6.753 Y-12.085 E92.05586
G1 X-6.497 Y-12.858 E92.14458
G1 X8.858 Y2.497 E94.50982
G1 X9.670 Y2.280 E94.60134
G1 X-6.280 Y-13.670 E97.05810
G1 X-6.304 Y-14.723 E97.17284
G1 X10.723 Y2.304 E99.79556
G1 X11.236 Y1.788 E99.87482
G1 X-6.681 Y-16.129 E102.63457
G1 X-7.259 Y-17.736 F4800.000
G1 X11.236 Y0.759 E105.48334 F600.000
G1 X11.236 Y-0.270 E105.59543
G1 X-6.230 Y-17.736 E108.28569
G1 X-5.201 Y-17.736 E108.39778
G1 X11.236 Y-1.299 E110.92952
G1 X11.236 Y-2.329 E111.04161
G1 X-4.171 Y-17.736 E113.41484
G1 X-3.142 Y-17.736 E113.52693
G1 X11.236 Y-3.358 E115.74165
G1 X11.236 Y-4.387 E115.85373
G1 X-2.113 Y-17.736 E117.90993
G1 X-1.084 Y-17.736 E118.02202
G1 X11.236 Y-5.416 E119.91970
G1 X10.455 Y-10.313 F4800.000
G1 X11.236 Y-9.532 E120.04002 F600.000
G1 X11.236 Y-8.503 E120.15210
G1 X9.493 Y-10.246 E120.42056
G1 X8.087 Y-10.623 E120.57907
G1 X11.236 Y-7.474 E121.06406
G1 X11.236 Y-6.445 E121.17615
G1 X-0.055 Y-17.736 E122.91532
G1 X0.974 Y-17.736 E123.02741
G1 X6.623 Y-12.087 E123.89747
G1 X6.246 Y-13.493 E124.05598
G1 X2.003 Y-17.736 E124.70951
G1 X3.032 Y-17.736 E124.82160
G1 X6.313 Y-14.455 E125.32699
G1 X6.531 Y-15.267 E125.41850
G1 X4.062 Y-17.736 E125.79887
G1 X5.091 Y-17.736 E125.91096
G1 X6.832 Y-15.994 E126.17925
G1 X7.347 Y-16.509 E126.25851
G1 X6.120 Y-17.736 E126.44755
G1 X7.149 Y-17.736 E126.55964
G1 X7.527 Y-17.359 E126.61781
G1 X8.178 Y-17.293 F4800.000
G1 X8.754 Y-17.625 E126.68882 F600.000
G1 X9.993 Y-17.788 E126.82245
G1 X11.315 Y-17.616 E126.96489
G1 X12.012 Y-15.082 F4800.000
G1 X12.482 Y-14.269 E127.06532 F600.000
G1 X12.509 Y-14.060 E127.08777
G1 X12.482 Y-13.731 E127.12306
G1 X12.012 Y-12.918 E127.22350
G1 E125.22350 F2400.00000
G92 E0
G1 X-8.178 Y-17.293 F4800.000
G1 E2.00000 F2400.00000
G1 X-8.754 Y-17.625 E2.07101 F600.000
G1 X-9.993 Y-17.788 E2.20464
G1 X-11.315 Y-17.616 E2.34709
G1 X-12.012 Y-15.082 F4800.000
G1 X-12.482 Y-14.269 E2.44752 F600.000
G1 X-12.509 Y-14.060 E2.46996
G1 X-12.482 Y-13.731 E2.50526
G1 X-12.012 Y-12.918 E2.60569
M106 S89.25
M104 S185 ; set temperature
M140 S60 ; wait for bed temperature to be reached
G1 Z0.700 F4800.000
G1 X8.183 Y7.049 F4800.000
G1 X7.902 Y6.000 E2.65675 F900.000
G1 X8.183 Y4.951 E2.70780
G1 X8.951 Y4.183 E2.75886
G1 X9.819 Y3.951 E2.80110
G1 X10.000 Y3.902 E2.80992 F900.000
G1 X11.049 Y4.183 E2.86097
G1 X11.817 Y4.951 E2.91202
G1 X12.098 Y6.000 E2.96308
G1 X11.817 Y7.049 E3.01413
G1 X11.049 Y7.817 E3.06519
G1 X10.000 Y8.098 E3.11624
G1 X8.951 Y7.817 E3.16730
G1 X8.226 Y7.091 E3.21553
G1 X8.522 Y6.854 F4800.000
G1 X8.293 Y6.000 E3.24882 F900.000
G1 X8.522 Y5.146 E3.28211
G1 X9.146 Y4.522 E3.31540
G1 X9.917 Y4.315 E3.34543
G1 X10.000 Y4.293 E3.34869 F900.000
G1 X10.854 Y4.522 E3.38198
G1 X11.478 Y5.146 E3.41527
G1 X11.707 Y6.000 E3.44856
G1 X11.478 Y6.854 E3.48185
G1 X10.854 Y7.478 E3.51514
G1 X10.000 Y7.707 E3.54843
G1 X9.146 Y7.478 E3.58172
G1 X8.564 Y6.896 E3.61275
G1 X8.123 Y6.819 F4800.000
G1 E1.61275 F2400.00000
G92 E0
G1 X12.534 Y5.991 F4800.000
G1 E2.00000 F2400.00000
G1 X14.082 Y8.197 E2.12671 F2400.000
G1 X14.891 Y9.739 E2.20858
G1 X15.282 Y10.945 E2.26823
G1 X15.398 Y12.000 E2.31812
G1 X15.282 Y13.055 E2.36800
G1 X14.891 Y14.261 E2.42765
G1 X14.082 Y15.803 E2.50952
G1 X12.504 Y18.051 E2.63867
G1 X12.504 Y19.004 E2.68347
G1 X-12.504 Y19.004 E3.85934
G1 X-12.504 Y18.051 E3.90414
G1 X-14.082 Y15.803 E4.03329
G1 X-14.891 Y14.261 E4.11516
G1 X-15.282 Y13.055 E4.17481
G1 X-15.398 Y12.000 E4.22469
G1 X-15.282 Y10.945 E4.27458
G1 X-14.891 Y9.739 E4.33423
G1 X-14.082 Y8.197 E4.41610
G1 X-12.534 Y5.991 E4.54281
G1 X-12.190 Y7.273 E4.60519
G1 X-11.264 Y8.193 E4.66658
G1 X-10.000 Y8.531 E4.72810
G1 X-8.734 Y8.192 E4.78971
G1 X-7.808 Y7.266 E4.85132
G1 X-7.469 Y6.000 E4.91293
G1 X-7.808 Y4.734 E4.97454
G1 X-8.734 Y3.808 E5.03615
G1 X-10.000 Y3.469 E5.09776
G1 X-11.266 Y3.808 E5.15937
G1 X-12.192 Y4.734 E5.22098
G1 X-12.285 Y5.082 E5.23792
G1 X-12.504 Y5.054 E5.24828
G1 X-12.504 Y-13.054 E6.09969
G1 X-12.285 Y-13.082 E6.11005
G1 X-12.192 Y-12.734 E6.12699
G1 X-11.266 Y-11.808 E6.18860
G1 X-10.000 Y-11.469 E6.25021
G1 X-8.734 Y-11.808 E6.31182
G1 X-7.808 Y-12.734 E6.37343
G1 X-7.469 Y-14.000 E6.43504
G1 X-7.808 Y-15.266 E6.49665
G1 X-8.734 Y-16.192 E6.55826
G1 X-10.000 Y-16.531 E6.61987
G1 X-11.266 Y-16.192 E6.68148
G1 X-12.192 Y-15.266 E6.74309
G1 X-12.285 Y-14.918 E6.76003
G1 X-12.504 Y-14.946 E6.77039
G1 X-12.504 Y-19.004 E6.96118
G1 X12.504 Y-19.004 E8.13705
G1 X12.504 Y-14.946 E8.32784
G1 X12.285 Y-14.918 E8.33820
G1 X12.192 Y-15.266 E8.35514
G1 X11.266 Y-16.192 E8.41675
G1 X10.000 Y-16.531 E8.47836
G1 X8.734 Y-16.192 E8.53997
G1 X7.808 Y-15.266 E8.60157
G1 X7.469 Y-14.000 E8.66319
G1 X7.808 Y-12.734 E8.72480
G1 X8.734 Y-11.808 E8.78641
G1 X10.000 Y-11.469 E8.84802
G1 X11.266 Y-11.808 E8.90963
G1 X12.192 Y-12.734 E8.97123
