; generated by Slic3r 1.2.9 on 2022-03-17 at 22:02:59

; external perimeters extrusion width = 0.40mm
; perimeters extrusion width = 0.67mm
; infill extrusion width = 0.67mm
; solid infill extrusion width = 0.67mm
; top infill extrusion width = 0.67mm

M190 S65 ; set bed temperature
M104 S200 ; set temperature
G28 ; home all axes
G1 f700 x0 y70 Z0.2 E9 F500 ; start purge line
G1 f700 x40 y50 Z0.2 E12.5; finish purge line
G1 Z5 F5000 ; lift nozzle

M109 S200 ; wait for temperature to be reached
G21 ; set units to millimeters
G90 ; use absolute coordinates
M82 ; use absolute distances for extrusion
G92 E0
G1 Z0.300 F4800.000
G1 X19.571 Y0.000 F4800.000
G1 X19.571 Y12.500 E0.83507 F1080.000
G1 X19.174 Y14.837 E0.99340
G1 X18.027 Y16.911 E1.15173
G1 X16.259 Y18.489 E1.31006
G1 X14.069 Y19.395 E1.46839
G1 X12.500 Y19.571 E1.57388
G1 X-12.500 Y19.571 E3.24402
G1 X-14.837 Y19.174 E3.40235
G1 X-16.911 Y18.027 E3.56068
G1 X-18.489 Y16.259 E3.71901
G1 X-19.395 Y14.069 E3.87734
G1 X-19.571 Y12.500 E3.98284
G1 X-19.571 Y-12.500 E5.65297
G1 X-19.174 Y-14.837 E5.81130
G1 X-18.027 Y-16.911 E5.96963
G1 X-16.259 Y-18.489 E6.12796
G1 X-14.069 Y-19.395 E6.28629
G1 X-12.500 Y-19.571 E6.39179
G1 X12.500 Y-19.571 E8.06192
G1 X14.837 Y-19.174 E8.22025
G1 X16.911 Y-18.027 E8.37858 F1080.000
G1 X18.489 Y-16.259 E8.53691
G1 X19.395 Y-14.069 E8.69524
G1 X19.571 Y-12.500 E8.80074
G1 X19.571 Y-0.060 E9.63180
G1 X19.036 Y-0.060 F4800.000
G1 X19.036 Y12.500 E10.47088 F1080.000
G1 X18.639 Y14.743 E10.62305
G1 X17.496 Y16.713 E10.77522
G1 X15.747 Y18.172 E10.92739
G1 X12.500 Y19.036 E11.15182
G1 X-12.500 Y19.036 E12.82195
G1 X-14.743 Y18.639 E12.97412
G1 X-16.713 Y17.496 E13.12630
G1 X-18.172 Y15.747 E13.27847
G1 X-19.036 Y12.500 E13.50290
G1 X-19.036 Y-12.500 E15.17303
G1 X-18.639 Y-14.743 E15.32520
G1 X-17.496 Y-16.713 E15.47737
G1 X-15.747 Y-18.172 E15.62955
G1 X-12.500 Y-19.036 E15.85397
G1 X12.500 Y-19.036 E17.52411
G1 X14.743 Y-18.639 E17.67628
G1 X16.713 Y-17.496 E17.82845 F1080.000
G1 X18.172 Y-15.747 E17.98062
G1 X19.036 Y-12.500 E18.20505
G1 X19.036 Y-0.120 E19.03210
G92 E0
G1 X13.839 Y-0.120 F4800.000
G1 X13.839 Y13.055 E0.88014 F1080.000
G1 X13.055 Y13.839 E0.95425
G1 X-13.055 Y13.839 E2.69849
G1 X-13.839 Y13.055 E2.77260
G1 X-13.839 Y-13.055 E4.51684
G1 X-13.055 Y-13.839 E4.59095
G1 X13.055 Y-13.839 E6.33519
G1 X13.839 Y-13.055 E6.40930
G1 X13.839 Y-0.180 E7.26939 F1080.000
G1 X13.303 Y-0.180 F4800.000
G1 X13.303 Y12.833 E8.13872 F1080.000
G1 X12.833 Y13.303 E8.18318
G1 X-12.833 Y13.303 E9.89778
G1 X-13.303 Y12.833 E9.94225
G1 X-13.303 Y-12.833 E11.65685
G1 X-12.833 Y-13.303 E11.70131
G1 X12.833 Y-13.303 E13.41591
G1 X13.303 Y-12.833 E13.46037 F1080.000
G1 X13.303 Y-0.240 E14.30164
G1 X12.768 Y-0.240 F4800.000
G1 X12.768 Y12.611 E15.16015 F1080.000
G1 X12.611 Y12.768 E15.17497
G1 X-12.611 Y12.768 E16.85993
G1 X-12.768 Y12.611 E16.87475
G1 X-12.768 Y-12.611 E18.55971
G1 X-12.611 Y-12.768 E18.57453
G1 X12.611 Y-12.768 E20.25949
G1 X12.768 Y-12.611 E20.27431
G1 X12.768 Y-0.300 E21.09675 F1080.000
G1 X12.200 Y-0.300 F4800.000
G1 X12.200 Y12.200 E21.93181 F420.000
G1 X-12.200 Y12.200 E23.56187 F420.000
G1 X-12.200 Y-12.200 E25.19192
G1 X12.200 Y-12.200 E26.82197
G1 X12.200 Y-0.360 E27.61295
G1 X11.854 Y-0.100 F4800.000
G1 X11.664 Y-0.360 F4800.000
G1 X11.664 Y11.664 E28.41624 F840.000
G1 X-11.664 Y11.664 E29.97473 F840.000
G1 X-11.664 Y-11.664 E31.53321
G1 X11.664 Y-11.664 E33.09170
G1 X11.664 Y-0.420 E33.84289
G1 X4.912 Y11.129 F4800.000
G1 X-11.129 Y11.129 E34.91449 F840.000
G1 X-11.129 Y-11.129 E36.40141
G1 X11.129 Y-11.129 E37.88834
G1 X11.129 Y11.129 E39.37526
G1 X4.972 Y11.129 E39.78657 F840.000
G1 X-10.807 Y10.540 F4800.000
G1 X-10.540 Y10.807 E39.81198 F360.000
G1 X-9.778 Y10.807 E39.86324
G1 X-10.807 Y9.778 E39.96115
G1 X-10.807 Y9.015 E40.01241
G1 X-9.015 Y10.807 E40.18281
G1 X-8.253 Y10.807 E40.23407
G1 X-10.807 Y8.253 E40.47697
G1 X-10.807 Y7.490 E40.52823
G1 X-7.490 Y10.807 E40.84362
G1 X-6.728 Y10.807 E40.89489
G1 X-10.807 Y6.728 E41.28277
G1 X-10.807 Y5.966 E41.33404
G1 X-5.966 Y10.807 E41.79442
G1 X-5.203 Y10.807 E41.84568
G1 X-10.807 Y5.203 E42.37856
G1 X-10.807 Y4.441 E42.42983
G1 X-4.441 Y10.807 E43.03520
G1 X-3.678 Y10.807 E43.08647
G1 X-10.807 Y3.678 E43.76434
G1 X-10.807 Y2.916 E43.81560
G1 X-2.916 Y10.807 E44.56597
G1 X-2.154 Y10.807 E44.61723
G1 X-10.807 Y2.154 E45.44010
G1 X-10.807 Y1.391 E45.49136
G1 X-1.391 Y10.807 E46.38672
G1 X-0.629 Y10.807 E46.43798
G1 X-10.807 Y0.629 E47.40584
G1 X-10.807 Y-0.134 E47.45710
G1 X0.134 Y10.807 E48.49745
G1 X0.896 Y10.807 E48.54872
G1 X-10.807 Y-0.896 E49.66157
G1 X-10.807 Y-1.658 E49.71283
G1 X1.658 Y10.807 E50.89817
G1 X2.421 Y10.807 E50.94944
G1 X-10.807 Y-2.421 E52.20728
G1 X-10.807 Y-3.183 E52.25854
G1 X3.183 Y10.807 E53.58888
G1 X3.946 Y10.807 E53.64014
G1 X-10.807 Y-3.946 E55.04297
G1 X-10.807 Y-4.708 E55.09423
G1 X4.708 Y10.807 E56.56956
G1 X5.470 Y10.807 E56.62082
G1 X-10.807 Y-5.470 E58.16865
G1 X-10.807 Y-6.233 E58.21991
G1 X6.233 Y10.807 E59.84023
G1 X6.995 Y10.807 E59.89150
G1 X-10.807 Y-6.995 E61.58431
G1 X-10.807 Y-7.758 E61.63557
G1 X7.758 Y10.807 E63.40089
G1 X8.520 Y10.807 E63.45215
G1 X-10.807 Y-8.520 E65.28996
G1 X-10.807 Y-9.282 E65.34122
G1 X9.282 Y10.807 E67.25153
G1 X10.045 Y10.807 E67.30279
G1 X-10.807 Y-10.045 E69.28559
G1 X-10.787 Y-10.787 E69.33553
G1 X10.787 Y10.787 E71.38702
G1 X10.807 Y10.045 E71.43696
G1 X-10.045 Y-10.807 E73.41976
G1 X-9.282 Y-10.807 E73.47103
G1 X10.807 Y9.282 E75.38133
G1 X10.807 Y8.520 E75.43260
G1 X-8.520 Y-10.807 E77.27041
G1 X-7.758 Y-10.807 E77.32167
G1 X10.807 Y7.758 E79.08699
G1 X10.807 Y6.995 E79.13825
G1 X-6.995 Y-10.807 E80.83107
G1 X-6.233 Y-10.807 E80.88233
G1 X10.807 Y6.233 E82.50266
G1 X10.807 Y5.470 E82.55392
G1 X-5.470 Y-10.807 E84.10175
G1 X-4.708 Y-10.807 E84.15301
G1 X10.807 Y4.708 E85.62835
G1 X10.807 Y3.946 E85.67961
G1 X-3.946 Y-10.807 E87.08244
G1 X-3.183 Y-10.807 E87.13371
G1 X10.807 Y3.183 E88.46405
G1 X10.807 Y2.421 E88.51531
G1 X-2.421 Y-10.807 E89.77316
G1 X-1.658 Y-10.807 E89.82442
G1 X10.807 Y1.658 E91.00977
G1 X10.807 Y0.896 E91.06103
G1 X-0.896 Y-10.807 E92.17388
G1 X-0.134 Y-10.807 E92.22514
G1 X10.807 Y0.134 E93.26550
G1 X10.807 Y-0.629 E93.31676
G1 X0.629 Y-10.807 E94.28462
G1 X1.391 Y-10.807 E94.33589
G1 X10.807 Y-1.391 E95.23125
G1 X10.807 Y-2.154 E95.28251
G1 X2.154 Y-10.807 E96.10538
G1 X2.916 Y-10.807 E96.15664
G1 X10.807 Y-2.916 E96.90702
G1 X10.807 Y-3.678 E96.95828
G1 X3.678 Y-10.807 E97.63616
G1 X4.441 Y-10.807 E97.68742
G1 X10.807 Y-4.441 E98.29280
G1 X10.807 Y-5.203 E98.34406
G1 X5.203 Y-10.807 E98.87695
G1 X5.966 Y-10.807 E98.92821
G1 X10.807 Y-5.966 E99.38860
G1 X10.807 Y-6.728 E99.43986
G1 X6.728 Y-10.807 E99.82775
G1 X7.490 Y-10.807 E99.87901
G1 X10.807 Y-7.490 E100.19441
G1 X10.807 Y-8.253 E100.24567
G1 X8.253 Y-10.807 E100.48857
G1 X9.015 Y-10.807 E100.53984
G1 X10.807 Y-9.015 E100.71024
G1 X10.807 Y-9.777 E100.76150
G1 X9.777 Y-10.807 E100.85941
G1 X10.540 Y-10.807 E100.91067
G1 X10.807 Y-10.540 E100.93609
M106 S127.5
G92 E0
G1 Z0.500 F4800.000
G1 X12.300 Y-10.540 F4800.000
G1 X12.300 Y12.300 E0.67815 F1050.000
G1 X-12.300 Y12.300 E1.40855 F1050.000
G1 X-12.300 Y-12.300 E2.13896
G1 X12.300 Y-12.300 E2.86936
G1 X12.300 Y-10.600 E2.91984
G1 X11.954 Y-10.340 F4800.000
G1 X11.807 Y-10.600 F4800.000
G1 X11.807 Y11.807 E4.09050 F2100.000
G1 X-11.807 Y11.807 E5.32425 F2100.000
G1 X-11.807 Y-11.807 E6.55799
G1 X11.807 Y-11.807 E7.79173
G1 X11.807 Y-10.660 E7.85168
G1 X11.179 Y2.187 F4800.000
G1 X11.179 Y11.179 E8.32145 F2100.000
G1 X-11.179 Y11.179 E9.48954 F2100.000
G1 X-11.179 Y-11.179 E10.65763
G1 X11.179 Y-11.179 E11.82572
G1 X11.179 Y2.127 E12.52090
G1 X10.492 Y10.798 F4800.000
G1 X10.798 Y10.492 E12.54400 F900.000
G1 X10.798 Y9.586 E12.59225
G1 X9.586 Y10.798 E12.68359
G1 X8.680 Y10.798 E12.73185
G1 X10.798 Y8.680 E12.89144
G1 X10.798 Y7.774 E12.93969
G1 X7.774 Y10.798 E13.16752
G1 X6.868 Y10.798 E13.21578
G1 X10.798 Y6.868 E13.51186
G1 X10.798 Y5.962 E13.56012
G1 X5.962 Y10.798 E13.92444
G1 X5.056 Y10.798 E13.97270
G1 X10.798 Y5.056 E14.40526
G1 X10.798 Y4.150 E14.45352
G1 X4.150 Y10.798 E14.95434
G1 X3.244 Y10.798 E15.00259
G1 X10.798 Y3.244 E15.57165
G1 X10.798 Y2.338 E15.61991
G1 X2.338 Y10.798 E16.25722
G1 X1.432 Y10.798 E16.30547
G1 X10.798 Y1.432 E17.01103
G1 X10.798 Y0.526 E17.05928
G1 X0.526 Y10.798 E17.83308
G1 X-0.380 Y10.798 E17.88134
G1 X10.798 Y-0.380 E18.72338
G1 X10.798 Y-1.286 E18.77164
G1 X-1.286 Y10.798 E19.68193
G1 X-2.192 Y10.798 E19.73018
G1 X10.798 Y-2.192 E20.70872
G1 X10.798 Y-3.098 E20.75697
G1 X-3.098 Y10.798 E21.80376
G1 X-4.004 Y10.798 E21.85201
G1 X10.798 Y-4.004 E22.96704
G1 X10.798 Y-4.910 E23.01530
G1 X-4.910 Y10.798 E24.19857
G1 X-5.816 Y10.798 E24.24682
G1 X10.798 Y-5.816 E25.49834
G1 X10.798 Y-6.721 E25.54660
G1 X-6.721 Y10.798 E26.86636
G1 X-7.627 Y10.798 E26.91462
G1 X10.798 Y-7.627 E28.30263
G1 X10.798 Y-8.533 E28.35089
G1 X-8.533 Y10.798 E29.80714
G1 X-9.439 Y10.798 E29.85540
G1 X10.798 Y-9.439 E31.37990
G1 X10.798 Y-10.345 E31.42816
G1 X-10.345 Y10.798 E33.02090
G1 X-10.798 Y10.345 E33.05503
G1 X10.345 Y-10.798 E34.64777
G1 X9.439 Y-10.798 E34.69603
G1 X-10.798 Y9.439 E36.22053
G1 X-10.798 Y8.533 E36.26878
G1 X8.533 Y-10.798 E37.72503
G1 X7.627 Y-10.798 E37.77329
G1 X-10.798 Y7.627 E39.16130
G1 X-10.798 Y6.721 E39.20956
G1 X6.721 Y-10.798 E40.52932
G1 X5.815 Y-10.798 E40.57757
G1 X-10.798 Y5.815 E41.82909
G1 X-10.798 Y4.910 E41.87735
G1 X4.910 Y-10.798 E43.06061
G1 X4.004 Y-10.798 E43.10887
G1 X-10.798 Y4.004 E44.22390
G1 X-10.798 Y3.098 E44.27215
G1 X3.098 Y-10.798 E45.31893
G1 X2.192 Y-10.798 E45.36719
G1 X-10.798 Y2.192 E46.34572
G1 X-10.798 Y1.286 E46.39398
G1 X1.286 Y-10.798 E47.30426
G1 X0.380 Y-10.798 E47.35252
G1 X-10.798 Y0.380 E48.19456
G1 X-10.798 Y-0.526 E48.24282
G1 X-0.526 Y-10.798 E49.01661
G1 X-1.432 Y-10.798 E49.06487
G1 X-10.798 Y-1.432 E49.77042
G1 X-10.798 Y-2.338 E49.81868
G1 X-2.338 Y-10.798 E50.45598
G1 X-3.244 Y-10.798 E50.50424
G1 X-10.798 Y-3.244 E51.07329
G1 X-10.798 Y-4.150 E51.12155
G1 X-4.150 Y-10.798 E51.62236
G1 X-5.056 Y-10.798 E51.67062
G1 X-10.798 Y-5.056 E52.10318
G1 X-10.798 Y-5.962 E52.15144
G1 X-5.962 Y-10.798 E52.51576
G1 X-6.868 Y-10.798 E52.56402
G1 X-10.798 Y-6.868 E52.86009
G1 X-10.798 Y-7.774 E52.90835
G1 X-7.774 Y-10.798 E53.13618
G1 X-8.680 Y-10.798 E53.18444
G1 X-10.798 Y-8.680 E53.34402
G1 X-10.798 Y-9.586 E53.39228
G1 X-9.586 Y-10.798 E53.48361
G1 X-10.492 Y-10.798 E53.53187
G1 X-10.798 Y-10.492 E53.55496
G92 E0
G1 Z0.700 F4800.000
G1 X-12.300 Y-10.492 F4800.000
G1 X-12.300 Y-12.300 E0.05369 F1050.000
G1 X12.300 Y-12.300 E0.78410
G1 X12.300 Y12.300 E1.51450
G1 X-12.300 Y12.300 E2.24491 F1050.000
G1 X-12.300 Y-10.432 E2.91984
G1 X-11.954 Y-10.692 F4800.000
G1 X-11.807 Y-10.432 F4800.000
G1 X-11.807 Y-11.807 E2.99171 F2100.000
G1 X11.807 Y-11.807 E4.22545
G1 X11.807 Y11.807 E5.45920
G1 X-11.807 Y11.807 E6.69294 F2100.000
G1 X-11.807 Y-10.372 E7.85168
G1 X-2.539 Y-11.179 F4800.000
G1 X11.179 Y-11.179 E8.56838 F2100.000
G1 X11.179 Y11.179 E9.73647
G1 X-11.179 Y11.179 E10.90456 F2100.000
G1 X-11.179 Y-11.179 E12.07265
G1 X-2.599 Y-11.179 E12.52090
G1 X10.798 Y-10.492 F4800.000
G1 X10.492 Y-10.798 E12.54400 F900.000
G1 X9.586 Y-10.798 E12.59225
G1 X10.798 Y-9.586 E12.68359
G1 X10.798 Y-8.680 E12.73185
G1 X8.680 Y-10.798 E12.89143
G1 X7.774 Y-10.798 E12.93969
G1 X10.798 Y-7.774 E13.16752
G1 X10.798 Y-6.868 E13.21578
G1 X6.868 Y-10.798 E13.51186
G1 X5.962 Y-10.798 E13.56011
G1 X10.798 Y-5.962 E13.92444
G1 X10.798 Y-5.056 E13.97269
G1 X5.056 Y-10.798 E14.40526
G1 X4.150 Y-10.798 E14.45352
G1 X10.798 Y-4.150 E14.95434
G1 X10.798 Y-3.244 E15.00259
G1 X3.244 Y-10.798 E15.57165
G1 X2.338 Y-10.798 E15.61991
G1 X10.798 Y-2.338 E16.25722
G1 X10.798 Y-1.432 E16.30547
G1 X1.432 Y-10.798 E17.01102
G1 X0.526 Y-10.798 E17.05928
G1 X10.798 Y-0.526 E17.83308
G1 X10.798 Y0.380 E17.88134
G1 X-0.380 Y-10.798 E18.72338
G1 X-1.286 Y-10.798 E18.77164
G1 X10.798 Y1.286 E19.68193
G1 X10.798 Y2.192 E19.73018
G1 X-2.192 Y-10.798 E20.70872
G1 X-3.098 Y-10.798 E20.75697
G1 X10.798 Y3.098 E21.80375
G1 X10.798 Y4.004 E21.85201
G1 X-4.004 Y-10.798 E22.96704
G1 X-4.910 Y-10.798 E23.01530
G1 X10.798 Y4.910 E24.19857
G1 X10.798 Y5.816 E24.24682
G1 X-5.816 Y-10.798 E25.49834
G1 X-6.721 Y-10.798 E25.54660
G1 X10.798 Y6.721 E26.86636
G1 X10.798 Y7.627 E26.91462
G1 X-7.627 Y-10.798 E28.30263
G1 X-8.533 Y-10.798 E28.35089
G1 X10.798 Y8.533 E29.80714
G1 X10.798 Y9.439 E29.85540
G1 X-9.439 Y-10.798 E31.37990
G1 X-10.345 Y-10.798 E31.42816
G1 X10.798 Y10.345 E33.02090
G1 X10.345 Y10.798 E33.05503
G1 X-10.798 Y-10.345 E34.64777
G1 X-10.798 Y-9.439 E34.69603
G1 X9.439 Y10.798 E36.22052
G1 X8.533 Y10.798 E36.26878
G1 X-10.798 Y-8.533 E37.72503
G1 X-10.798 Y-7.627 E37.77329
G1 X7.627 Y10.798 E39.16130
G1 X6.721 Y10.798 E39.20955
G1 X-10.798 Y-6.721 E40.52932
G1 X-10.798 Y-5.815 E40.57757
G1 X5.815 Y10.798 E41.82909
G1 X4.910 Y10.798 E41.87734
G1 X-10.798 Y-4.910 E43.06061
G1 X-10.798 Y-4.004 E43.10887
G1 X4.004 Y10.798 E44.22389
G1 X3.098 Y10.798 E44.27215
G1 X-10.798 Y-3.098 E45.31893
G1 X-10.798 Y-2.192 E45.36719
G1 X2.192 Y10.798 E46.34572
G1 X1.286 Y10.798 E46.39397
G1 X-10.798 Y-1.286 E47.30426
G1 X-10.798 Y-0.380 E47.35252
G1 X0.380 Y10.798 E48.19456
G1 X-0.526 Y10.798 E48.24282
G1 X-10.798 Y0.526 E49.01661
G1 X-10.798 Y1.432 E49.06487
G1 X-1.432 Y10.798 E49.77042
G1 X-2.338 Y10.798 E49.81867
G1 X-10.798 Y2.338 E50.45598
G1 X-10.798 Y3.244 E50.50423
G1 X-3.244 Y10.798 E51.07329
G1 X-4.150 Y10.798 E51.12155
G1 X-10.798 Y4.150 E51.62236
G1 X-10.798 Y5.056 E51.67062
G1 X-5.056 Y10.798 E52.10318
G1 X-5.962 Y10.798 E52.15144
G1 X-10.798 Y5.962 E52.51576
G1 X-10.798 Y6.868 E52.56402
G1 X-6.868 Y10.798 E52.86009
G1 X-7.774 Y10.798 E52.90835
G1 X-10.798 Y7.774 E53.13618
G1 X-10.798 Y8.680 E53.18443
G1 X-8.680 Y10.798 E53.34402
G1 X-9.586 Y10.798 E53.39227
G1 X-10.798 Y9.586 E53.48361
G1 X-10.798 Y10.492 E53.53187
G1 X-10.492 Y10.798 E53.55496
G92 E0
G1 Z0.900 F4800.000
G1 X-10.492 Y12.300 F4800.000
G1 X-12.300 Y12.300 E0.05369 F1050.000
G1 X-12.300 Y-12.300 E0.78410
G1 X12.300 Y-12.300 E1.51450
G1 X12.300 Y12.300 E2.24491
G1 X-10.432 Y12.300 E2.91984 F1050.000
G1 X-10.692 Y11.954 F4800.000
G1 X-10.432 Y11.807 F4800.000
G1 X-11.807 Y11.807 E2.99171 F2100.000
G1 X-11.807 Y-11.807 E4.22545
G1 X11.807 Y-11.807 E5.45920
G1 X11.807 Y11.807 E6.69294
G1 X-10.372 Y11.807 E7.85168 F2100.000
G92 E0
G1 X0.302 Y11.179 F4800.000
G1 X-11.179 Y11.179 E0.59983 F2100.000
G1 X-11.179 Y-11.179 E1.76792
G1 X11.179 Y-11.179 E2.93601
G1 X11.179 Y11.179 E4.10410
G1 X0.362 Y11.179 E4.66922 F2100.000
G92 E0
G1 X10.492 Y10.798 F4800.000
G1 X10.798 Y10.492 E0.02309 F720.000
G1 X10.798 Y9.586 E0.07135
G1 X9.586 Y10.798 E0.16269
G1 X8.680 Y10.798 E0.21095
G1 X10.798 Y8.680 E0.37053
G1 X10.798 Y7.774 E0.41879
G1 X7.774 Y10.798 E0.64662
G1 X6.868 Y10.798 E0.69488
G1 X10.798 Y6.868 E0.99096
G1 X10.798 Y5.962 E1.03921
G1 X5.962 Y10.798 E1.40353
G1 X5.056 Y10.798 E1.45179
G1 X10.798 Y5.056 E1.88436
G1 X10.798 Y4.150 E1.93262
G1 X4.150 Y10.798 E2.43343
G1 X3.244 Y10.798 E2.48169
G1 X10.798 Y3.244 E3.05075
G1 X10.798 Y2.338 E3.09900
G1 X2.338 Y10.798 E3.73631
G1 X1.432 Y10.798 E3.78457
G1 X10.798 Y1.432 E4.49012
G1 X10.798 Y0.526 E4.53837
G1 X0.526 Y10.798 E5.31217
G1 X-0.380 Y10.798 E5.36043
G1 X10.798 Y-0.380 E6.20247
G1 X10.798 Y-1.286 E6.25072
G1 X-1.286 Y10.798 E7.16101
G1 X-2.192 Y10.798 E7.20927
G1 X10.798 Y-2.192 E8.18780
G1 X10.798 Y-3.098 E8.23606
G1 X-3.098 Y10.798 E9.28284
G1 X-4.004 Y10.798 E9.33109
G1 X10.798 Y-4.004 E10.44612
G1 X10.798 Y-4.910 E10.49438
G1 X-4.910 Y10.798 E11.67764
G1 X-5.816 Y10.798 E11.72590
G1 X10.798 Y-5.816 E12.97742
G1 X10.798 Y-6.721 E13.02567
G1 X-6.721 Y10.798 E14.34544
G1 X-7.627 Y10.798 E14.39369
G1 X10.798 Y-7.627 E15.78170
G1 X10.798 Y-8.533 E15.82996
G1 X-8.533 Y10.798 E17.28621
G1 X-9.439 Y10.798 E17.33446
G1 X10.798 Y-9.439 E18.85896
G1 X10.798 Y-10.345 E18.90722
G1 X-10.345 Y10.798 E20.49996
G1 X-10.798 Y10.345 E20.53409
G1 X10.345 Y-10.798 E22.12683
G1 X9.439 Y-10.798 E22.17508
