; generated by Slic3r 1.2.9 on 2018-03-24 at 21:48:02

; external perimeters extrusion width = 0.40mm
; perimeters extrusion width = 0.67mm
; infill extrusion width = 0.67mm
; solid infill extrusion width = 0.67mm
; top infill extrusion width = 0.67mm

M107
M190 S65 ; set bed temperature
M104 S190 ; set temperature
G28 ; home all axes
G1 Z5 F5000 ; lift nozzle

M109 S190 ; wait for temperature to be reached
G21 ; set units to millimeters
G90 ; use absolute coordinates
M82 ; use absolute distances for extrusion
G92 E0
G1 Z0.400 F4800.000
G1 E-2.00000 F2400.00000
G92 E0
G1 X0.000 Y29.574 F4800.000
G1 E2.00000 F2400.00000
G1 X-21.431 Y29.574 E4.29076 F1080.000
G1 X-23.944 Y29.176 E4.56273
G1 X-26.212 Y28.022 E4.83469
G1 X-28.013 Y26.225 E5.10666
G1 X-28.991 Y24.455 E5.32280
G1 X-38.516 Y0.643 E8.06415
G1 X-39.099 Y-2.381 E8.39333
G1 X-39.099 Y-16.669 E9.92050
G1 X-38.701 Y-19.182 E10.19247
G1 X-37.547 Y-21.450 E10.46444
G1 X-35.750 Y-23.251 E10.73640
G1 X-33.531 Y-24.393 E11.00318
G1 X-19.244 Y-29.156 E12.61296
G1 X-16.669 Y-29.574 E12.89179
G1 X16.669 Y-29.574 E16.45519
G1 X19.244 Y-29.156 E16.73401
G1 X33.531 Y-24.393 E18.34379 F1080.000
G1 X35.790 Y-23.222 E18.61576
G1 X37.576 Y-21.410 E18.88773
G1 X38.716 Y-19.135 E19.15970
G1 X39.099 Y-16.669 E19.42647
G1 X39.099 Y-2.381 E20.95365
G1 X38.516 Y0.643 E21.28282
G1 X28.991 Y24.455 E24.02418
G1 X27.689 Y26.641 E24.29615
G1 X25.775 Y28.318 E24.56811
G1 X23.438 Y29.323 E24.84008
G1 X21.431 Y29.574 E25.05622
G1 X0.060 Y29.574 E27.34056
G1 X0.000 Y28.860 F4800.000
G1 X-21.431 Y28.860 E29.63132 F1080.000
G1 X-23.828 Y28.462 E29.89101
G1 X-25.969 Y27.313 E30.15070
G1 X-27.624 Y25.534 E30.41039
G1 X-28.328 Y24.190 E30.57261
G1 X-37.853 Y0.378 E33.31397
G1 X-38.385 Y-2.381 E33.61427
G1 X-38.385 Y-16.669 E35.14145
G1 X-37.987 Y-19.066 E35.40114
G1 X-36.838 Y-21.206 E35.66083
G1 X-35.059 Y-22.861 E35.92052
G1 X-33.305 Y-23.716 E36.12907
G1 X-19.018 Y-28.478 E37.73885
G1 X-16.669 Y-28.860 E37.99322
G1 X16.669 Y-28.860 E41.55663
G1 X19.018 Y-28.478 E41.81100
G1 X33.305 Y-23.716 E43.42077 F1080.000
G1 X35.453 Y-22.581 E43.68047
G1 X37.121 Y-20.814 E43.94016
G1 X38.128 Y-18.603 E44.19985
G1 X38.385 Y-16.669 E44.40840
G1 X38.385 Y-2.381 E45.93557
G1 X37.853 Y0.378 E46.23588
G1 X28.328 Y24.190 E48.97723
G1 X27.069 Y26.268 E49.23692
G1 X25.207 Y27.828 E49.49661
G1 X22.941 Y28.705 E49.75630
G1 X21.431 Y28.860 E49.91853
G1 X0.060 Y28.860 E52.20287
G1 X0.000 Y28.145 F4800.000
G1 X-21.431 Y28.145 E54.49363 F1080.000
G1 X-23.706 Y27.748 E54.74043
G1 X-25.711 Y26.604 E54.98724
G1 X-27.665 Y23.925 E55.34169
G1 X-37.190 Y0.112 E58.08305
G1 X-37.670 Y-2.381 E58.35448
G1 X-37.670 Y-16.669 E59.88165
G1 X-37.273 Y-18.943 E60.12846
G1 X-36.129 Y-20.949 E60.37526
G1 X-34.373 Y-22.448 E60.62206
G1 X-33.079 Y-23.038 E60.77407
G1 X-18.792 Y-27.801 E62.38385
G1 X-16.669 Y-28.145 E62.61377
G1 X16.669 Y-28.145 E66.17717
G1 X18.792 Y-27.801 E66.40708
G1 X33.079 Y-23.038 E68.01686 F1080.000
G1 X35.112 Y-21.942 E68.26366
G1 X36.653 Y-20.223 E68.51047
G1 X37.520 Y-18.083 E68.75727
G1 X37.670 Y-16.669 E68.90928
G1 X37.670 Y-2.381 E70.43645
G1 X37.190 Y0.112 E70.70788
G1 X27.665 Y23.925 E73.44924
G1 X26.452 Y25.889 E73.69604
G1 X24.645 Y27.326 E73.94284
G1 X21.431 Y28.145 E74.29730
G1 X0.060 Y28.145 E76.58165
G1 E74.58165 F2400.00000
G92 E0
G1 X-19.603 Y18.497 F4800.000
G1 E2.00000 F2400.00000
G1 X-16.116 Y18.497 E2.37273 F270.000
G1 X-16.116 Y19.603 E2.49094
G1 X-19.603 Y19.603 E2.86367
G1 X-19.603 Y18.557 E2.97546
G1 X-20.317 Y17.783 F4800.000
G1 X-15.402 Y17.783 E3.50087 F270.000
G1 X-15.402 Y20.317 E3.77174
G1 X-20.317 Y20.317 E4.29715
G1 X-20.317 Y17.843 E4.56161
G1 E2.56161 F2400.00000
G92 E0
G1 X16.116 Y18.497 F4800.000
G1 E2.00000 F2400.00000
G1 X19.603 Y18.497 E2.37273 F270.000
G1 X19.603 Y19.603 E2.49094
G1 X16.116 Y19.603 E2.86367
G1 X16.116 Y18.557 E2.97546
G1 X15.402 Y17.783 F4800.000
G1 X20.317 Y17.783 E3.50086 F270.000
G1 X20.317 Y20.317 E3.77174
G1 X15.402 Y20.317 E4.29714
G1 X15.402 Y17.843 E4.56160
G1 E2.56160 F2400.00000
G92 E0
G1 X13.735 Y4.210 F4800.000
G1 E2.00000 F2400.00000
G1 X5.315 Y4.210 E2.89991 F270.000
G1 X5.315 Y-4.210 E3.79982
G1 X13.735 Y-4.210 E4.69973
G1 X13.735 Y4.150 E5.59323
G1 X13.020 Y3.495 F4800.000
G1 X6.030 Y3.495 E6.34047 F270.000
G1 X6.030 Y-3.495 E7.08770
G1 X13.020 Y-3.495 E7.83494
G1 X13.020 Y3.435 E8.57577
G1 X12.306 Y2.781 F4800.000
G1 X6.744 Y2.781 E9.17034 F270.000
G1 X6.744 Y-2.781 E9.76490
G1 X12.306 Y-2.781 E10.35947
G1 X12.306 Y2.721 E10.94763
G1 X12.306 Y3.181 F4800.000
G1 X-5.315 Y4.210 F4800.000
G1 X-13.735 Y4.210 E11.84754 F270.000
G1 X-13.735 Y-4.210 E12.74745
G1 X-5.315 Y-4.210 E13.64735
G1 X-5.315 Y4.150 E14.54085
G1 X-6.030 Y3.495 F4800.000
G1 X-13.020 Y3.495 E15.28809 F270.000
G1 X-13.020 Y-3.495 E16.03533
G1 X-6.030 Y-3.495 E16.78257
G1 X-6.030 Y3.435 E17.52339
G1 X-6.744 Y2.781 F4800.000
G1 X-12.306 Y2.781 E18.11796 F270.000
G1 X-12.306 Y-2.781 E18.71253
G1 X-6.744 Y-2.781 E19.30709
G1 X-6.744 Y2.721 E19.89525
G1 X-6.744 Y3.181 F4800.000
G1 X-8.972 Y5.315 F4800.000
G1 X-8.972 Y14.840 E20.91336 F720.000
G1 X-14.840 Y14.840 E21.54062
G1 X-14.840 Y13.735 E21.65883
G1 X-10.078 Y13.735 E22.16789
G1 X-10.078 Y5.315 E23.06780
G1 X-19.603 Y5.315 E24.08591
G1 X-19.603 Y0.553 E24.59497
G1 X-24.365 Y0.553 E25.10403
G1 X-24.365 Y-4.210 E25.61308
G1 X-29.128 Y-4.210 E26.12214
G1 X-29.128 Y-14.840 E27.25846
G1 X-28.022 Y-14.840 E27.37666
G1 X-28.022 Y-5.315 E28.39478
G1 X-19.603 Y-5.315 E29.29469
G1 X-19.603 Y-14.840 E30.31280
G1 X-14.840 Y-14.840 E30.82186
G1 X-14.840 Y-19.603 E31.33092
G1 X-4.210 Y-19.603 E32.46724
G1 X-4.210 Y-18.497 E32.58544
G1 X-13.735 Y-18.497 E33.60356
G1 X-13.735 Y-10.078 E34.50347
G1 X13.735 Y-10.078 E37.43961
G1 X13.735 Y-18.497 E38.33952
G1 X4.210 Y-18.497 E39.35763
G1 X4.210 Y-19.603 E39.47583
G1 X14.840 Y-19.603 E40.61215
G1 X14.840 Y-14.840 E41.12121
G1 X19.603 Y-14.840 E41.63027
G1 X19.603 Y-5.315 E42.64838
G1 X28.022 Y-5.315 E43.54829
G1 X28.022 Y-14.840 E44.56641
G1 X29.128 Y-14.840 E44.68461
G1 X29.128 Y-4.210 E45.82093
G1 X24.365 Y-4.210 E46.32999
G1 X24.365 Y0.553 E46.83904
G1 X19.603 Y0.553 E47.34810
G1 X19.603 Y5.315 E47.85716
G1 X10.078 Y5.315 E48.87527
G1 X10.078 Y13.735 E49.77518
G1 X14.840 Y13.735 E50.28424
G1 X14.840 Y14.840 E50.40244
G1 X8.972 Y14.840 E51.02970
G1 X8.972 Y5.315 E52.04782
G1 X-8.912 Y5.315 E53.95943
G1 X-8.258 Y6.030 F4800.000
G1 X-8.258 Y15.555 E54.97755 F720.000
G1 X-15.555 Y15.555 E55.75748
G1 X-15.555 Y13.020 E56.02835
G1 X-10.792 Y13.020 E56.53741
G1 X-10.792 Y6.030 E57.28465
G1 X-20.317 Y6.030 E58.30276
G1 X-20.317 Y1.267 E58.81182
G1 X-25.080 Y1.267 E59.32088
G1 X-25.080 Y-3.495 E59.82994
G1 X-29.842 Y-3.495 E60.33899
G1 X-29.842 Y-15.555 E61.62798
G1 X-27.308 Y-15.555 E61.89886
G1 X-27.308 Y-6.030 E62.91697
G1 X-20.317 Y-6.030 E63.66421
G1 X-20.317 Y-15.555 E64.68233
G1 X-15.555 Y-15.555 E65.19139
G1 X-15.555 Y-20.317 E65.70044
G1 X-3.495 Y-20.317 E66.98943
G1 X-3.495 Y-17.783 E67.26031
G1 X-13.020 Y-17.783 E68.27842
G1 X-13.020 Y-10.792 E69.02566
G1 X13.020 Y-10.792 E71.80913
G1 X13.020 Y-17.783 E72.55637
G1 X3.495 Y-17.783 E73.57448
G1 X3.495 Y-20.317 E73.84536
G1 X15.555 Y-20.317 E75.13435
G1 X15.555 Y-15.555 E75.64341
G1 X20.317 Y-15.555 E76.15246
G1 X20.317 Y-6.030 E77.17058
G1 X27.308 Y-6.030 E77.91782
G1 X27.308 Y-15.555 E78.93593
G1 X29.842 Y-15.555 E79.20681
G1 X29.842 Y-3.495 E80.49580
G1 X25.080 Y-3.495 E81.00485
G1 X25.080 Y1.267 E81.51391
G1 X20.317 Y1.267 E82.02297
G1 X20.317 Y6.030 E82.53202
G1 X10.792 Y6.030 E83.55014
G1 X10.792 Y13.020 E84.29738
G1 X15.555 Y13.020 E84.80643
G1 X15.555 Y15.555 E85.07731
G1 X8.258 Y15.555 E85.85724
G1 X8.258 Y6.030 E86.87536
G1 X-8.198 Y6.030 E88.63430
G1 X-7.544 Y6.744 F4800.000
G1 X-7.544 Y16.269 E89.65241 F360.000
G1 X-14.687 Y16.269 E90.41600
G1 X-14.687 Y21.031 E90.92505
G1 X-21.031 Y21.031 E91.60313
G1 X-21.031 Y17.069 E92.02668
G1 X-16.269 Y17.069 E92.53574
G1 X-16.269 Y12.306 E93.04479
G1 X-11.506 Y12.306 E93.55385
G1 X-11.506 Y6.744 E94.14842
G1 X-21.031 Y6.744 E95.16653
G1 X-21.031 Y1.981 E95.67559
G1 X-25.794 Y1.981 E96.18465
G1 X-25.794 Y-2.781 E96.69370
G1 X-30.556 Y-2.781 E97.20276
G1 X-30.556 Y-16.269 E98.64442
G1 X-26.594 Y-16.269 E99.06797
G1 X-26.594 Y-6.744 E100.08608
G1 X-21.031 Y-6.744 E100.68065
G1 X-21.031 Y-16.269 E101.69877
G1 X-16.269 Y-16.269 E102.20783
G1 X-16.269 Y-21.031 E102.71688
G1 X-2.781 Y-21.031 E104.15854
G1 X-2.781 Y-17.069 E104.58209
G1 X-12.306 Y-17.069 E105.60020
G1 X-12.306 Y-11.506 E106.19477
G1 X12.306 Y-11.506 E108.82557
G1 X12.306 Y-17.069 E109.42014
G1 X2.781 Y-17.069 E110.43825
G1 X2.781 Y-21.031 E110.86180
G1 X16.269 Y-21.031 E112.30346
G1 X16.269 Y-16.269 E112.81252
G1 X21.031 Y-16.269 E113.32157
G1 X21.031 Y-6.744 E114.33969
G1 X26.594 Y-6.744 E114.93425
G1 X26.594 Y-16.269 E115.95237
G1 X30.556 Y-16.269 E116.37592
G1 X30.556 Y-2.781 E117.81758
G1 X25.794 Y-2.781 E118.32663
G1 X25.794 Y1.981 E118.83569
G1 X21.031 Y1.981 E119.34475
G1 X21.031 Y6.744 E119.85381
G1 X11.506 Y6.744 E120.87192
G1 X11.506 Y12.306 E121.46649
G1 X16.269 Y12.306 E121.97554
G1 X16.269 Y17.069 E122.48460
G1 X21.031 Y17.069 E122.99366
G1 X21.031 Y21.031 E123.41720
G1 X14.688 Y21.031 E124.09528
G1 X14.688 Y16.269 E124.60433
G1 X7.544 Y16.269 E125.36792
G1 X7.544 Y6.744 E126.38604
G1 X-7.484 Y6.744 E127.99230
G1 X-7.944 Y6.744 F4800.000
G1 X-2.977 Y7.144 F4800.000
G1 X-2.977 Y10.675 E128.36981 F360.000
G1 E126.36981 F2400.00000
G92 E0
G1 X2.977 Y10.675 F4800.000
G1 E2.00000 F2400.00000
G1 X2.977 Y7.144 E2.37750 F360.000
G1 E0.37750 F2400.00000
G92 E0
G1 X-3.172 Y11.075 F4800.000
G1 E2.00000 F2400.00000
G1 X3.172 Y11.075 E2.67807 F270.000
G1 X3.172 Y11.506 E2.72412
G1 X-3.172 Y11.506 E3.40219
G1 X-3.172 Y11.135 E3.44182
G1 X-2.825 Y11.275 F4800.000
G1 E1.44182 F2400.00000
G92 E0
G1 X-4.958 Y4.762 F4800.000
G1 E2.00000 F2400.00000
G1 X-9.329 Y4.762 E2.46719 F360.000
G1 X-9.525 Y4.811 E2.48877
G1 X-9.721 Y4.762 E2.51034
G1 X-14.092 Y4.762 E2.97753
G1 X-9.525 Y4.567 F4800.000
G1 X-9.525 Y14.092 E3.99565 F360.000
G1 X-9.559 Y14.254 E4.01336
G1 X-9.721 Y14.287 E4.03107
G1 X-14.483 Y14.287 E4.54012
G1 X-15.478 Y15.912 F4800.000
G1 X-15.478 Y17.426 E4.88327 F360.000
G1 X-16.473 Y19.050 F4800.000
G1 X-19.246 Y19.050 E5.17967 F360.000
G1 E3.17967 F2400.00000
G92 E0
G1 X-24.008 Y-4.762 F4800.000
G1 E2.00000 F2400.00000
G1 X-28.379 Y-4.762 E2.46719 F360.000
G1 X-28.541 Y-4.796 E2.48490
G1 X-28.575 Y-4.958 E2.50261
G1 X-28.575 Y-14.483 E3.52072
G1 E1.52072 F2400.00000
G92 E0
G1 X-14.287 Y-14.483 F4800.000
G1 E2.00000 F2400.00000
G1 X-14.287 Y-18.854 E2.46719 F360.000
G1 X-14.254 Y-19.016 E2.48490
G1 X-14.092 Y-19.050 E2.50261
G1 X-4.567 Y-19.050 E3.52072
G1 E1.52072 F2400.00000
G92 E0
G1 X4.567 Y-19.050 F4800.000
G1 E2.00000 F2400.00000
G1 X14.092 Y-19.050 E3.01811 F360.000
G1 X14.254 Y-19.016 E3.03583
G1 X14.288 Y-18.854 E3.05354
G1 X14.288 Y-14.483 E3.52072
G1 X19.167 Y-14.062 F4800.000
G1 X18.824 Y-14.405 E3.57291 F360.000
G1 X17.808 Y-14.405 E3.68231
G1 X19.167 Y-13.045 E3.88920
G1 X19.167 Y-12.029 E3.99859
G1 X16.791 Y-14.405 E4.36019
G1 X15.774 Y-14.405 E4.46958
G1 X19.167 Y-11.012 E4.98588
G1 X19.167 Y-9.995 E5.09528
G1 X15.115 Y-14.048 E5.71195
G1 X14.170 Y-13.976 E5.81389
G1 X19.167 Y-8.979 E6.57431
G1 X19.167 Y-7.962 E6.68370
G1 X14.170 Y-12.959 E7.44412
G1 X14.170 Y-11.943 E7.55351
G1 X19.167 Y-6.945 E8.31393
G1 X19.167 Y-5.929 E8.42333
G1 X14.170 Y-10.926 E9.18375
G1 X14.170 Y-9.909 E9.29314
G1 X23.930 Y-0.149 E10.77825
G1 X23.180 Y0.117 E10.86389
G1 X13.420 Y-9.642 E12.34901
G1 X12.404 Y-9.642 E12.45840
G1 X22.163 Y0.117 E13.94351
G1 X21.147 Y0.117 E14.05290
G1 X11.387 Y-9.642 E15.53802
G1 X10.370 Y-9.642 E15.64741
G1 X20.130 Y0.117 E17.13252
G1 X19.167 Y0.171 E17.23626
G1 X9.353 Y-9.642 E18.72960
G1 X8.337 Y-9.642 E18.83899
G1 X13.334 Y-4.645 E19.59942
G1 X12.317 Y-4.645 E19.70881
G1 X7.320 Y-9.642 E20.46923
G1 X6.303 Y-9.642 E20.57862
G1 X11.301 Y-4.645 E21.33905
G1 X10.284 Y-4.645 E21.44844
G1 X5.287 Y-9.642 E22.20886
G1 X4.270 Y-9.642 E22.31826
G1 X9.267 Y-4.645 E23.07868
G1 X8.251 Y-4.645 E23.18807
G1 X3.253 Y-9.642 E23.94850
G1 X2.237 Y-9.642 E24.05789
G1 X7.234 Y-4.645 E24.81831
G1 X6.217 Y-4.645 E24.92770
G1 X1.220 Y-9.642 E25.68813
G1 X0.203 Y-9.642 E25.79752
G1 X5.201 Y-4.645 E26.55794
G1 X4.880 Y-3.949 F4800.000
G1 X-0.813 Y-9.642 E27.42425 F360.000
G1 X-1.830 Y-9.642 E27.53364
G1 X4.880 Y-2.933 E28.55465
G1 X4.880 Y-1.916 E28.66404
G1 X-2.847 Y-9.642 E29.83975
G1 X-3.863 Y-9.642 E29.94914
G1 X4.880 Y-0.899 E31.27956
G1 X4.880 Y0.117 E31.38895
G1 X-4.880 Y-9.642 E32.87406
G1 X-5.897 Y-9.642 E32.98346
G1 X4.880 Y1.134 E34.62328
G1 X4.880 Y2.151 E34.73267
G1 X-6.913 Y-9.642 E36.52719
G1 X-7.930 Y-9.642 E36.63658
G1 X4.880 Y3.167 E38.58581
G1 X4.623 Y3.927 E38.67209
G1 X-8.947 Y-9.642 E40.73689
G1 X-9.963 Y-9.642 E40.84628
G1 X4.523 Y4.844 E43.05058
G1 X3.542 Y4.880 E43.15615
G1 X-4.880 Y-3.542 E44.43773
G1 X-4.880 Y-2.526 E44.54713
G1 X2.526 Y4.880 E45.67401
G1 X1.509 Y4.880 E45.78340
G1 X-4.880 Y-1.509 E46.75558
G1 X-4.880 Y-0.492 E46.86497
G1 X0.492 Y4.880 E47.68244
G1 X-0.524 Y4.880 E47.79183
G1 X-4.880 Y0.524 E48.45460
G1 X-4.880 Y1.541 E48.56400
G1 X-1.541 Y4.880 E49.07206
G1 X-2.558 Y4.880 E49.18146
G1 X-4.880 Y2.558 E49.53482
G1 X-4.880 Y3.574 E49.64421
G1 X-3.574 Y4.880 E49.84287
G1 X-5.983 Y-4.645 F4800.000
G1 X-10.980 Y-9.642 E50.60330 F360.000
G1 X-11.997 Y-9.642 E50.71269
G1 X-6.999 Y-4.645 E51.47311
G1 X-8.016 Y-4.645 E51.58250
G1 X-13.013 Y-9.642 E52.34293
G1 X-14.030 Y-9.642 E52.45232
G1 X-9.033 Y-4.645 E53.21274
G1 X-10.049 Y-4.645 E53.32214
G1 X-19.167 Y-13.763 E54.70960
G1 X-18.792 Y-14.405 E54.78957
G1 X-14.170 Y-9.783 E55.49294
G1 X-14.170 Y-10.799 E55.60234
G1 X-17.776 Y-14.405 E56.15101
G1 X-16.759 Y-14.405 E56.26040
G1 X-14.170 Y-11.816 E56.65436
G1 X-14.170 Y-12.833 E56.76376
G1 X-15.742 Y-14.405 E57.00302
G1 X-19.167 Y-12.747 F4800.000
G1 X-11.066 Y-4.645 E58.23578 F360.000
G1 X-12.083 Y-4.645 E58.34517
G1 X-19.167 Y-11.730 E59.42323
G1 X-19.167 Y-10.713 E59.53262
G1 X-13.099 Y-4.645 E60.45598
G1 X-14.116 Y-4.645 E60.56537
G1 X-19.167 Y-9.696 E61.33402
G1 X-19.167 Y-8.680 E61.44341
G1 X-14.170 Y-3.682 E62.20383
G1 X-14.170 Y-2.666 E62.31323
G1 X-19.167 Y-7.663 E63.07365
G1 X-19.167 Y-6.646 E63.18304
G1 X-14.170 Y-1.649 E63.94347
G1 X-14.170 Y-0.632 E64.05286
G1 X-19.167 Y-5.630 E64.81328
G1 X-19.434 Y-4.880 F4800.000
G1 X-14.170 Y0.384 E65.61431 F360.000
G1 X-14.170 Y1.401 E65.72370
G1 X-20.451 Y-4.880 E66.67942
G1 X-21.468 Y-4.880 E66.78881
G1 X-14.170 Y2.418 E67.89924
G1 X-14.170 Y3.434 E68.00863
G1 X-22.484 Y-4.880 E69.27376
G1 X-23.501 Y-4.880 E69.38315
G1 X-14.527 Y4.094 E70.74865
G1 X-14.758 Y4.880 E70.83680
G1 X-23.573 Y-3.935 E72.17816
G1 X-23.930 Y-3.276 E72.25886
G1 X-20.537 Y0.117 E72.77516
G1 X-21.554 Y0.117 E72.88455
G1 X-23.930 Y-2.259 E73.24614
G1 X-23.930 Y-1.242 E73.35554
G1 X-22.570 Y0.117 E73.56243
G1 X-23.587 Y0.117 E73.67182
G1 X-23.930 Y-0.226 E73.72401
G1 X-19.167 Y1.487 F4800.000
G1 X-15.774 Y4.880 E74.24031 F360.000
G1 X-16.791 Y4.880 E74.34970
G1 X-19.167 Y2.504 E74.71129
G1 X-19.167 Y3.520 E74.82068
G1 X-17.808 Y4.880 E75.02758
G1 X-18.824 Y4.880 E75.13697
G1 X-19.167 Y4.537 E75.18916
G1 X14.170 Y3.308 F4800.000
G1 X15.742 Y4.880 E75.42841 F360.000
G1 X16.759 Y4.880 E75.53780
G1 X14.170 Y2.291 E75.93176
G1 X14.170 Y1.274 E76.04115
G1 X17.776 Y4.880 E76.58982
G1 X18.792 Y4.880 E76.69921
G1 X14.170 Y0.258 E77.40258
G1 X14.170 Y-0.759 E77.51197
G1 X19.167 Y4.238 E78.27239
G1 X19.167 Y3.222 E78.38178
G1 X14.170 Y-1.776 E79.14220
G1 X14.170 Y-2.792 E79.25159
G1 X19.167 Y2.205 E80.01201
G1 X19.167 Y1.188 E80.12141
G1 X14.170 Y-3.809 E80.88183
G1 X20.216 Y-4.880 F4800.000
G1 X23.930 Y-1.166 E81.44695 F360.000
G1 X23.930 Y-2.183 E81.55634
G1 X21.233 Y-4.880 E81.96677
G1 X22.249 Y-4.880 E82.07616
G1 X23.930 Y-3.199 E82.33188
G1 X23.573 Y-4.573 E82.48460
G1 X23.266 Y-4.880 E82.53128
G1 X24.008 Y-4.762 F4800.000
G1 X28.379 Y-4.762 E82.99847 F360.000
G1 X28.541 Y-4.796 E83.01618
G1 X28.575 Y-4.958 E83.03389
G1 X28.575 Y-14.483 E84.05201
