; generated by Slic3r 1.2.9 on 2019-05-10 at 17:42:08

; external perimeters extrusion width = 0.40mm
; perimeters extrusion width = 0.67mm
; infill extrusion width = 0.67mm
; solid infill extrusion width = 0.67mm
; top infill extrusion width = 0.67mm

M190 S65 ; set bed temperature
M104 S190 ; set temperature
G28 ; home all axes
G1 Z5 F5000 ; lift nozzle

M109 S190 ; wait for temperature to be reached
G21 ; set units to millimeters
G90 ; use absolute coordinates
M82 ; use absolute distances for extrusion
G92 E0
G1 Z0.400 F4800.000
G1 E-2.00000 F2400.00000
G92 E0
G1 X-19.734 Y3.828 F4800.000
G1 E2.00000 F2400.00000
G1 X-21.161 Y-3.587 E2.80707 F1800.000
G1 X-21.239 Y-4.125 E2.86518
G1 X-21.349 Y-5.131 E2.97342
G1 X-21.387 Y-5.669 E3.03110
G1 X-21.423 Y-6.690 E3.14021
G1 X-21.389 Y-8.177 E3.29926
G1 X-21.250 Y-9.674 E3.45992
G1 X-21.011 Y-11.133 E3.61793
G1 X-20.888 Y-11.707 E3.68068
G1 X-20.561 Y-12.973 E3.82049
G1 X-20.049 Y-14.502 E3.99279
G1 X-14.995 Y-27.663 E5.49974
G1 X-13.765 Y-29.758 E5.75943
G1 X-11.924 Y-31.344 E6.01912
G1 X-9.671 Y-32.252 E6.27881
G1 X-8.060 Y-32.428 E6.45198
G1 X8.940 Y-32.428 E8.26909
G1 X11.337 Y-32.031 E8.52878
G1 X13.477 Y-30.882 E8.78847 F1800.000
G1 X15.132 Y-29.103 E9.04816
G1 X16.018 Y-27.254 E9.26735
G1 X20.338 Y-13.684 E10.78947
G1 X20.815 Y-11.999 E10.97667
G1 X20.995 Y-11.194 E11.06489
G1 X21.307 Y-9.215 E11.27896
G1 X21.418 Y-7.337 E11.48012
G1 X21.418 Y-6.555 E11.56370
G1 X21.343 Y-5.109 E11.71850
G1 X21.258 Y-4.303 E11.80505
G1 X16.270 Y26.200 E15.10885
G1 X15.491 Y28.502 E15.36854
G1 X14.011 Y30.428 E15.62823
G1 X11.988 Y31.774 E15.88792
G1 X8.940 Y32.428 E16.22118
G1 X-8.060 Y32.428 E18.03829
G1 X-10.457 Y32.031 E18.29798
G1 X-12.598 Y30.882 E18.55767
G1 X-14.253 Y29.103 E18.81736
G1 X-15.353 Y26.415 E19.12785
G1 X-19.723 Y3.887 E21.58069
G1 X-19.033 Y3.692 F4800.000
G1 X-20.458 Y-3.715 E22.38697 F1800.000
G1 X-20.639 Y-5.208 E22.54772
G1 X-20.710 Y-6.715 E22.70894
G1 X-20.676 Y-8.152 E22.86258
G1 X-20.539 Y-9.599 E23.01793
G1 X-20.307 Y-11.009 E23.17063
G1 X-20.195 Y-11.532 E23.22784
G1 X-19.877 Y-12.768 E23.36431
G1 X-19.382 Y-14.246 E23.53083
G1 X-14.328 Y-27.407 E25.03778
G1 X-13.142 Y-29.388 E25.28459
G1 X-11.355 Y-30.850 E25.53139
G1 X-8.060 Y-31.714 E25.89548
G1 X8.940 Y-31.714 E27.71258
G1 X11.214 Y-31.317 E27.95938
G1 X13.220 Y-30.173 E28.20619 F1800.000
G1 X14.719 Y-28.417 E28.45299
G1 X15.337 Y-27.037 E28.61464
G1 X19.658 Y-13.468 E30.13677
G1 X20.127 Y-11.807 E30.32123
G1 X20.291 Y-11.075 E30.40137
G1 X20.596 Y-9.144 E30.61043
G1 X20.705 Y-7.299 E30.80798
G1 X20.705 Y-6.592 E30.88353
G1 X20.630 Y-5.145 E31.03832
G1 X20.552 Y-4.412 E31.11721
G1 X15.566 Y26.085 E34.42024
G1 X14.806 Y28.266 E34.66704
G1 X13.353 Y30.060 E34.91384
G1 X11.378 Y31.256 E35.16064
G1 X8.940 Y31.714 E35.42583
G1 X-8.060 Y31.714 E37.24294
G1 X-10.335 Y31.317 E37.48974
G1 X-12.340 Y30.173 E37.73654
G1 X-13.840 Y28.417 E37.98335
G1 X-14.652 Y26.279 E38.22785
G1 X-19.021 Y3.751 E40.68069
G1 E38.68069 F2400.00000
G92 E0
G1 X-1.324 Y17.893 F4800.000
G1 E2.00000 F2400.00000
G1 X-0.944 Y17.587 E2.05213 F450.000
G1 X-0.513 Y17.360 E2.10426
G1 X-0.046 Y17.220 E2.15639
G1 X0.148 Y17.201 E2.17724
G1 X0.443 Y17.173 E2.20888 F450.000
G1 X0.953 Y17.225 E2.26370
G1 X1.432 Y17.376 E2.31740
G1 X1.865 Y17.615 E2.37016
G1 X2.239 Y17.928 E2.42235
G1 X2.545 Y18.308 E2.47448
G1 X2.772 Y18.740 E2.52661
G1 X2.912 Y19.207 E2.57874
G1 X2.959 Y19.696 E2.63124
G1 X2.907 Y20.206 E2.68605
G1 X2.756 Y20.685 E2.73975
G1 X2.518 Y21.117 E2.79251
G1 X2.204 Y21.491 E2.84471
G1 X1.824 Y21.797 E2.89684
G1 X1.392 Y22.025 E2.94897
G1 X0.925 Y22.165 E3.00110
G1 X0.436 Y22.212 E3.05359
G1 X-0.074 Y22.159 E3.10841
G1 X-0.553 Y22.008 E3.16211
G1 X-0.985 Y21.770 E3.21487
G1 X-1.359 Y21.456 E3.26706
G1 X-1.665 Y21.076 E3.31919
G1 X-1.893 Y20.645 E3.37132
G1 X-2.032 Y20.178 E3.42345
G1 X-2.080 Y19.689 E3.47594
G1 X-2.027 Y19.179 E3.53076
G1 X-1.876 Y18.700 E3.58446
G1 X-1.638 Y18.267 E3.63722
G1 X-1.363 Y17.939 E3.68300
G1 X-0.822 Y18.406 F4800.000
G1 X-0.550 Y18.187 E3.72029 F450.000
G1 X-0.242 Y18.024 E3.75757
G1 X0.093 Y17.924 E3.79485 F450.000
G1 X0.441 Y17.890 E3.83227
G1 X0.808 Y17.928 E3.87167
G1 X1.150 Y18.036 E3.91003
G1 X1.459 Y18.206 E3.94775
G1 X1.726 Y18.431 E3.98506
G1 X1.945 Y18.702 E4.02235
G1 X2.108 Y19.011 E4.05963
G1 X2.208 Y19.345 E4.09691
G1 X2.242 Y19.694 E4.13433
G1 X2.204 Y20.060 E4.17373
G1 X2.096 Y20.402 E4.21209
G1 X1.926 Y20.712 E4.24981
G1 X1.701 Y20.979 E4.28712
G1 X1.430 Y21.198 E4.32440
G1 X1.121 Y21.360 E4.36169
G1 X0.787 Y21.460 E4.39897
G1 X0.439 Y21.494 E4.43639
G1 X0.072 Y21.456 E4.47578
G1 X-0.270 Y21.348 E4.51415
G1 X-0.580 Y21.178 E4.55187
G1 X-0.847 Y20.954 E4.58918
G1 X-1.066 Y20.682 E4.62646
G1 X-1.228 Y20.374 E4.66375
G1 X-1.328 Y20.039 E4.70103
G1 X-1.362 Y19.691 E4.73844
G1 X-1.324 Y19.324 E4.77784
G1 X-1.216 Y18.982 E4.81621
G1 X-1.046 Y18.673 E4.85393
G1 X-0.860 Y18.452 E4.88483
G1 X-0.898 Y18.065 F4800.000
G1 X-0.074 Y15.642 F4800.000
G1 X-0.553 Y15.491 E4.93853 F450.000
G1 X-0.985 Y15.253 E4.99129
G1 X-1.359 Y14.939 E5.04348
G1 X-1.665 Y14.559 E5.09561
G1 X-1.893 Y14.127 E5.14774
G1 X-2.032 Y13.660 E5.19987
G1 X-2.080 Y13.171 E5.25237
G1 X-2.027 Y12.661 E5.30718
G1 X-1.876 Y12.182 E5.36088
G1 X-1.638 Y11.750 E5.41364
G1 X-1.324 Y11.376 E5.46584
G1 X-0.944 Y11.070 E5.51797
G1 X-0.513 Y10.842 E5.57010
G1 X-0.051 Y10.704 E5.62167
G1 X0.383 Y10.658 E5.66834 F450.000
G1 X0.943 Y10.704 E5.72831
G1 X1.432 Y10.859 E5.78320
G1 X1.865 Y11.097 E5.83596
G1 X2.239 Y11.411 E5.88816
G1 X2.545 Y11.791 E5.94029
G1 X2.772 Y12.222 E5.99242
G1 X2.912 Y12.689 E6.04455
G1 X2.959 Y13.178 E6.09704
G1 X2.907 Y13.688 E6.15185
G1 X2.756 Y14.167 E6.20555
G1 X2.518 Y14.600 E6.25831
G1 X2.204 Y14.974 E6.31051
G1 X1.824 Y15.280 E6.36264
G1 X1.392 Y15.507 E6.41477
G1 X0.925 Y15.647 E6.46690
G1 X0.436 Y15.695 E6.51939
G1 X-0.014 Y15.648 E6.56780
G1 X0.072 Y14.939 F4800.000
G1 X-0.270 Y14.831 E6.60616 F450.000
G1 X-0.580 Y14.661 E6.64388
G1 X-0.847 Y14.436 E6.68119
G1 X-1.066 Y14.165 E6.71847
G1 X-1.228 Y13.856 E6.75576
G1 X-1.328 Y13.522 E6.79304
G1 X-1.362 Y13.174 E6.83046
G1 X-1.324 Y12.807 E6.86985
G1 X-1.216 Y12.465 E6.90822
G1 X-1.046 Y12.156 E6.94594
G1 X-0.822 Y11.888 E6.98325
G1 X-0.550 Y11.669 E7.02053
G1 X-0.242 Y11.507 E7.05782
G1 X0.091 Y11.407 E7.09490
G1 X0.392 Y11.375 E7.12725 F450.000
G1 X0.804 Y11.410 E7.17145
G1 X1.150 Y11.519 E7.21024
G1 X1.459 Y11.689 E7.24797
G1 X1.726 Y11.913 E7.28527
G1 X1.945 Y12.185 E7.32256
G1 X2.108 Y12.494 E7.35984
G1 X2.208 Y12.828 E7.39712
G1 X2.242 Y13.176 E7.43454
G1 X2.204 Y13.543 E7.47394
G1 X2.096 Y13.885 E7.51230
G1 X1.926 Y14.194 E7.55003
G1 X1.701 Y14.461 E7.58733
G1 X1.430 Y14.680 E7.62461
G1 X1.121 Y14.843 E7.66190
G1 X0.787 Y14.943 E7.69918
G1 X0.439 Y14.977 E7.73659
G1 X0.132 Y14.945 E7.76958
G1 X-0.176 Y15.199 F4800.000
G1 X-0.437 Y16.276 F4800.000
G1 X-0.440 Y16.593 E7.80342 F1200.000
G1 X-0.784 Y16.696 E7.84186
G1 X-1.339 Y16.988 E7.90884
G1 X-1.826 Y17.381 E7.97581
G1 X-2.230 Y17.862 E8.04290
G1 X-2.536 Y18.417 E8.11070
G1 X-2.730 Y19.033 E8.17973
G1 X-2.798 Y19.687 E8.24996
G1 X-2.737 Y20.316 E8.31753
G1 X-2.557 Y20.916 E8.38451
G1 X-2.265 Y21.471 E8.45148
G1 X-1.872 Y21.958 E8.51846
G1 X-1.391 Y22.362 E8.58555
G1 X-0.835 Y22.668 E8.65334
G1 X-0.390 Y22.808 E8.70325
G1 X-0.446 Y23.172 E8.74254
G1 X-6.232 Y23.172 E9.36099
G1 X-6.232 Y3.603 E11.45271
G1 X-7.735 Y2.457 E11.65475
G1 X-8.423 Y1.845 E11.75317
G1 X-9.026 Y1.224 E11.84570
G1 X-9.649 Y0.476 E11.94967
G1 X-10.150 Y-0.224 E12.04169
G1 X-10.621 Y-0.997 E12.13852
G1 X-11.029 Y-1.794 E12.23422
G1 X-11.374 Y-2.608 E12.32864
G1 X-11.653 Y-3.429 E12.42140
G1 X-11.882 Y-4.304 E12.51804
G1 X-12.044 Y-5.190 E12.61431
G1 X-12.139 Y-6.064 E12.70829
G1 X-12.170 Y-6.953 E12.80337
G1 X-12.141 Y-7.786 E12.89242
G1 X-12.051 Y-8.640 E12.98425
G1 X-11.906 Y-9.461 E13.07336
G1 X-11.688 Y-10.330 E13.16908
G1 X-11.384 Y-11.240 E13.27167
G1 X-11.044 Y-12.053 E13.36585
G1 X-10.616 Y-12.890 E13.46636
G1 X-10.122 Y-13.694 E13.56724
G1 X-9.599 Y-14.421 E13.66293
G1 X-9.023 Y-15.106 E13.75855
G1 X-8.361 Y-15.781 E13.85972
G1 X-7.721 Y-16.347 E13.95097
G1 X-6.232 Y-17.480 E14.15096
G1 X-6.232 Y-23.172 E14.75938
G1 X7.111 Y-23.172 E16.18564
G1 X7.111 Y-16.977 E16.84781
G1 X9.691 Y-14.295 E17.24555
G1 X10.412 Y-13.238 E17.38230
G1 X11.049 Y-12.038 E17.52748
G1 X11.525 Y-10.845 E17.66485
G1 X11.882 Y-9.567 E17.80662
G1 X12.096 Y-8.268 E17.94736
G1 X12.169 Y-6.936 E18.08992
G1 X12.104 Y-5.684 E18.22398
G1 X11.900 Y-4.393 E18.36367
G1 X11.544 Y-3.091 E18.50793
G1 X11.031 Y-1.801 E18.65638
G1 X10.402 Y-0.624 E18.79897
G1 X9.628 Y0.503 E18.94509
G1 X8.753 Y1.515 E19.08813
G1 X7.111 Y3.037 E19.32738
G1 X7.111 Y23.172 E21.47955
G1 X1.329 Y23.172 E22.09766
G1 X1.275 Y22.805 E22.13724
G1 X1.664 Y22.689 E22.18061
G1 X2.218 Y22.397 E22.24759
G1 X2.706 Y22.004 E22.31457
G1 X3.109 Y21.523 E22.38165
G1 X3.415 Y20.967 E22.44945
G1 X3.610 Y20.351 E22.51848
G1 X3.677 Y19.698 E22.58871
G1 X3.616 Y19.069 E22.65628
G1 X3.436 Y18.468 E22.72326
G1 X3.144 Y17.914 E22.79024
G1 X2.751 Y17.426 E22.85721
G1 X2.270 Y17.023 E22.92430
G1 X1.715 Y16.717 E22.99210
G1 X1.317 Y16.591 E23.03670
G1 X1.319 Y16.275 E23.07054
G1 X1.664 Y16.171 E23.10898
G1 X2.218 Y15.879 E23.17596
G1 X2.706 Y15.486 E23.24293
G1 X3.109 Y15.005 E23.31002
G1 X3.415 Y14.450 E23.37781
G1 X3.610 Y13.834 E23.44685
G1 X3.677 Y13.180 E23.51708
G1 X3.616 Y12.551 E23.58465
G1 X3.436 Y11.951 E23.65163
G1 X3.144 Y11.396 E23.71860
G1 X2.751 Y10.909 E23.78558
G1 X2.270 Y10.505 E23.85266
G1 X1.715 Y10.199 E23.92046
G1 X1.081 Y9.999 E23.99145
G1 X0.375 Y9.941 E24.06719
G1 X-0.192 Y10.001 E24.12818
G1 X-0.784 Y10.178 E24.19424
G1 X-1.339 Y10.470 E24.26122
G1 X-1.826 Y10.863 E24.32820
G1 X-2.230 Y11.344 E24.39528
G1 X-2.536 Y11.900 E24.46308
G1 X-2.730 Y12.516 E24.53211
G1 X-2.798 Y13.169 E24.60234
G1 X-2.737 Y13.798 E24.66992
G1 X-2.557 Y14.399 E24.73689
G1 X-2.265 Y14.953 E24.80387
G1 X-1.872 Y15.441 E24.87085
G1 X-1.391 Y15.844 E24.93793
G1 X-0.835 Y16.150 E25.00573
G1 X-0.495 Y16.258 E25.04392
G1 X-6.946 Y23.886 F4800.000
G1 X-6.946 Y3.956 E27.17417 F1200.000
G1 X-8.190 Y3.008 E27.34130
G1 X-8.918 Y2.361 E27.44541
G1 X-9.558 Y1.702 E27.54365
G1 X-10.214 Y0.913 E27.65332
G1 X-10.746 Y0.171 E27.75096
G1 X-11.245 Y-0.648 E27.85344
G1 X-11.677 Y-1.492 E27.95477
G1 X-12.041 Y-2.353 E28.05473
G1 X-12.338 Y-3.224 E28.15301
G1 X-12.579 Y-4.149 E28.25526
G1 X-12.751 Y-5.087 E28.35715
G1 X-12.852 Y-6.013 E28.45670
G1 X-12.885 Y-6.953 E28.55726
G1 X-12.854 Y-7.836 E28.65167
G1 X-12.758 Y-8.740 E28.74882
G1 X-12.605 Y-9.610 E28.84330
G1 X-12.374 Y-10.530 E28.94466
G1 X-12.053 Y-11.491 E29.05301
G1 X-11.692 Y-12.354 E29.15294
G1 X-11.239 Y-13.240 E29.25931
G1 X-10.717 Y-14.090 E29.36599
G1 X-10.163 Y-14.860 E29.46734
G1 X-9.553 Y-15.586 E29.56875
G1 X-8.853 Y-16.300 E29.67557
G1 X-8.174 Y-16.899 E29.77234
G1 X-6.946 Y-17.834 E29.93731
G1 X-6.946 Y-23.886 E30.58422
G1 X7.826 Y-23.886 E32.16315
G1 X7.826 Y-17.264 E32.87091
G1 X10.247 Y-14.747 E33.24429
G1 X11.024 Y-13.608 E33.39165
G1 X11.698 Y-12.339 E33.54521
G1 X12.203 Y-11.074 E33.69083
G1 X12.580 Y-9.722 E33.84086
G1 X12.807 Y-8.346 E33.98991
G1 X12.884 Y-6.937 E34.14069
G1 X12.815 Y-5.609 E34.28285
G1 X12.599 Y-4.243 E34.43074
G1 X12.223 Y-2.864 E34.58347
G1 X11.679 Y-1.499 E34.74049
G1 X11.013 Y-0.252 E34.89160
G1 X10.194 Y0.940 E35.04620
G1 X9.267 Y2.012 E35.19770
G1 X7.826 Y3.349 E35.40785
G1 X7.826 Y23.886 E37.60303
G1 X-6.886 Y23.886 E39.17554
G1 X-7.660 Y24.600 F4800.000
G1 X-7.660 Y4.310 E41.34433 F600.000
G1 X-8.644 Y3.560 E41.47654
G1 X-9.412 Y2.877 E41.58634
G1 X-10.089 Y2.180 E41.69028
G1 X-10.780 Y1.350 E41.80566
G1 X-11.342 Y0.565 E41.90893
G1 X-11.869 Y-0.299 E42.01706
G1 X-12.325 Y-1.190 E42.12400
G1 X-12.709 Y-2.099 E42.22951
G1 X-13.022 Y-3.018 E42.33331
G1 X-13.277 Y-3.994 E42.44116
G1 X-13.458 Y-4.984 E42.54868
G1 X-13.564 Y-5.962 E42.65380
G1 X-13.600 Y-6.953 E42.75984
G1 X-13.567 Y-7.886 E42.85962
G1 X-13.466 Y-8.839 E42.96208
G1 X-13.304 Y-9.759 E43.06193
G1 X-13.060 Y-10.730 E43.16892
G1 X-12.722 Y-11.743 E43.28305
G1 X-12.340 Y-12.654 E43.38871
G1 X-11.862 Y-13.590 E43.50095
G1 X-11.312 Y-14.486 E43.61343
G1 X-10.727 Y-15.299 E43.72045
G1 X-10.082 Y-16.067 E43.82765
G1 X-9.345 Y-16.818 E43.94011
G1 X-8.628 Y-17.452 E44.04241
G1 X-7.660 Y-18.188 E44.17234
G1 X-7.660 Y-24.600 E44.85775
G1 X8.540 Y-24.600 E46.58935
G1 X8.540 Y-17.552 E47.34270
G1 X10.803 Y-15.198 E47.69172
G1 X11.636 Y-13.978 E47.84970
G1 X12.347 Y-12.640 E48.01163
G1 X12.880 Y-11.303 E48.16551
G1 X13.278 Y-9.876 E48.32379
G1 X13.518 Y-8.424 E48.48114
G1 X13.599 Y-6.938 E48.64015
G1 X13.527 Y-5.535 E48.79041
G1 X13.298 Y-4.092 E48.94650
G1 X12.901 Y-2.637 E49.10770
G1 X12.328 Y-1.198 E49.27329
G1 X11.624 Y0.119 E49.43292
G1 X10.760 Y1.377 E49.59601
G1 X9.782 Y2.509 E49.75597
G1 X8.540 Y3.660 E49.93700
G1 X8.540 Y24.600 E52.17520
G1 X-7.600 Y24.600 E53.90038
G1 X-7.460 Y24.254 F4800.000
G1 X-0.081 Y16.433 F4800.000
G1 X0.961 Y16.435 E54.01179 F600.000
G1 X2.361 Y16.236 F4800.000
G1 X6.676 Y20.551 E54.67207 F600.000
G1 X6.676 Y19.528 E54.78271
G1 X2.932 Y15.784 E55.35568
G1 X3.405 Y15.235 E55.43414
G1 X6.676 Y18.506 E55.93474
G1 X6.676 Y17.483 E56.04538
G1 X3.777 Y14.584 E56.48907
G1 X4.031 Y13.816 E56.57660
G1 X6.676 Y16.461 E56.98129
G1 X6.676 Y15.438 E57.09194
G1 X4.099 Y12.862 E57.48625
G1 X3.825 Y11.565 E57.62970
G1 X6.676 Y14.416 E58.06602
G1 X6.676 Y13.394 E58.17666
G1 X-11.495 Y-4.778 E60.95749
G1 X-11.674 Y-5.979 E61.08892
G1 X6.676 Y12.371 E63.89713
G1 X6.676 Y11.349 E64.00777
G1 X-11.733 Y-7.060 E66.82496
G1 X-11.691 Y-8.041 E66.93117
G1 X6.676 Y10.326 E69.74196
G1 X6.676 Y9.304 E69.85261
G1 X-11.578 Y-8.950 E72.64611
G1 X-11.405 Y-9.800 E72.73993
G1 X6.676 Y8.281 E75.50697
G1 X6.676 Y7.259 E75.61762
G1 X-11.182 Y-10.599 E78.35043
G1 X-10.915 Y-11.355 E78.43715
G1 X6.676 Y6.236 E81.12914
G1 X6.676 Y5.214 E81.23978
G1 X-10.606 Y-12.068 E83.88446
G1 X-10.260 Y-12.745 E83.96670
G1 X6.676 Y4.191 E86.55846
G1 X6.676 Y3.169 E86.66911
G1 X-9.872 Y-13.379 E89.20145
G1 X-9.452 Y-13.982 E89.28094
G1 X7.084 Y2.554 E91.81152
G1 X7.614 Y2.062 E91.88982
G1 X-9.000 Y-14.552 E94.43243
G1 X-8.516 Y-15.091 E94.51078
G1 X8.145 Y1.570 E97.06046
G1 X8.655 Y1.058 E97.13870
G1 X-8.003 Y-15.600 E99.68785
G1 X-7.457 Y-16.077 E99.76626
G1 X9.129 Y0.509 E102.30450
G1 X9.568 Y-0.074 E102.38352
G1 X-6.876 Y-16.518 E104.90005
G1 X-6.296 Y-16.960 E104.97901
G1 X9.984 Y-0.680 E107.47039
G1 X10.350 Y-1.337 E107.55173
G1 X-5.796 Y-17.483 E110.02268
G1 X-5.796 Y-18.506 E110.13332
G1 X10.696 Y-2.014 E112.65717
G1 X10.987 Y-2.745 E112.74235
G1 X-5.796 Y-19.528 E115.31075
G1 X-5.796 Y-20.551 E115.42139
G1 X11.243 Y-3.511 E118.02906
G1 X11.463 Y-4.314 E118.11916
G1 X-5.796 Y-21.573 E120.76038
G1 X-5.796 Y-22.596 E120.87103
G1 X11.607 Y-5.192 E123.53442
G1 X11.699 Y-6.123 E123.63569
G1 X-4.914 Y-22.736 E126.17803
G1 X-3.892 Y-22.736 E126.28868
G1 X11.714 Y-7.131 E128.67687
G1 X11.633 Y-8.234 E128.79654
G1 X-2.869 Y-22.736 E131.01594
G1 X-1.847 Y-22.736 E131.12659
G1 X11.404 Y-9.485 E133.15450
G1 X10.929 Y-10.983 E133.32454
G1 X-0.824 Y-22.736 E135.12325
G1 X0.198 Y-22.736 E135.23390
G1 X9.863 Y-13.071 E136.71294
G1 X6.676 Y-17.281 F4800.000
G1 X1.221 Y-22.736 E137.54780 F600.000
G1 X2.243 Y-22.736 E137.65844
G1 X6.676 Y-18.303 E138.33683
G1 X6.676 Y-19.326 E138.44747
G1 X3.265 Y-22.736 E138.96939
G1 X4.288 Y-22.736 E139.08003
G1 X6.676 Y-20.348 E139.44547
G1 X6.676 Y-21.371 E139.55611
G1 X5.310 Y-22.736 E139.76508
G1 X6.333 Y-22.736 E139.87572
G1 X6.676 Y-22.393 E139.92821
G1 X-11.114 Y-3.374 F4800.000
G1 X2.054 Y9.795 E141.94347 F600.000
G1 X0.760 Y9.522 E142.08663
G1 X-10.326 Y-1.563 E143.78307
G1 X-5.796 Y3.989 F4800.000
G1 X-0.198 Y9.587 E144.63980 F600.000
G1 X-0.966 Y9.842 E144.72732
G1 X-5.796 Y5.011 E145.46657
G1 X-5.796 Y6.034 E145.57722
G1 X-1.616 Y10.214 E146.21692
G1 X-2.166 Y10.687 E146.29537
G1 X-5.796 Y7.056 E146.85099
G1 X-5.796 Y8.079 E146.96163
G1 X-2.617 Y11.258 E147.44813
G1 X-2.963 Y11.934 E147.53037
G1 X-5.796 Y9.101 E147.96397
