;FLAVOR:Marlin
;TIME:1644
;Filament used: 0.920598m
;Layer height: 0.2
;MINX:-21.85
;MINY:-21.85
;MINZ:0.3
;MAXX:21.85
;MAXY:21.85
;MAXZ:2.9
;Generated with Cura_SteamEngine 4.13.1
M140 S60
M105
M190 S60
M104 S200
M105
M109 S200
M82 ;absolute extrusion mode
G21 ;metric values
G90 ;absolute positioning
M82 ;set extruder to absolute mode
M107 ;start with the fan off
G28 ;Home all axes (max endstops)
G1 Z30.0 F9000 ;move the platform down 15mm
G92 E0 ;zero the extruded length
G1 f700 x0 y70 Z0 E9 F500 ; start purge line
G1 f700 x40 y50 E12.5 ; finish purge line
G92 E0 ;zero the extruded length again
G1 F9000
;Put printing message on LCD screen
M117 Printing...
G92 E0
G92 E0
G1 F750 E-6.5
;LAYER_COUNT:14
;LAYER:0
M107
G0 F3600 X21.849 Y20.049 Z0.3
;TYPE:SKIRT
G1 F750 E0
G1 F900 X21.809 Y20.426 E0.01891
G1 X21.691 Y20.786 E0.03781
G1 X21.501 Y21.113 E0.05668
G1 X21.245 Y21.394 E0.07565
G1 X20.937 Y21.614 E0.09453
G1 X20.59 Y21.766 E0.11343
G1 X20.049 Y21.849 E0.14074
G1 X-20.05 Y21.85 E2.14128
G1 X-20.427 Y21.81 E2.1602
G1 X-20.787 Y21.692 E2.1791
G1 X-21.114 Y21.502 E2.19797
G1 X-21.395 Y21.247 E2.2169
G1 X-21.615 Y20.939 E2.23578
G1 X-21.767 Y20.591 E2.25473
G1 X-21.85 Y20.05 E2.28203
G1 X-21.85 Y-20.05 E4.28263
G1 X-21.81 Y-20.427 E4.30155
G1 X-21.692 Y-20.787 E4.32045
G1 X-21.502 Y-21.114 E4.33931
G1 X-21.247 Y-21.395 E4.35825
G1 X-20.938 Y-21.615 E4.37717
G1 X-20.591 Y-21.767 E4.39607
G1 X-20.05 Y-21.85 E4.42338
G1 X20.05 Y-21.85 E6.42397
G1 X20.427 Y-21.81 E6.44289
G1 X20.787 Y-21.692 E6.46179
G1 X21.114 Y-21.502 E6.48066
G1 X21.395 Y-21.247 E6.49959
G1 X21.615 Y-20.938 E6.51851
G1 X21.767 Y-20.591 E6.53741
G1 X21.85 Y-20.05 E6.56472
G1 X21.849 Y20.049 E8.56526
G0 F3600 X21.449 Y20.049
G1 F900 X21.409 Y20.381 E8.58195
G1 X21.292 Y20.694 E8.59862
G1 X21.104 Y20.97 E8.61528
G1 X20.856 Y21.193 E8.63192
G1 X20.562 Y21.352 E8.64859
G1 X20.049 Y21.449 E8.67464
G1 X-20.05 Y21.45 E10.67519
G1 X-20.382 Y21.41 E10.69187
G1 X-20.694 Y21.293 E10.7085
G1 X-20.971 Y21.105 E10.7252
G1 X-21.194 Y20.857 E10.74184
G1 X-21.353 Y20.563 E10.75851
G1 X-21.45 Y20.05 E10.78456
G1 X-21.45 Y-20.05 E12.78516
G1 X-21.41 Y-20.382 E12.80184
G1 X-21.293 Y-20.694 E12.81846
G1 X-21.105 Y-20.971 E12.83517
G1 X-20.857 Y-21.194 E12.85181
G1 X-20.563 Y-21.353 E12.86848
G1 X-20.05 Y-21.45 E12.89453
G1 X20.05 Y-21.45 E14.89513
G1 X20.382 Y-21.41 E14.91181
G1 X20.694 Y-21.293 E14.92843
G1 X20.971 Y-21.105 E14.94513
G1 X21.194 Y-20.857 E14.96177
G1 X21.353 Y-20.563 E14.97845
G1 X21.45 Y-20.05 E15.0045
G1 X21.449 Y20.049 E17.00504
G0 F3600 X21.049 Y20.049
G1 F900 X21.009 Y20.328 E17.01911
G1 X20.893 Y20.585 E17.03317
G1 X20.71 Y20.8 E17.04726
G1 X20.474 Y20.954 E17.06132
G1 X20.049 Y21.049 E17.08304
G1 X-20.05 Y21.05 E19.08359
G1 X-20.329 Y21.01 E19.09765
G1 X-20.586 Y20.894 E19.11172
G1 X-20.801 Y20.711 E19.12581
G1 X-20.955 Y20.475 E19.13987
G1 X-21.05 Y20.05 E19.16159
G1 X-21.05 Y-20.05 E21.16219
G1 X-21.01 Y-20.329 E21.17625
G1 X-20.894 Y-20.586 E21.19032
G1 X-20.711 Y-20.801 E21.2044
G1 X-20.475 Y-20.955 E21.21846
G1 X-20.05 Y-21.05 E21.24019
G1 X20.05 Y-21.05 E23.24079
G1 X20.329 Y-21.01 E23.25485
G1 X20.586 Y-20.894 E23.26892
G1 X20.801 Y-20.711 E23.283
G1 X20.955 Y-20.475 E23.29706
G1 X21.05 Y-20.05 E23.31879
G1 X21.049 Y20.049 E25.31933
G0 F3600 X20.649 Y20.049
G1 F900 X20.609 Y20.264 E25.33025
G1 X20.496 Y20.45 E25.3411
G1 X20.323 Y20.583 E25.35199
G1 X20.049 Y20.649 E25.36605
G1 X-20.05 Y20.65 E27.3666
G1 X-20.265 Y20.61 E27.37751
G1 X-20.451 Y20.497 E27.38837
G1 X-20.584 Y20.324 E27.39925
G1 X-20.65 Y20.05 E27.41331
G1 X-20.65 Y-20.05 E29.41391
G1 X-20.61 Y-20.265 E29.42482
G1 X-20.497 Y-20.451 E29.43568
G1 X-20.324 Y-20.584 E29.44657
G1 X-20.05 Y-20.65 E29.46063
G1 X20.05 Y-20.65 E31.46122
G1 X20.265 Y-20.61 E31.47213
G1 X20.451 Y-20.497 E31.48299
G1 X20.584 Y-20.324 E31.49388
G1 X20.65 Y-20.05 E31.50794
G1 X20.649 Y20.049 E33.50849
G0 F3600 X20.249 Y20.049
G1 F900 X20.21 Y20.168 E33.51474
G1 X20.049 Y20.249 E33.52373
G1 X-20.05 Y20.25 E35.52427
G1 X-20.169 Y20.211 E35.53052
G1 X-20.25 Y20.05 E35.53951
G1 X-20.25 Y-20.05 E37.54011
G1 X-20.211 Y-20.169 E37.54636
G1 X-20.05 Y-20.25 E37.55535
G1 X20.05 Y-20.25 E39.55595
G1 X20.169 Y-20.211 E39.56219
G1 X20.25 Y-20.05 E39.57119
G1 X20.249 Y20.049 E41.57173
G1 F750 E35.07173
;MESH:test_pyramid.stl
G0 F3600 X19.235 Y19.235
G0 X-19.18 Y19.18
G1 F750 E41.57173
G0 F3600 X-19.65 Y19.65
;TYPE:WALL-OUTER
G1 F900 X-19.65 Y-19.65 E43.53242
G1 X19.65 Y-19.65 E45.4931
G1 X19.649 Y19.649 E47.45374
G1 X-19.65 Y19.65 E49.41437
G0 F3600 X-19.65 Y19.45
G0 X-19.25 Y19.25
;TYPE:WALL-INNER
G1 F900 X-19.25 Y-19.25 E51.33515
G1 X19.25 Y-19.25 E53.25592
G1 X19.249 Y19.249 E55.17664
G1 X-19.25 Y19.25 E57.09736
G0 F3600 X-18.86 Y18.86
;TYPE:SKIN
G1 F900 X-18.86 Y-18.86 E58.97922
G1 X18.86 Y-18.86 E60.86108
G1 X18.859 Y18.859 E62.74289
G1 X-18.86 Y18.86 E64.6247
G0 F3600 X-18.09 Y18.678
G1 F900 X-18.679 Y18.089 E64.66626
G0 F3600 X-18.679 Y17.524
G1 F900 X-17.524 Y18.678 E64.74771
G0 F3600 X-16.959 Y18.678
G1 F900 X-18.679 Y16.958 E64.86907
G0 F3600 X-18.679 Y16.392
G1 F900 X-16.393 Y18.678 E65.03036
G0 F3600 X-15.827 Y18.678
G1 F900 X-18.679 Y15.827 E65.23155
G0 F3600 X-18.679 Y15.261
G1 F900 X-15.262 Y18.678 E65.47263
G0 F3600 X-14.696 Y18.678
G1 F900 X-18.679 Y14.695 E65.75366
G0 F3600 X-18.679 Y14.13
G1 F900 X-14.13 Y18.678 E66.07458
G0 F3600 X-13.565 Y18.678
G1 F900 X-18.679 Y13.564 E66.4354
G0 F3600 X-18.679 Y12.998
G1 F900 X-12.999 Y18.678 E66.83615
G0 F3600 X-12.433 Y18.678
G1 F900 X-18.679 Y12.433 E67.27681
G0 F3600 X-18.679 Y11.867
G1 F900 X-11.868 Y18.678 E67.75736
G0 F3600 X-11.302 Y18.678
G1 F900 X-18.679 Y11.301 E68.27785
G0 F3600 X-18.679 Y10.736
G1 F900 X-10.736 Y18.678 E68.83823
G0 F3600 X-10.171 Y18.678
G1 F900 X-18.679 Y10.17 E69.43852
G0 F3600 X-18.679 Y9.604
G1 F900 X-9.605 Y18.678 E70.07874
G0 F3600 X-9.039 Y18.678
G1 F900 X-18.679 Y9.038 E70.75889
G0 F3600 X-18.679 Y8.473
G1 F900 X-8.473 Y18.678 E71.47894
G0 F3600 X-7.908 Y18.678
G1 F900 X-18.679 Y7.907 E72.2389
G0 F3600 X-18.679 Y7.341
G1 F900 X-7.342 Y18.678 E73.03878
G0 F3600 X-6.776 Y18.678
G1 F900 X-18.679 Y6.776 E73.87857
G0 F3600 X-18.679 Y6.21
G1 F900 X-6.211 Y18.678 E74.75825
G0 F3600 X-5.645 Y18.678
G1 F900 X-18.679 Y5.644 E75.67787
G0 F3600 X-18.679 Y5.079
G1 F900 X-5.079 Y18.678 E76.63739
G0 F3600 X-4.514 Y18.678
G1 F900 X-18.679 Y4.513 E77.63681
G0 F3600 X-18.679 Y3.947
G1 F900 X-3.948 Y18.678 E78.67616
G0 F3600 X-3.382 Y18.678
G1 F900 X-18.679 Y3.382 E79.75541
G0 F3600 X-18.679 Y2.816
G1 F900 X-2.817 Y18.678 E80.87456
G0 F3600 X-2.251 Y18.678
G1 F900 X-18.679 Y2.25 E82.03364
G0 F3600 X-18.679 Y1.685
G1 F900 X-1.685 Y18.678 E83.23263
G0 F3600 X-1.12 Y18.678
G1 F900 X-18.679 Y1.119 E84.47151
G0 F3600 X-18.679 Y0.553
G1 F900 X-.554 Y18.678 E85.75033
G0 F3600 X0.011 Y18.678
G1 F900 X-18.679 Y-0.012 E87.06901
G0 F3600 X-18.679 Y-.577
G1 F900 X0.576 Y18.678 E88.42755
G0 F3600 X1.142 Y18.678
G1 F900 X-18.679 Y-1.143 E89.82603
G0 F3600 X-18.679 Y-1.709
G1 F900 X1.708 Y18.678 E91.26444
G0 F3600 X2.274 Y18.678
G1 F900 X-18.679 Y-2.274 E92.74275
G0 F3600 X-18.679 Y-2.84
G1 F900 X2.839 Y18.678 E94.26097
G0 F3600 X3.405 Y18.678
G1 F900 X-18.679 Y-3.406 E95.81911
G0 F3600 X-18.679 Y-3.971
G1 F900 X3.971 Y18.678 E97.41716
G0 F3600 X4.536 Y18.678
G1 F900 X-18.679 Y-4.537 E99.0551
G0 F3600 X-18.679 Y-5.103
G1 F900 X5.102 Y18.678 E100.73298
G0 F3600 X5.668 Y18.678
G1 F900 X-18.679 Y-5.668 E102.45075
G0 F3600 X-18.679 Y-6.234
G1 F900 X6.233 Y18.678 E104.20843
G0 F3600 X6.799 Y18.678
G1 F900 X-18.679 Y-6.8 E106.00604
G0 F3600 X-18.679 Y-7.365
G1 F900 X7.365 Y18.678 E107.84355
G0 F3600 X7.93 Y18.678
G1 F900 X-18.679 Y-7.931 E109.72096
G0 F3600 X-18.679 Y-8.497
G1 F900 X8.496 Y18.678 E111.6383
G0 F3600 X9.062 Y18.678
G1 F900 X-18.679 Y-9.062 E113.59554
G0 F3600 X-18.679 Y-9.628
G1 F900 X9.627 Y18.678 E115.59269
G0 F3600 X10.193 Y18.678
G1 F900 X-18.679 Y-10.194 E117.62976
G0 F3600 X-18.679 Y-10.76
G1 F900 X10.759 Y18.678 E119.70677
G0 F3600 X11.325 Y18.678
G1 F900 X-18.679 Y-11.325 E121.82368
G0 F3600 X-18.679 Y-11.891
G1 F900 X11.89 Y18.678 E123.98049
G0 F3600 X12.456 Y18.678
G1 F900 X-18.679 Y-12.457 E126.17723
G0 F3600 X-18.679 Y-13.022
G1 F900 X13.022 Y18.678 E128.41387
G0 F3600 X13.587 Y18.678
G1 F900 X-18.679 Y-13.588 E130.69041
G0 F3600 X-18.679 Y-14.154
G1 F900 X14.153 Y18.678 E133.00689
G0 F3600 X14.719 Y18.678
G1 F900 X-18.679 Y-14.719 E135.36326
G0 F3600 X-18.679 Y-15.285
G1 F900 X15.284 Y18.678 E137.75953
G0 F3600 X15.85 Y18.678
G1 F900 X-18.679 Y-15.851 E140.19574
G0 F3600 X-18.679 Y-16.416
G1 F900 X16.416 Y18.678 E142.67185
G0 F3600 X16.981 Y18.678
G1 F900 X-18.679 Y-16.982 E145.18785
G0 F3600 X-18.679 Y-17.548
G1 F900 X17.547 Y18.678 E147.74379
G0 F3600 X18.113 Y18.678
G1 F900 X-18.679 Y-18.113 E150.33963
G0 F3600 X-18.679 Y-18.679
G1 F900 X18.678 Y18.678 E152.97537
G0 F3600 X18.679 Y18.113
G1 F900 X-18.113 Y-18.679 E155.57125
G0 F3600 X-17.548 Y-18.679
G1 F900 X18.679 Y17.548 E158.12726
G0 F3600 X18.679 Y16.982
G1 F900 X-16.982 Y-18.679 E160.64333
G0 F3600 X-16.416 Y-18.679
G1 F900 X18.679 Y16.416 E163.11947
G0 F3600 X18.679 Y15.851
G1 F900 X-15.851 Y-18.679 E165.55575
G0 F3600 X-15.285 Y-18.679
G1 F900 X18.679 Y15.285 E167.9521
G0 F3600 X18.679 Y14.719
G1 F900 X-14.719 Y-18.679 E170.30851
G0 F3600 X-14.154 Y-18.679
G1 F900 X18.679 Y14.154 E172.62505
G0 F3600 X18.679 Y13.588
G1 F900 X-13.588 Y-18.679 E174.90166
G0 F3600 X-13.022 Y-18.679
G1 F900 X18.679 Y13.022 E177.13834
G0 F3600 X18.679 Y12.457
G1 F900 X-12.457 Y-18.679 E179.33515
G0 F3600 X-11.891 Y-18.679
G1 F900 X18.679 Y11.891 E181.49203
G0 F3600 X18.679 Y11.325
G1 F900 X-11.325 Y-18.679 E183.60897
G0 F3600 X-10.76 Y-18.679
G1 F900 X18.679 Y10.76 E185.68605
G0 F3600 X18.679 Y10.194
G1 F900 X-10.194 Y-18.679 E187.7232
G0 F3600 X-9.628 Y-18.679
G1 F900 X18.679 Y9.628 E189.72041
G0 F3600 X18.679 Y9.062
G1 F900 X-9.062 Y-18.679 E191.67769
G0 F3600 X-8.497 Y-18.679
G1 F900 X18.679 Y8.497 E193.5951
G0 F3600 X18.679 Y7.931
G1 F900 X-7.931 Y-18.679 E195.47258
G0 F3600 X-7.365 Y-18.679
G1 F900 X18.679 Y7.365 E197.31013
G0 F3600 X18.679 Y6.8
G1 F900 X-6.8 Y-18.679 E199.10781
G0 F3600 X-6.234 Y-18.679
G1 F900 X18.679 Y6.234 E200.86556
G0 F3600 X18.679 Y5.668
G1 F900 X-5.668 Y-18.679 E202.58337
G0 F3600 X-5.103 Y-18.679
G1 F900 X18.679 Y5.103 E204.26132
G0 F3600 X18.679 Y4.537
G1 F900 X-4.537 Y-18.679 E205.89933
G0 F3600 X-3.971 Y-18.679
G1 F900 X18.679 Y3.971 E207.49741
G0 F3600 X18.679 Y3.406
G1 F900 X-3.406 Y-18.679 E209.05563
G0 F3600 X-2.84 Y-18.679
G1 F900 X18.679 Y2.84 E210.57391
G0 F3600 X18.679 Y2.274
G1 F900 X-2.274 Y-18.679 E212.05226
G0 F3600 X-1.709 Y-18.679
G1 F900 X18.679 Y1.709 E213.49074
G0 F3600 X18.679 Y1.143
G1 F900 X-1.143 Y-18.679 E214.88929
G0 F3600 X-.577 Y-18.679
G1 F900 X18.679 Y0.577 E216.2479
G0 F3600 X18.679 Y0.012
G1 F900 X-0.012 Y-18.679 E217.56665
G0 F3600 X0.553 Y-18.679
G1 F900 X18.679 Y-.553 E218.84554
G0 F3600 X18.679 Y-1.119
G1 F900 X1.119 Y-18.679 E220.08449
G0 F3600 X1.685 Y-18.679
G1 F900 X18.679 Y-1.685 E221.28351
G0 F3600 X18.679 Y-2.25
G1 F900 X2.25 Y-18.679 E222.44267
G0 F3600 X2.816 Y-18.679
G1 F900 X18.679 Y-2.816 E223.56189
G0 F3600 X18.679 Y-3.382
G1 F900 X3.382 Y-18.679 E224.64117
G0 F3600 X3.947 Y-18.679
G1 F900 X18.679 Y-3.947 E225.6806
G0 F3600 X18.679 Y-4.513
G1 F900 X4.513 Y-18.679 E226.68008
G0 F3600 X5.079 Y-18.679
G1 F900 X18.679 Y-5.079 E227.63964
G0 F3600 X18.679 Y-5.644
G1 F900 X5.644 Y-18.679 E228.55933
G0 F3600 X6.21 Y-18.679
G1 F900 X18.679 Y-6.21 E229.43908
G0 F3600 X18.679 Y-6.776
G1 F900 X6.776 Y-18.679 E230.2789
G0 F3600 X7.341 Y-18.679
G1 F900 X18.679 Y-7.341 E231.07886
G0 F3600 X18.679 Y-7.907
G1 F900 X7.907 Y-18.679 E231.83888
G0 F3600 X8.473 Y-18.679
G1 F900 X18.679 Y-8.473 E232.55897
G0 F3600 X18.679 Y-9.038
G1 F900 X9.038 Y-18.679 E233.2392
G0 F3600 X9.604 Y-18.679
G1 F900 X18.679 Y-9.604 E233.87949
G0 F3600 X18.679 Y-10.17
G1 F900 X10.17 Y-18.679 E234.47984
G0 F3600 X10.736 Y-18.679
G1 F900 X18.679 Y-10.736 E235.04026
G0 F3600 X18.679 Y-11.301
G1 F900 X11.301 Y-18.679 E235.56082
G0 F3600 X11.867 Y-18.679
G1 F900 X18.679 Y-11.867 E236.04144
G0 F3600 X18.679 Y-12.433
G1 F900 X12.433 Y-18.679 E236.48213
G0 F3600 X12.998 Y-18.679
G1 F900 X18.679 Y-12.998 E236.88296
G0 F3600 X18.679 Y-13.564
G1 F900 X13.564 Y-18.679 E237.24385
G0 F3600 X14.13 Y-18.679
G1 F900 X18.679 Y-14.13 E237.56481
G0 F3600 X18.679 Y-14.695
G1 F900 X14.695 Y-18.679 E237.8459
G0 F3600 X15.261 Y-18.679
G1 F900 X18.679 Y-15.261 E238.08706
G0 F3600 X18.679 Y-15.827
G1 F900 X15.827 Y-18.679 E238.28828
G0 F3600 X16.392 Y-18.679
G1 F900 X18.679 Y-16.392 E238.44964
G0 F3600 X18.679 Y-16.958
G1 F900 X16.958 Y-18.679 E238.57107
G0 F3600 X17.524 Y-18.679
G1 F900 X18.679 Y-17.524 E238.65256
G0 F3600 X18.679 Y-18.089
G1 F900 X18.089 Y-18.679 E238.69419
G1 X18.019 Y-18.749
;MESH:NONMESH
G0 F600 X18.019 Y-18.749 Z0.5
G0 F3600 X-19.18 Y19.18
G0 X-19.4 Y19.4
;TIME_ELAPSED:327.877308
;LAYER:1
M106 S255
;TYPE:WALL-OUTER
;MESH:test_pyramid.stl
G1 F900 X-19.4 Y-19.4 E239.98468
G1 X19.4 Y-19.4 E241.27517
G1 X19.399 Y19.399 E242.56563
G1 X-19.4 Y19.4 E243.85609
G0 F5400 X-19.4 Y19.2
G0 X-19 Y19
;TYPE:WALL-INNER
G1 F1350 X-19 Y-19 E245.11998
G1 X19 Y-19 E246.38386
G1 X18.999 Y18.999 E247.64772
G1 X-19 Y19 E248.91157
G0 F5400 X-18.61 Y18.61
;TYPE:SKIN
G1 F900 X-18.61 Y-18.61 E250.14951
G1 X18.61 Y-18.61 E251.38745
G1 X18.609 Y18.609 E252.62536
G1 X-18.61 Y18.61 E253.86327
G0 F5400 X18.428 Y18.34
G1 F900 X18.34 Y18.429 E253.86743
G0 F5400 X17.774 Y18.429
G1 F900 X18.428 Y17.775 E253.89819
G0 F5400 X18.428 Y17.209
G1 F900 X17.208 Y18.429 E253.95558
G0 F5400 X16.643 Y18.429
G1 F900 X18.428 Y16.643 E254.03956
G0 F5400 X18.428 Y16.078
G1 F900 X16.077 Y18.429 E254.15015
G0 F5400 X15.511 Y18.429
G1 F900 X18.428 Y15.512 E254.28735
G0 F5400 X18.428 Y14.946
G1 F900 X14.946 Y18.429 E254.45116
G0 F5400 X14.38 Y18.429
G1 F900 X18.428 Y14.381 E254.64157
G0 F5400 X18.428 Y13.815
G1 F900 X13.814 Y18.429 E254.85859
G0 F5400 X13.249 Y18.429
G1 F900 X18.428 Y13.249 E255.10222
G0 F5400 X18.428 Y12.684
G1 F900 X12.683 Y18.429 E255.37245
G0 F5400 X12.117 Y18.429
G1 F900 X18.428 Y12.118 E255.6693
G0 F5400 X18.428 Y11.552
G1 F900 X11.552 Y18.429 E255.99275
G0 F5400 X10.986 Y18.429
G1 F900 X18.428 Y10.987 E256.3428
G0 F5400 X18.428 Y10.421
G1 F900 X10.42 Y18.429 E256.71947
G0 F5400 X9.854 Y18.429
G1 F900 X18.428 Y9.855 E257.12276
G0 F5400 X18.428 Y9.289
G1 F900 X9.289 Y18.429 E257.55266
G0 F5400 X8.723 Y18.429
G1 F900 X18.428 Y8.724 E258.00915
G0 F5400 X18.428 Y8.158
G1 F900 X8.157 Y18.429 E258.49227
G0 F5400 X7.592 Y18.429
G1 F900 X18.428 Y7.592 E259.00198
G0 F5400 X18.428 Y7.027
G1 F900 X7.026 Y18.429 E259.5383
G0 F5400 X6.46 Y18.429
G1 F900 X18.428 Y6.461 E260.10124
G0 F5400 X18.428 Y5.895
G1 F900 X5.895 Y18.429 E260.69077
G0 F5400 X5.329 Y18.429
G1 F900 X18.428 Y5.33 E261.30691
G0 F5400 X18.428 Y4.764
G1 F900 X4.763 Y18.429 E261.94967
G0 F5400 X4.198 Y18.429
G1 F900 X18.428 Y4.198 E262.61903
G0 F5400 X18.428 Y3.633
G1 F900 X3.632 Y18.429 E263.31499
G0 F5400 X3.066 Y18.429
G1 F900 X18.428 Y3.067 E264.03757
G0 F5400 X18.428 Y2.501
G1 F900 X2.501 Y18.429 E264.78675
G0 F5400 X1.935 Y18.429
G1 F900 X18.428 Y1.936 E265.56253
G0 F5400 X18.428 Y1.37
G1 F900 X1.369 Y18.429 E266.36493
G0 F5400 X0.803 Y18.429
G1 F900 X18.428 Y0.804 E267.19396
G0 F5400 X18.428 Y0.239
G1 F900 X0.238 Y18.429 E268.04956
G0 F5400 X-.327 Y18.429
G1 F900 X18.428 Y-.326 E268.93174
G0 F5400 X18.428 Y-.892
G1 F900 X-.893 Y18.429 E269.84054
G0 F5400 X-1.458 Y18.429
G1 F900 X18.428 Y-1.458 E270.77594
G0 F5400 X18.428 Y-2.023
G1 F900 X-2.024 Y18.429 E271.73794
G0 F5400 X-2.59 Y18.429
G1 F900 X18.428 Y-2.589 E272.72656
G0 F5400 X18.428 Y-3.155
G1 F900 X-3.155 Y18.429 E273.74178
G0 F5400 X-3.721 Y18.429
G1 F900 X18.428 Y-3.72 E274.7836
G0 F5400 X18.428 Y-4.286
G1 F900 X-4.287 Y18.429 E275.85205
G0 F5400 X-4.852 Y18.429
G1 F900 X18.428 Y-4.852 E276.94709
G0 F5400 X18.428 Y-5.417
G1 F900 X-5.418 Y18.429 E278.06873
G0 F5400 X-5.984 Y18.429
G1 F900 X18.428 Y-5.983 E279.217
G0 F5400 X18.428 Y-6.549
