; generated by Slic3r 1.2.9 on 2022-04-22 at 18:05:25

; external perimeters extrusion width = 0.40mm
; perimeters extrusion width = 0.67mm
; infill extrusion width = 0.67mm
; solid infill extrusion width = 0.67mm
; top infill extrusion width = 0.67mm

G28 ; home all axes
M104 S190
M190 S70 ; set bed temperature
G1 Z220
G28
G1 X0.000 Y70.000 Z30.300 F8000.000
M109 S190
G1 Z0.2 F2000
G1 X40.000 Y50.000 Z0.1 E10.000
G1 X0 Y0 Z15

G21 ; set units to millimeters
G90 ; use absolute coordinates
M82 ; use absolute distances for extrusion
G92 E0
G1 Z0.300 F4800.000
G1 E-2.00000 F2400.00000
G92 E0
G1 X51.071 Y0.000 F4800.000
G1 E0.80000 F2400.00000
G1 X51.071 Y40.000 E3.73944 F1080.000
G1 X50.673 Y42.943 E3.95764
G1 X49.507 Y45.673 E4.17585
G1 X47.657 Y47.996 E4.39405
G1 X45.257 Y49.744 E4.61226
G1 X42.478 Y50.790 E4.83046
G1 X40.000 Y51.071 E5.01372
G1 X-40.000 Y51.071 E10.89260
G1 X-42.943 Y50.673 E11.11080
G1 X-45.673 Y49.507 E11.32901
G1 X-47.996 Y47.657 E11.54721
G1 X-49.744 Y45.257 E11.76542
G1 X-50.790 Y42.478 E11.98362
G1 X-51.071 Y40.000 E12.16688
G1 X-51.071 Y-40.000 E18.04576
G1 X-50.673 Y-42.943 E18.26396
G1 X-49.507 Y-45.673 E18.48217
G1 X-47.657 Y-47.996 E18.70037
G1 X-45.257 Y-49.744 E18.91858
G1 X-42.478 Y-50.790 E19.13678
G1 X-40.000 Y-51.071 E19.32004
G1 X40.000 Y-51.071 E25.19892
G1 X42.943 Y-50.673 E25.41712
G1 X45.673 Y-49.507 E25.63533 F1080.000
G1 X47.996 Y-47.657 E25.85353
G1 X49.744 Y-45.257 E26.07174
G1 X50.790 Y-42.478 E26.28994
G1 X51.071 Y-40.000 E26.47320
G1 X51.071 Y-0.060 E29.40823
G1 X50.536 Y0.000 F4800.000
G1 X50.536 Y40.000 E32.34767 F1080.000
G1 X50.138 Y42.869 E32.56050
G1 X48.973 Y45.521 E32.77334
G1 X47.131 Y47.756 E32.98618
G1 X44.750 Y49.404 E33.19901
G1 X42.009 Y50.342 E33.41185
G1 X40.000 Y50.536 E33.56020
G1 X-40.000 Y50.536 E39.43908
G1 X-42.869 Y50.138 E39.65191
G1 X-45.521 Y48.973 E39.86475
G1 X-47.756 Y47.131 E40.07759
G1 X-49.404 Y44.750 E40.29042
G1 X-50.342 Y42.009 E40.50326
G1 X-50.536 Y40.000 E40.65161
G1 X-50.536 Y-40.000 E46.53049
G1 X-50.138 Y-42.869 E46.74332
G1 X-48.973 Y-45.521 E46.95616
G1 X-47.131 Y-47.756 E47.16900
G1 X-44.750 Y-49.404 E47.38183
G1 X-42.009 Y-50.342 E47.59467
G1 X-40.000 Y-50.536 E47.74302
G1 X40.000 Y-50.536 E53.62190
G1 X42.869 Y-50.138 E53.83473
G1 X45.521 Y-48.973 E54.04757 F1080.000
G1 X47.756 Y-47.131 E54.26041
G1 X49.404 Y-44.750 E54.47324
G1 X50.342 Y-42.009 E54.68608
G1 X50.536 Y-40.000 E54.83443
G1 X50.536 Y-0.060 E57.76946
G1 E55.76946 F2400.00000
G92 E0
G1 X41.339 Y0.000 F4800.000
G1 E0.80000 F2400.00000
G1 X41.339 Y40.555 E3.78020 F1080.000
G1 X40.555 Y41.339 E3.86172
G1 X-40.555 Y41.339 E9.82211
G1 X-41.339 Y40.555 E9.90363
G1 X-41.339 Y-40.555 E15.86402
G1 X-40.555 Y-41.339 E15.94554
G1 X40.555 Y-41.339 E21.90594
G1 X41.339 Y-40.555 E21.98745
G1 X41.339 Y-0.060 E24.96324 F1080.000
G1 X40.803 Y0.000 F4800.000
G1 X40.803 Y40.333 E27.92713 F1080.000
G1 X40.333 Y40.803 E27.97605
G1 X-40.333 Y40.803 E33.90383
G1 X-40.803 Y40.333 E33.95274
G1 X-40.803 Y-40.333 E39.88053
G1 X-40.333 Y-40.803 E39.92944
G1 X40.333 Y-40.803 E45.85723
G1 X40.803 Y-40.333 E45.90614 F1080.000
G1 X40.803 Y-0.060 E48.86562
G1 E46.86562 F2400.00000
G92 E0
G1 X40.268 Y-40.111 F4800.000
G1 E0.80000 F2400.00000
G1 X40.268 Y40.111 E6.69518 F1080.000
G1 X40.111 Y40.268 E6.71148
G1 X-40.111 Y40.268 E12.60666
G1 X-40.268 Y40.111 E12.62297
G1 X-40.268 Y-40.111 E18.51815
G1 X-40.111 Y-40.268 E18.53445
G1 X40.111 Y-40.268 E24.42963
G1 X40.225 Y-40.153 E24.44152
G1 X39.700 Y-39.700 F4800.000
G1 X39.700 Y39.700 E30.27631 F216.000
G1 X-39.700 Y39.700 E36.11109
G1 X-39.700 Y-39.700 E41.94588
G1 X39.640 Y-39.700 E47.77625
G1 X39.500 Y-39.354 F4800.000
G1 X39.164 Y-39.164 F4800.000
G1 X39.164 Y39.164 E53.53232 F720.000
G1 X-39.164 Y39.164 E59.28838
G1 X-39.164 Y-39.164 E65.04445
G1 X39.104 Y-39.164 E70.79610
G1 X38.629 Y-38.629 F4800.000
G1 X38.629 Y38.629 E76.47344 F720.000
G1 X-38.629 Y38.629 E82.15079
G1 X-38.629 Y-38.629 E87.82813
G1 X38.569 Y-38.629 E93.50106
G1 E91.50106 F2400.00000
G92 E0
G1 X-36.300 Y-24.724 F4800.000
G1 E0.80000 F2400.00000
G1 X24.724 Y36.300 E7.14194 F216.000
G1 X-36.300 Y36.300 E11.62636
G1 X-36.300 Y-24.664 E16.10638
G1 X-36.100 Y-25.071 F4800.000
G1 X-36.836 Y-26.017 F4800.000
G1 X26.017 Y36.836 E22.63837 F720.000
G1 X-36.836 Y36.836 E27.25718
G1 X-36.836 Y-25.957 E31.87158
G1 E29.87158 F2400.00000
G92 E0
G1 X-24.724 Y-36.300 F4800.000
G1 E0.80000 F2400.00000
G1 X36.300 Y-36.300 E5.28443 F216.000
G1 X36.300 Y24.724 E9.76885
G1 X-24.682 Y-36.258 E16.10638
G1 X-24.828 Y-36.686 F4800.000
G1 X-26.017 Y-36.836 F4800.000
G1 X36.836 Y-36.836 E20.72519 F720.000
G1 X36.836 Y26.017 E25.34400
G1 X-25.975 Y-36.793 E31.87158
G1 E29.87158 F2400.00000
G92 E0
G1 X-36.300 Y-36.300 F4800.000
G1 E0.80000 F2400.00000
G1 X-27.876 Y-36.300 E1.41907 F216.000
G1 X36.300 Y27.876 E8.08852
G1 X36.300 Y36.300 E8.70758
G1 X27.876 Y36.300 E9.32665
G1 X-36.300 Y-27.876 E15.99610
G1 X-36.300 Y-36.240 E16.61076
G1 X-36.300 Y-36.700 F4800.000
G1 X-36.836 Y-36.836 F4800.000
G1 X-27.654 Y-36.836 E17.28549 F720.000
G1 X36.836 Y27.654 E23.98755
G1 X36.836 Y36.836 E24.66227
G1 X27.654 Y36.836 E25.33700
G1 X-36.836 Y-27.654 E32.03906
G1 X-36.836 Y-36.776 E32.70938
G1 X-37.371 Y-37.371 F4800.000
G1 X37.371 Y-37.371 E38.20191 F720.000
G1 X37.371 Y37.371 E43.69443
G1 X-37.371 Y37.371 E49.18695
G1 X-37.371 Y-37.311 E54.67506
G1 X-37.938 Y-37.938 F4800.000
G1 X-37.639 Y-38.000 E54.72264 F360.000
G1 X37.639 Y-38.000 E66.45133
G1 X37.938 Y-37.938 E66.49891
G1 X38.000 Y-37.639 E66.54649
G1 X38.000 Y37.639 E78.27517
G1 X37.938 Y37.938 E78.32275
G1 X37.639 Y38.000 E78.37033
G1 X-37.639 Y38.000 E90.09902
G1 X-37.938 Y37.938 E90.14660
G1 X-38.000 Y37.639 E90.19417
G1 X-38.000 Y-37.639 E101.92286
G1 X-37.950 Y-37.879 E101.96109
G1 E99.96109 F2400.00000
G92 E0
G1 X-27.103 Y-37.103 F4800.000
G1 E0.80000 F2400.00000
G1 X37.103 Y27.103 E14.94741 F360.000
G1 E12.94741 F2400.00000
G92 E0
G1 X27.103 Y37.103 F4800.000
G1 E0.80000 F2400.00000
G1 X-37.103 Y-27.103 E14.94741 F360.000
G1 E12.94741 F2400.00000
G92 E0
M104 S0 ; turn off temperature
M140 S0; turn off heated bed
G28
M84     ; disable motors

; filament used = 379.7mm (0.9cm3)

; avoid_crossing_perimeters = 0
; bed_shape = 99.4522x10.4528,97.8148x20.7912,95.1057x30.9017,91.3545x40.6737,86.6025x50,80.9017x58.7785,74.3145x66.9131,66.9131x74.3145,58.7785x80.9017,50x86.6025,40.6737x91.3545,30.9017x95.1057,20.7912x97.8148,10.4528x99.4522,0x100,-10.4528x99.4522,-20.7912x97.8148,-30.9017x95.1057,-40.6737x91.3545,-50x86.6025,-58.7785x80.9017,-66.9131x74.3145,-74.3145x66.9131,-80.9017x58.7785,-86.6025x50,-91.3545x40.6737,-95.1057x30.9017,-97.8148x20.7912,-99.4522x10.4528,-100x0,-99.4522x-10.4528,-97.8148x-20.7912,-95.1057x-30.9017,-91.3545x-40.6737,-86.6025x-50,-80.9017x-58.7785,-74.3145x-66.9131,-66.9131x-74.3145,-58.7785x-80.9017,-50x-86.6025,-40.6737x-91.3545,-30.9017x-95.1057,-20.7912x-97.8148,-10.4528x-99.4522,0x-100,10.4528x-99.4522,20.7912x-97.8148,30.9017x-95.1057,40.6737x-91.3545,50x-86.6025,58.7785x-80.9017,66.9131x-74.3145,74.3145x-66.9131,80.9017x-58.7785,86.6025x-50,91.3545x-40.6737,95.1057x-30.9017,97.8148x-20.7912,99.4522x-10.4528,100x0
; bed_temperature = 70
; before_layer_gcode = 
; bridge_acceleration = 0
; bridge_fan_speed = 100
; brim_width = 2
; complete_objects = 0
; cooling = 0
; default_acceleration = 0
; disable_fan_first_layers = 3
; duplicate_distance = 6
; end_gcode = M104 S0 ; turn off temperature\nM140 S0; turn off heated bed\nG28\nM84     ; disable motors\n
; extruder_clearance_height = 20
; extruder_clearance_radius = 20
; extruder_offset = 0x0
; extrusion_axis = E
; extrusion_multiplier = 1.1
; fan_always_on = 1
; fan_below_layer_time = 60
; filament_colour = #000000
; filament_diameter = 1.75
; first_layer_acceleration = 0
; first_layer_bed_temperature = 70
; first_layer_extrusion_width = 200%
; first_layer_speed = 40%
; first_layer_temperature = 190
; gcode_arcs = 0
; gcode_comments = 0
; gcode_flavor = reprap
; infill_acceleration = 0
; infill_first = 0
; layer_gcode = 
; max_fan_speed = 100
; max_print_speed = 50
; max_volumetric_speed = 0
; min_fan_speed = 100
; min_print_speed = 5
; min_skirt_length = 0
; notes = 
; nozzle_diameter = 0.4
; only_retract_when_crossing_perimeters = 1
; ooze_prevention = 0
; output_filename_format = [input_filename_base].gcode
; perimeter_acceleration = 0
; post_process = 
; pressure_advance = 0
; resolution = 0
; retract_before_travel = 2
; retract_layer_change = 0
; retract_length = 2
; retract_length_toolchange = 10
; retract_lift = 0
; retract_restart_extra = -1.2
; retract_restart_extra_toolchange = 0
; retract_speed = 40
; skirt_distance = 10
; skirt_height = 1
; skirts = 2
; slowdown_below_layer_time = 10
; spiral_vase = 0
; standby_temperature_delta = -5
; start_gcode = G28 ; home all axes\nM104 S[first_layer_temperature]\nM190 S70 ; set bed temperature\nG1 Z220\nG28\nG1 X0.000 Y70.000 Z30.300 F8000.000\nM109 S[first_layer_temperature]\nG1 Z0.2 F2000\nG1 X40.000 Y50.000 Z0.1 E10.000\nG1 X0 Y0 Z15\n
; temperature = 190
; threads = 2
; toolchange_gcode = 
; travel_speed = 80
; use_firmware_retraction = 0
; use_relative_e_distances = 0
; use_volumetric_e = 0
; vibration_limit = 0
; wipe = 0
; z_offset = 0
; dont_support_bridges = 1
; extrusion_width = 0
; first_layer_height = 0.3
; infill_only_where_needed = 0
; interface_shells = 0
; layer_height = 0.2
; raft_layers = 0
; seam_position = aligned
; support_material = 0
; support_material_angle = 0
; support_material_contact_distance = 0.2
; support_material_enforce_layers = 0
; support_material_extruder = 1
; support_material_extrusion_width = 0
; support_material_interface_extruder = 1
; support_material_interface_layers = 3
; support_material_interface_spacing = 0
; support_material_interface_speed = 100%
; support_material_pattern = rectilinear-grid
; support_material_spacing = 2.5
; support_material_speed = 45
; support_material_threshold = 0
; xy_size_compensation = 0
; bottom_solid_layers = 3
; bridge_flow_ratio = 1
; bridge_speed = 45
; external_fill_pattern = rectilinear
; external_perimeter_extrusion_width = 0
; external_perimeter_speed = 30%
; external_perimeters_first = 0
; extra_perimeters = 1
; fill_angle = 45
; fill_density = 30%
; fill_pattern = rectilinear
; gap_fill_speed = 15
; infill_every_layers = 1
; infill_extruder = 1
; infill_extrusion_width = 0
; infill_overlap = 15%
; infill_speed = 30
; overhangs = 1
; perimeter_extruder = 1
; perimeter_extrusion_width = 0
; perimeter_speed = 30
; perimeters = 3
; small_perimeter_speed = 12
; solid_infill_below_area = 70
; solid_infill_every_layers = 0
; solid_infill_extruder = 1
; solid_infill_extrusion_width = 0
; solid_infill_speed = 15
; thin_walls = 1
; top_infill_extrusion_width = 0
; top_solid_infill_speed = 12
; top_solid_layers = 3
