; generated by Slic3r 1.2.9 on 2022-03-22 at 13:51:57

; external perimeters extrusion width = 0.40mm
; perimeters extrusion width = 0.67mm
; infill extrusion width = 0.67mm
; solid infill extrusion width = 0.67mm
; top infill extrusion width = 0.67mm

M190 S65 ; set bed temperature
M104 S195 ; set temperature
G28 ; home all axes
G1 Z0.300 F4800.000
G1 X0.000 Y70.000 F4800.000
G1 X40.000 Y50.000 E10.000 F1080.000
G1 Z5 F5000 ; lift nozzle

M109 S195 ; wait for temperature to be reached
G21 ; set units to millimeters
G90 ; use absolute coordinates
M82 ; use absolute distances for extrusion
G92 E0
G1 E-2.00000 F2400.00000
G92 E0
G1 Z0.300 F4800.000
G1 X21.071 Y0.000 F4800.000
G1 E1.00000 F2400.00000
G1 X21.071 Y10.000 E1.66805 F1080.000
G1 X20.673 Y12.943 E1.86642
G1 X19.507 Y15.673 E2.06479
G1 X17.657 Y17.996 E2.26316
G1 X15.257 Y19.744 E2.46153
G1 X12.478 Y20.790 E2.65989
G1 X10.000 Y21.071 E2.82649
G1 X-10.000 Y21.071 E4.16260
G1 X-12.943 Y20.673 E4.36097
G1 X-15.673 Y19.507 E4.55934
G1 X-17.996 Y17.657 E4.75771
G1 X-19.744 Y15.257 E4.95607
G1 X-20.790 Y12.478 E5.15444
G1 X-21.071 Y10.000 E5.32104
G1 X-21.071 Y-10.000 E6.65715
G1 X-20.673 Y-12.943 E6.85552
G1 X-19.507 Y-15.673 E7.05388
G1 X-17.657 Y-17.996 E7.25225
G1 X-15.257 Y-19.744 E7.45062
G1 X-12.478 Y-20.790 E7.64899
G1 X-10.000 Y-21.071 E7.81559
G1 X10.000 Y-21.071 E9.15170
G1 X12.943 Y-20.673 E9.35006
G1 X15.673 Y-19.507 E9.54843 F1080.000
G1 X17.996 Y-17.657 E9.74680
G1 X19.744 Y-15.257 E9.94517
G1 X20.790 Y-12.478 E10.14354
G1 X21.071 Y-10.000 E10.31013
G1 X21.071 Y-0.060 E10.97418
G1 X20.536 Y0.000 F4800.000
G1 X20.536 Y10.000 E11.64223 F1080.000
G1 X20.138 Y12.869 E11.83572
G1 X18.973 Y15.521 E12.02921
G1 X17.131 Y17.756 E12.22270
G1 X14.750 Y19.404 E12.41619
G1 X12.009 Y20.342 E12.60967
G1 X10.000 Y20.536 E12.74454
G1 X-10.000 Y20.536 E14.08065
G1 X-12.869 Y20.138 E14.27413
G1 X-15.521 Y18.973 E14.46762
G1 X-17.756 Y17.131 E14.66111
G1 X-19.404 Y14.750 E14.85460
G1 X-20.342 Y12.009 E15.04809
G1 X-20.536 Y10.000 E15.18295
G1 X-20.536 Y-10.000 E16.51906
G1 X-20.138 Y-12.869 E16.71255
G1 X-18.973 Y-15.521 E16.90603
G1 X-17.131 Y-17.756 E17.09952
G1 X-14.750 Y-19.404 E17.29301
G1 X-12.009 Y-20.342 E17.48650
G1 X-10.000 Y-20.536 E17.62136
G1 X10.000 Y-20.536 E18.95747
G1 X12.869 Y-20.138 E19.15096
G1 X15.521 Y-18.973 E19.34445 F1080.000
G1 X17.756 Y-17.131 E19.53793
G1 X19.404 Y-14.750 E19.73142
G1 X20.342 Y-12.009 E19.92491
G1 X20.536 Y-10.000 E20.05978
G1 X20.536 Y-0.060 E20.72382
G1 F3840
G1 X20.536 Y3.140 E18.82382
G1 E18.72382 F2400.00000
G92 E0
G1 X11.339 Y0.000 F4800.000
G1 E1.00000 F2400.00000
G1 X11.339 Y10.555 E1.70511 F1080.000
G1 X10.555 Y11.339 E1.77922
G1 X-10.555 Y11.339 E3.18943
G1 X-11.339 Y10.555 E3.26354
G1 X-11.339 Y-10.555 E4.67375
G1 X-10.555 Y-11.339 E4.74786
G1 X10.555 Y-11.339 E6.15808
G1 X11.339 Y-10.555 E6.23218
G1 X11.339 Y-0.060 E6.93328 F1080.000
G1 X10.803 Y0.000 F4800.000
G1 X10.803 Y10.333 E7.62357 F1080.000
G1 X10.333 Y10.803 E7.66803
G1 X-10.333 Y10.803 E9.04861
G1 X-10.803 Y10.333 E9.09307
G1 X-10.803 Y-10.333 E10.47364
G1 X-10.333 Y-10.803 E10.51811
G1 X10.333 Y-10.803 E11.89868
G1 X10.803 Y-10.333 E11.94315 F1080.000
G1 X10.803 Y-0.060 E12.62942
G1 F3840
G1 X10.803 Y3.140 E10.72942
G1 E10.62942 F2400.00000
G92 E0
G1 X10.268 Y-10.111 F4800.000
G1 E1.00000 F2400.00000
G1 X10.268 Y10.111 E2.35093 F1080.000
G1 X10.111 Y10.268 E2.36575
G1 X-10.111 Y10.268 E3.71668
G1 X-10.268 Y10.111 E3.73150
G1 X-10.268 Y-10.111 E5.08243
G1 X-10.111 Y-10.268 E5.09725
G1 X10.111 Y-10.268 E6.44818
G1 X10.225 Y-10.153 E6.45900
G1 X9.700 Y-9.700 F4800.000
G1 X9.700 Y9.700 E7.75502 F294.000
G1 X-9.700 Y9.700 E9.05105
G1 X-9.700 Y-9.700 E10.34707
G1 X9.640 Y-9.700 E11.63909
G1 X9.500 Y-9.354 F4800.000
G1 X9.164 Y-9.164 F4800.000
G1 X9.164 Y9.164 E12.86355 F840.000
G1 X-9.164 Y9.164 E14.08801
G1 X-9.164 Y-9.164 E15.31247
G1 X9.104 Y-9.164 E16.53292
G1 X7.300 Y-7.300 F4800.000
G1 X7.300 Y7.300 E17.50828 F294.000
G1 X-7.300 Y7.300 E18.48364
G1 X-7.300 Y-7.300 E19.45900
G1 X7.240 Y-7.300 E20.43035
G1 X7.700 Y-7.300 F4800.000
G1 X7.836 Y-7.836 F4800.000
G1 X7.836 Y7.836 E21.47727 F840.000
G1 X-7.836 Y7.836 E22.52420
G1 X-7.836 Y-7.836 E23.57112
G1 X7.776 Y-7.836 E24.61404
G1 X8.432 Y-8.432 F4800.000
G1 X8.500 Y-8.103 E24.66156 F360.000
G1 X8.500 Y8.103 E26.95711
G1 X8.432 Y8.432 E27.00463
G1 X8.103 Y8.500 E27.05215
G1 X-8.103 Y8.500 E29.34770
G1 X-8.432 Y8.432 E29.39522
G1 X-8.500 Y8.103 E29.44274
G1 X-8.500 Y-8.103 E31.73829
G1 X-8.432 Y-8.432 E31.78581
G1 X-8.103 Y-8.500 E31.83333
G1 X8.103 Y-8.500 E34.12888
G1 X8.373 Y-8.444 E34.16791
M106 S255
M104 S190 ; set temperature
M140 S60 ; wait for bed temperature to be reached
G1 F3840
G1 X8.500 Y-8.103 E33.95206
G1 F3840
G1 X8.500 Y-5.267 E32.26791
G1 E32.16791 F2400.00000
G92 E0
G1 Z0.500 F4800.000
G1 X7.693 Y-7.693 F4800.000
G1 E1.00000 F2400.00000
G1 X7.693 Y7.693 E1.80381 F2100.000
G1 X-7.693 Y7.693 E2.60762
G1 X-7.693 Y-7.693 E3.41143
G1 X7.633 Y-7.693 E4.21210
G1 X7.200 Y-7.200 F4800.000
G1 X7.200 Y7.200 E4.63965 F735.000
G1 X-7.200 Y7.200 E5.06721
G1 X-7.200 Y-7.200 E5.49476
G1 X7.140 Y-7.200 E5.92054
G1 X7.600 Y-7.200 F4800.000
G1 X9.307 Y-9.307 F4800.000
G1 X9.307 Y9.307 E6.89305 F2100.000
G1 X-9.307 Y9.307 E7.86557
G1 X-9.307 Y-9.307 E8.83809
G1 X9.247 Y-9.307 E9.80747
G1 X9.800 Y-9.800 F4800.000
G1 X9.800 Y9.800 E10.38942 F735.000
G1 X-9.800 Y9.800 E10.97137
G1 X-9.800 Y-9.800 E11.55332
G1 X9.740 Y-9.800 E12.13349
G1 X9.600 Y-9.454 F4800.000
G1 X8.415 Y-8.415 F4800.000
G1 X8.500 Y-8.007 E12.17857 F900.000
G1 X8.500 Y8.007 E13.90899
G1 X8.415 Y8.415 E13.95407
G1 X8.007 Y8.500 E13.99915
G1 X-8.007 Y8.500 E15.72957
G1 X-8.415 Y8.415 E15.77465
G1 X-8.500 Y8.007 E15.81974
G1 X-8.500 Y-8.007 E17.55015
G1 X-8.415 Y-8.415 E17.59524
G1 X-8.007 Y-8.500 E17.64032
G1 X8.007 Y-8.500 E19.37074
G1 X8.357 Y-8.428 E19.40934
G1 F3840
G1 X8.500 Y-8.007 E19.14544
G1 F3840
G1 X8.500 Y-5.251 E17.50934
G1 E17.40934 F2400.00000
G92 E0
G1 Z0.700 F4800.000
G1 X7.693 Y-7.693 F4800.000
G1 E1.00000 F2400.00000
G1 X7.693 Y7.693 E1.80381 F2100.000
G1 X-7.693 Y7.693 E2.60762
G1 X-7.693 Y-7.693 E3.41143
G1 X7.633 Y-7.693 E4.21210
G1 X7.200 Y-7.200 F4800.000
G1 X7.200 Y7.200 E4.63965 F735.000
G1 X-7.200 Y7.200 E5.06721
G1 X-7.200 Y-7.200 E5.49476
G1 X7.140 Y-7.200 E5.92054
G1 X7.600 Y-7.200 F4800.000
G1 X9.307 Y-9.307 F4800.000
G1 X9.307 Y9.307 E6.89305 F2100.000
G1 X-9.307 Y9.307 E7.86557
G1 X-9.307 Y-9.307 E8.83809
G1 X9.247 Y-9.307 E9.80747
G1 X9.800 Y-9.800 F4800.000
G1 X9.800 Y9.800 E10.38942 F735.000
G1 X-9.800 Y9.800 E10.97137
G1 X-9.800 Y-9.800 E11.55332
G1 X9.740 Y-9.800 E12.13349
G1 X9.600 Y-9.454 F4800.000
G1 X8.415 Y-8.415 F4800.000
G1 X8.500 Y-8.007 E12.17857 F900.000
G1 X8.500 Y8.007 E13.90899
G1 X8.415 Y8.415 E13.95407
G1 X8.007 Y8.500 E13.99915
G1 X-8.007 Y8.500 E15.72957
G1 X-8.415 Y8.415 E15.77465
G1 X-8.500 Y8.007 E15.81974
G1 X-8.500 Y-8.007 E17.55015
G1 X-8.415 Y-8.415 E17.59524
G1 X-8.007 Y-8.500 E17.64032
G1 X8.007 Y-8.500 E19.37074
G1 X8.357 Y-8.428 E19.40934
G1 F3840
G1 X8.500 Y-8.007 E19.14544
G1 F3840
G1 X8.500 Y-5.251 E17.50934
G1 E17.40934 F2400.00000
G92 E0
G1 Z0.900 F4800.000
G1 X7.693 Y-7.693 F4800.000
G1 E1.00000 F2400.00000
G1 X7.693 Y7.693 E1.80381 F2100.000
G1 X-7.693 Y7.693 E2.60762
G1 X-7.693 Y-7.693 E3.41143
G1 X7.633 Y-7.693 E4.21210
G1 X7.200 Y-7.200 F4800.000
G1 X7.200 Y7.200 E4.63965 F735.000
G1 X-7.200 Y7.200 E5.06721
G1 X-7.200 Y-7.200 E5.49476
G1 X7.140 Y-7.200 E5.92054
G1 X7.600 Y-7.200 F4800.000
G1 X9.307 Y-9.307 F4800.000
G1 X9.307 Y9.307 E6.89305 F2100.000
G1 X-9.307 Y9.307 E7.86557
G1 X-9.307 Y-9.307 E8.83809
G1 X9.247 Y-9.307 E9.80747
G1 X9.800 Y-9.800 F4800.000
G1 X9.800 Y9.800 E10.38942 F735.000
G1 X-9.800 Y9.800 E10.97137
G1 X-9.800 Y-9.800 E11.55332
G1 X9.740 Y-9.800 E12.13349
G1 X9.600 Y-9.454 F4800.000
G1 X8.415 Y-8.415 F4800.000
G1 X8.500 Y-8.007 E12.17857 F900.000
G1 X8.500 Y8.007 E13.90899
G1 X8.415 Y8.415 E13.95407
G1 X8.007 Y8.500 E13.99915
G1 X-8.007 Y8.500 E15.72957
G1 X-8.415 Y8.415 E15.77465
G1 X-8.500 Y8.007 E15.81974
G1 X-8.500 Y-8.007 E17.55015
G1 X-8.415 Y-8.415 E17.59524
G1 X-8.007 Y-8.500 E17.64032
G1 X8.007 Y-8.500 E19.37074
G1 X8.357 Y-8.428 E19.40934
G1 F3840
G1 X8.500 Y-8.007 E19.14544
G1 F3840
G1 X8.500 Y-5.251 E17.50934
G1 E17.40934 F2400.00000
G92 E0
G1 Z1.100 F4800.000
G1 X7.693 Y-7.693 F4800.000
G1 E1.00000 F2400.00000
G1 X7.693 Y7.693 E1.80381 F2100.000
G1 X-7.693 Y7.693 E2.60762
G1 X-7.693 Y-7.693 E3.41143
G1 X7.633 Y-7.693 E4.21210
G1 X7.200 Y-7.200 F4800.000
G1 X7.200 Y7.200 E4.63965 F735.000
G1 X-7.200 Y7.200 E5.06721
G1 X-7.200 Y-7.200 E5.49476
G1 X7.140 Y-7.200 E5.92054
G1 X7.600 Y-7.200 F4800.000
G1 X9.307 Y-9.307 F4800.000
G1 X9.307 Y9.307 E6.89305 F2100.000
G1 X-9.307 Y9.307 E7.86557
G1 X-9.307 Y-9.307 E8.83809
G1 X9.247 Y-9.307 E9.80747
G1 X9.800 Y-9.800 F4800.000
G1 X9.800 Y9.800 E10.38942 F735.000
G1 X-9.800 Y9.800 E10.97137
G1 X-9.800 Y-9.800 E11.55332
G1 X9.740 Y-9.800 E12.13349
G1 X9.600 Y-9.454 F4800.000
G1 X8.415 Y-8.415 F4800.000
G1 X8.500 Y-8.007 E12.17857 F900.000
G1 X8.500 Y8.007 E13.90899
G1 X8.415 Y8.415 E13.95407
G1 X8.007 Y8.500 E13.99915
G1 X-8.007 Y8.500 E15.72957
G1 X-8.415 Y8.415 E15.77465
G1 X-8.500 Y8.007 E15.81974
G1 X-8.500 Y-8.007 E17.55015
G1 X-8.415 Y-8.415 E17.59524
G1 X-8.007 Y-8.500 E17.64032
G1 X8.007 Y-8.500 E19.37074
G1 X8.357 Y-8.428 E19.40934
G1 F3840
G1 X8.500 Y-8.007 E19.14544
G1 F3840
G1 X8.500 Y-5.251 E17.50934
G1 E17.40934 F2400.00000
G92 E0
G1 Z1.300 F4800.000
G1 X7.693 Y-7.693 F4800.000
G1 E1.00000 F2400.00000
G1 X7.693 Y7.693 E1.80381 F2100.000
G1 X-7.693 Y7.693 E2.60762
G1 X-7.693 Y-7.693 E3.41143
G1 X7.633 Y-7.693 E4.21210
G1 X7.200 Y-7.200 F4800.000
G1 X7.200 Y7.200 E4.63965 F735.000
G1 X-7.200 Y7.200 E5.06721
G1 X-7.200 Y-7.200 E5.49476
G1 X7.140 Y-7.200 E5.92054
G1 X7.600 Y-7.200 F4800.000
G1 X9.307 Y-9.307 F4800.000
G1 X9.307 Y9.307 E6.89305 F2100.000
G1 X-9.307 Y9.307 E7.86557
G1 X-9.307 Y-9.307 E8.83809
G1 X9.247 Y-9.307 E9.80747
G1 X9.800 Y-9.800 F4800.000
G1 X9.800 Y9.800 E10.38942 F735.000
G1 X-9.800 Y9.800 E10.97137
G1 X-9.800 Y-9.800 E11.55332
G1 X9.740 Y-9.800 E12.13349
G1 X9.600 Y-9.454 F4800.000
G1 X8.415 Y-8.415 F4800.000
G1 X8.500 Y-8.007 E12.17857 F900.000
G1 X8.500 Y8.007 E13.90899
G1 X8.415 Y8.415 E13.95407
G1 X8.007 Y8.500 E13.99915
G1 X-8.007 Y8.500 E15.72957
G1 X-8.415 Y8.415 E15.77465
G1 X-8.500 Y8.007 E15.81974
G1 X-8.500 Y-8.007 E17.55015
G1 X-8.415 Y-8.415 E17.59524
G1 X-8.007 Y-8.500 E17.64032
G1 X8.007 Y-8.500 E19.37074
G1 X8.357 Y-8.428 E19.40934
G1 F3840
G1 X8.500 Y-8.007 E19.14544
G1 F3840
G1 X8.500 Y-5.251 E17.50934
G1 E17.40934 F2400.00000
G92 E0
G1 Z1.500 F4800.000
G1 X7.693 Y-7.693 F4800.000
G1 E1.00000 F2400.00000
G1 X7.693 Y7.693 E1.80381 F2100.000
G1 X-7.693 Y7.693 E2.60762
G1 X-7.693 Y-7.693 E3.41143
G1 X7.633 Y-7.693 E4.21210
G1 X7.200 Y-7.200 F4800.000
G1 X7.200 Y7.200 E4.63965 F735.000
G1 X-7.200 Y7.200 E5.06721
G1 X-7.200 Y-7.200 E5.49476
G1 X7.140 Y-7.200 E5.92054
G1 X7.600 Y-7.200 F4800.000
G1 X9.307 Y-9.307 F4800.000
G1 X9.307 Y9.307 E6.89305 F2100.000
G1 X-9.307 Y9.307 E7.86557
G1 X-9.307 Y-9.307 E8.83809
G1 X9.247 Y-9.307 E9.80747
G1 X9.800 Y-9.800 F4800.000
G1 X9.800 Y9.800 E10.38942 F735.000
G1 X-9.800 Y9.800 E10.97137
G1 X-9.800 Y-9.800 E11.55332
G1 X9.740 Y-9.800 E12.13349
G1 X9.600 Y-9.454 F4800.000
G1 X8.415 Y-8.415 F4800.000
G1 X8.500 Y-8.007 E12.17857 F900.000
G1 X8.500 Y8.007 E13.90899
G1 X8.415 Y8.415 E13.95407
G1 X8.007 Y8.500 E13.99915
G1 X-8.007 Y8.500 E15.72957
G1 X-8.415 Y8.415 E15.77465
G1 X-8.500 Y8.007 E15.81974
G1 X-8.500 Y-8.007 E17.55015
G1 X-8.415 Y-8.415 E17.59524
G1 X-8.007 Y-8.500 E17.64032
G1 X8.007 Y-8.500 E19.37074
G1 X8.357 Y-8.428 E19.40934
G1 F3840
G1 X8.500 Y-8.007 E19.14544
G1 F3840
G1 X8.500 Y-5.251 E17.50934
G1 E17.40934 F2400.00000
G92 E0
G1 Z1.700 F4800.000
G1 X7.693 Y-7.693 F4800.000
G1 E1.00000 F2400.00000
G1 X7.693 Y7.693 E1.80381 F2100.000
G1 X-7.693 Y7.693 E2.60762
G1 X-7.693 Y-7.693 E3.41143
G1 X7.633 Y-7.693 E4.21210
G1 X7.200 Y-7.200 F4800.000
G1 X7.200 Y7.200 E4.63965 F735.000
G1 X-7.200 Y7.200 E5.06721
G1 X-7.200 Y-7.200 E5.49476
G1 X7.140 Y-7.200 E5.92054
G1 X7.600 Y-7.200 F4800.000
G1 X9.307 Y-9.307 F4800.000
G1 X9.307 Y9.307 E6.89305 F2100.000
G1 X-9.307 Y9.307 E7.86557
G1 X-9.307 Y-9.307 E8.83809
G1 X9.247 Y-9.307 E9.80747
G1 X9.800 Y-9.800 F4800.000
G1 X9.800 Y9.800 E10.38942 F735.000
G1 X-9.800 Y9.800 E10.97137
G1 X-9.800 Y-9.800 E11.55332
G1 X9.740 Y-9.800 E12.13349
G1 X9.600 Y-9.454 F4800.000
G1 X8.415 Y-8.415 F4800.000
G1 X8.500 Y-8.007 E12.17857 F900.000
G1 X8.500 Y8.007 E13.90899
G1 X8.415 Y8.415 E13.95407
G1 X8.007 Y8.500 E13.99915
G1 X-8.007 Y8.500 E15.72957
G1 X-8.415 Y8.415 E15.77465
G1 X-8.500 Y8.007 E15.81974
G1 X-8.500 Y-8.007 E17.55015
G1 X-8.415 Y-8.415 E17.59524
G1 X-8.007 Y-8.500 E17.64032
G1 X8.007 Y-8.500 E19.37074
G1 X8.357 Y-8.428 E19.40934
G1 F3840
G1 X8.500 Y-8.007 E19.14544
G1 F3840
G1 X8.500 Y-5.251 E17.50934
G1 E17.40934 F2400.00000
G92 E0
G1 Z1.900 F4800.000
G1 X7.693 Y-7.693 F4800.000
G1 E1.00000 F2400.00000
G1 X7.693 Y7.693 E1.80381 F2100.000
G1 X-7.693 Y7.693 E2.60762
G1 X-7.693 Y-7.693 E3.41143
G1 X7.633 Y-7.693 E4.21210
G1 X7.200 Y-7.200 F4800.000
G1 X7.200 Y7.200 E4.63965 F735.000
G1 X-7.200 Y7.200 E5.06721
G1 X-7.200 Y-7.200 E5.49476
G1 X7.140 Y-7.200 E5.92054
G1 X7.600 Y-7.200 F4800.000
G1 X9.307 Y-9.307 F4800.000
G1 X9.307 Y9.307 E6.89305 F2100.000
G1 X-9.307 Y9.307 E7.86557
G1 X-9.307 Y-9.307 E8.83809
G1 X9.247 Y-9.307 E9.80747
G1 X9.800 Y-9.800 F4800.000
G1 X9.800 Y9.800 E10.38942 F735.000
G1 X-9.800 Y9.800 E10.97137
G1 X-9.800 Y-9.800 E11.55332
G1 X9.740 Y-9.800 E12.13349
G1 X9.600 Y-9.454 F4800.000
G1 X8.415 Y-8.415 F4800.000
G1 X8.500 Y-8.007 E12.17857 F900.000
G1 X8.500 Y8.007 E13.90899
G1 X8.415 Y8.415 E13.95407
G1 X8.007 Y8.500 E13.99915
G1 X-8.007 Y8.500 E15.72957
G1 X-8.415 Y8.415 E15.77465
G1 X-8.500 Y8.007 E15.81974
G1 X-8.500 Y-8.007 E17.55015
G1 X-8.415 Y-8.415 E17.59524
G1 X-8.007 Y-8.500 E17.64032
G1 X8.007 Y-8.500 E19.37074
G1 X8.357 Y-8.428 E19.40934
G1 F3840
G1 X8.500 Y-8.007 E19.14544
G1 F3840
G1 X8.500 Y-5.251 E17.50934
G1 E17.40934 F2400.00000
G92 E0
G1 Z2.100 F4800.000
G1 X7.693 Y-7.693 F4800.000
G1 E1.00000 F2400.00000
G1 X7.693 Y7.693 E1.80381 F2100.000
G1 X-7.693 Y7.693 E2.60762
G1 X-7.693 Y-7.693 E3.41143
G1 X7.633 Y-7.693 E4.21210
G1 X7.200 Y-7.200 F4800.000
G1 X7.200 Y7.200 E4.63965 F735.000
G1 X-7.200 Y7.200 E5.06721
G1 X-7.200 Y-7.200 E5.49476
G1 X7.140 Y-7.200 E5.92054
G1 X7.600 Y-7.200 F4800.000
G1 X9.307 Y-9.307 F4800.000
G1 X9.307 Y9.307 E6.89305 F2100.000
G1 X-9.307 Y9.307 E7.86557
G1 X-9.307 Y-9.307 E8.83809
G1 X9.247 Y-9.307 E9.80747
G1 X9.800 Y-9.800 F4800.000
G1 X9.800 Y9.800 E10.38942 F735.000
G1 X-9.800 Y9.800 E10.97137
G1 X-9.800 Y-9.800 E11.55332
G1 X9.740 Y-9.800 E12.13349
G1 X9.600 Y-9.454 F4800.000
G1 X8.415 Y-8.415 F4800.000
G1 X8.500 Y-8.007 E12.17857 F900.000
G1 X8.500 Y8.007 E13.90899
G1 X8.415 Y8.415 E13.95407
G1 X8.007 Y8.500 E13.99915
G1 X-8.007 Y8.500 E15.72957
G1 X-8.415 Y8.415 E15.77465
G1 X-8.500 Y8.007 E15.81974
G1 X-8.500 Y-8.007 E17.55015
G1 X-8.415 Y-8.415 E17.59524
G1 X-8.007 Y-8.500 E17.64032
G1 X8.007 Y-8.500 E19.37074
G1 X8.357 Y-8.428 E19.40934
G1 F3840
G1 X8.500 Y-8.007 E19.14544
G1 F3840
G1 X8.500 Y-5.251 E17.50934
G1 E17.40934 F2400.00000
G92 E0
G1 Z2.300 F4800.000
G1 X7.693 Y-7.693 F4800.000
G1 E1.00000 F2400.00000
G1 X7.693 Y7.693 E1.80381 F2100.000
G1 X-7.693 Y7.693 E2.60762
G1 X-7.693 Y-7.693 E3.41143
G1 X7.633 Y-7.693 E4.21210
G1 X7.200 Y-7.200 F4800.000
G1 X7.200 Y7.200 E4.63965 F735.000
G1 X-7.200 Y7.200 E5.06721
G1 X-7.200 Y-7.200 E5.49476
G1 X7.140 Y-7.200 E5.92054
G1 X7.600 Y-7.200 F4800.000
G1 X9.307 Y-9.307 F4800.000
G1 X9.307 Y9.307 E6.89305 F2100.000
G1 X-9.307 Y9.307 E7.86557
G1 X-9.307 Y-9.307 E8.83809
G1 X9.247 Y-9.307 E9.80747
G1 X9.800 Y-9.800 F4800.000
G1 X9.800 Y9.800 E10.38942 F735.000
G1 X-9.800 Y9.800 E10.97137
G1 X-9.800 Y-9.800 E11.55332
G1 X9.740 Y-9.800 E12.13349
G1 X9.600 Y-9.454 F4800.000
G1 X8.415 Y-8.415 F4800.000
