; generated by Slic3r 1.2.9 on 2022-03-22 at 15:39:58

; external perimeters extrusion width = 0.40mm
; perimeters extrusion width = 0.67mm
; infill extrusion width = 0.67mm
; solid infill extrusion width = 0.67mm
; top infill extrusion width = 0.67mm

M190 S65 ; set bed temperature
M104 S190 ; set temperature
G28 ; home all axes
G1 X0.000 Y70.000 Z0.300 F4800.000
G1 X40.000 Y50.000 E10.000 F1080.000
G1 Z5 F5000 ; lift nozzle

M109 S190 ; wait for temperature to be reached
G21 ; set units to millimeters
G90 ; use absolute coordinates
M82 ; use absolute distances for extrusion
G92 E0
G1 Z0.300 F4800.000
G1 E-2.00000 F2400.00000
G92 E0
G1 X21.071 Y0.000 F4800.000
G1 E0.80000 F2400.00000
G1 X21.071 Y10.000 E1.46805 F1080.000
G1 X20.673 Y12.943 E1.66642
G1 X19.507 Y15.673 E1.86479
G1 X17.657 Y17.996 E2.06316
G1 X15.257 Y19.744 E2.26153
G1 X12.478 Y20.790 E2.45989
G1 X10.000 Y21.071 E2.62649
G1 X-10.000 Y21.071 E3.96260
G1 X-12.943 Y20.673 E4.16097
G1 X-15.673 Y19.507 E4.35934
G1 X-17.996 Y17.657 E4.55771
G1 X-19.744 Y15.257 E4.75607
G1 X-20.790 Y12.478 E4.95444
G1 X-21.071 Y10.000 E5.12104
G1 X-21.071 Y-10.000 E6.45715
G1 X-20.673 Y-12.943 E6.65552
G1 X-19.507 Y-15.673 E6.85388
G1 X-17.657 Y-17.996 E7.05225
G1 X-15.257 Y-19.744 E7.25062
G1 X-12.478 Y-20.790 E7.44899
G1 X-10.000 Y-21.071 E7.61559
G1 X10.000 Y-21.071 E8.95170
G1 X12.943 Y-20.673 E9.15006
G1 X15.673 Y-19.507 E9.34843 F1080.000
G1 X17.996 Y-17.657 E9.54680
G1 X19.744 Y-15.257 E9.74517
G1 X20.790 Y-12.478 E9.94354
G1 X21.071 Y-10.000 E10.11013
G1 X21.071 Y-0.060 E10.77418
G1 X20.536 Y0.000 F4800.000
G1 X20.536 Y10.000 E11.44223 F1080.000
G1 X20.138 Y12.869 E11.63572
G1 X18.973 Y15.521 E11.82921
G1 X17.131 Y17.756 E12.02270
G1 X14.750 Y19.404 E12.21619
G1 X12.009 Y20.342 E12.40967
G1 X10.000 Y20.536 E12.54454
G1 X-10.000 Y20.536 E13.88065
G1 X-12.869 Y20.138 E14.07413
G1 X-15.521 Y18.973 E14.26762
G1 X-17.756 Y17.131 E14.46111
G1 X-19.404 Y14.750 E14.65460
G1 X-20.342 Y12.009 E14.84809
G1 X-20.536 Y10.000 E14.98295
G1 X-20.536 Y-10.000 E16.31906
G1 X-20.138 Y-12.869 E16.51255
G1 X-18.973 Y-15.521 E16.70603
G1 X-17.131 Y-17.756 E16.89952
G1 X-14.750 Y-19.404 E17.09301
G1 X-12.009 Y-20.342 E17.28650
G1 X-10.000 Y-20.536 E17.42136
G1 X10.000 Y-20.536 E18.75747
G1 X12.869 Y-20.138 E18.95096
G1 X15.521 Y-18.973 E19.14445 F1080.000
G1 X17.756 Y-17.131 E19.33793
G1 X19.404 Y-14.750 E19.53142
G1 X20.342 Y-12.009 E19.72491
G1 X20.536 Y-10.000 E19.85978
G1 X20.536 Y-0.060 E20.52382
G1 F3840
G1 X20.536 Y3.140 E18.62382
G1 E18.52382 F2400.00000
G92 E0
G1 X11.339 Y0.000 F4800.000
G1 E0.80000 F2400.00000
G1 X11.339 Y10.555 E1.50511 F1080.000
G1 X10.555 Y11.339 E1.57922
G1 X-10.555 Y11.339 E2.98943
G1 X-11.339 Y10.555 E3.06354
G1 X-11.339 Y-10.555 E4.47375
G1 X-10.555 Y-11.339 E4.54786
G1 X10.555 Y-11.339 E5.95808
G1 X11.339 Y-10.555 E6.03218
G1 X11.339 Y-0.060 E6.73328 F1080.000
G1 X10.803 Y0.000 F4800.000
G1 X10.803 Y10.333 E7.42357 F1080.000
G1 X10.333 Y10.803 E7.46803
G1 X-10.333 Y10.803 E8.84861
G1 X-10.803 Y10.333 E8.89307
G1 X-10.803 Y-10.333 E10.27364
G1 X-10.333 Y-10.803 E10.31811
G1 X10.333 Y-10.803 E11.69868
G1 X10.803 Y-10.333 E11.74315 F1080.000
G1 X10.803 Y-0.060 E12.42942
G1 F3840
G1 X10.803 Y3.140 E10.52942
G1 E10.42942 F2400.00000
G92 E0
G1 X10.268 Y-10.111 F4800.000
G1 E0.80000 F2400.00000
G1 X10.268 Y10.111 E2.15093 F1080.000
G1 X10.111 Y10.268 E2.16575
G1 X-10.111 Y10.268 E3.51668
G1 X-10.268 Y10.111 E3.53150
G1 X-10.268 Y-10.111 E4.88243
G1 X-10.111 Y-10.268 E4.89725
G1 X10.111 Y-10.268 E6.24818
G1 X10.225 Y-10.153 E6.25900
G1 X9.700 Y-9.700 F4800.000
G1 X9.700 Y9.700 E7.55502 F150.000
G1 X-9.700 Y9.700 E8.85105
G1 X-9.700 Y-9.700 E10.14707
G1 X9.640 Y-9.700 E11.43909
G1 X9.500 Y-9.354 F4800.000
G1 X9.164 Y-9.164 F4800.000
G1 X9.164 Y9.164 E12.66355 F600.000
G1 X-9.164 Y9.164 E13.88801
G1 X-9.164 Y-9.164 E15.11247
G1 X9.104 Y-9.164 E16.33292
G1 X7.300 Y-7.300 F4800.000
G1 X7.300 Y7.300 E17.30828 F150.000
G1 X-7.300 Y7.300 E18.28364
G1 X-7.300 Y-7.300 E19.25900
G1 X7.240 Y-7.300 E20.23035
G1 X7.700 Y-7.300 F4800.000
G1 X7.836 Y-7.836 F4800.000
G1 X7.836 Y7.836 E21.27727 F600.000
G1 X-7.836 Y7.836 E22.32420
G1 X-7.836 Y-7.836 E23.37112
G1 X7.776 Y-7.836 E24.41404
G1 X8.432 Y-8.432 F4800.000
G1 X8.500 Y-8.103 E24.46156 F360.000
G1 X8.500 Y8.103 E26.75711
G1 X8.432 Y8.432 E26.80463
G1 X8.103 Y8.500 E26.85215
G1 X-8.103 Y8.500 E29.14770
G1 X-8.432 Y8.432 E29.19522
G1 X-8.500 Y8.103 E29.24274
G1 X-8.500 Y-8.103 E31.53829
G1 X-8.432 Y-8.432 E31.58581
G1 X-8.103 Y-8.500 E31.63333
G1 X8.103 Y-8.500 E33.92888
G1 X8.373 Y-8.444 E33.96791
M106 S255
M104 S185 ; set temperature
M140 S50 ; wait for bed temperature to be reached
G1 Z0.500 F4800.000
G1 X7.693 Y-7.693 F4800.000
G1 X7.693 Y7.693 E34.77172 F1500.000
G1 X-7.693 Y7.693 E35.57552
G1 X-7.693 Y-7.693 E36.37933
G1 X7.633 Y-7.693 E37.18001
G1 X7.200 Y-7.200 F4800.000
G1 X7.200 Y7.200 E37.60756 F375.000
G1 X-7.200 Y7.200 E38.03512
G1 X-7.200 Y-7.200 E38.46267
G1 X7.140 Y-7.200 E38.88844
G1 X7.600 Y-7.200 F4800.000
G1 X9.307 Y-9.307 F4800.000
G1 X9.307 Y9.307 E39.86096 F1500.000
G1 X-9.307 Y9.307 E40.83348
G1 X-9.307 Y-9.307 E41.80600
G1 X9.247 Y-9.307 E42.77538
G1 X9.800 Y-9.800 F4800.000
G1 X9.800 Y9.800 E43.35733 F375.000
G1 X-9.800 Y9.800 E43.93928
G1 X-9.800 Y-9.800 E44.52123
G1 X9.740 Y-9.800 E45.10140
G1 X9.600 Y-9.454 F4800.000
G1 X8.415 Y-8.415 F4800.000
G1 X8.500 Y-8.007 E45.14648 F900.000
G1 X8.500 Y8.007 E46.87690
G1 X8.415 Y8.415 E46.92198
G1 X8.007 Y8.500 E46.96706
G1 X-8.007 Y8.500 E48.69748
G1 X-8.415 Y8.415 E48.74256
G1 X-8.500 Y8.007 E48.78764
G1 X-8.500 Y-8.007 E50.51806
G1 X-8.415 Y-8.415 E50.56314
G1 X-8.007 Y-8.500 E50.60823
G1 X8.007 Y-8.500 E52.33864
G1 X8.357 Y-8.428 E52.37724
G1 Z0.700 F4800.000
G1 X7.693 Y-7.693 F4800.000
G1 X7.693 Y7.693 E53.18105 F1500.000
G1 X-7.693 Y7.693 E53.98486
G1 X-7.693 Y-7.693 E54.78867
G1 X7.633 Y-7.693 E55.58934
G1 X7.200 Y-7.200 F4800.000
G1 X7.200 Y7.200 E56.01690 F375.000
G1 X-7.200 Y7.200 E56.44445
G1 X-7.200 Y-7.200 E56.87201
G1 X7.140 Y-7.200 E57.29778
G1 X7.600 Y-7.200 F4800.000
G1 X9.307 Y-9.307 F4800.000
G1 X9.307 Y9.307 E58.27030 F1500.000
G1 X-9.307 Y9.307 E59.24282
G1 X-9.307 Y-9.307 E60.21533
G1 X9.247 Y-9.307 E61.18472
G1 X9.800 Y-9.800 F4800.000
G1 X9.800 Y9.800 E61.76667 F375.000
G1 X-9.800 Y9.800 E62.34862
G1 X-9.800 Y-9.800 E62.93056
G1 X9.740 Y-9.800 E63.51073
G1 X9.600 Y-9.454 F4800.000
G1 X8.415 Y-8.415 F4800.000
G1 X8.500 Y-8.007 E63.55581 F900.000
G1 X8.500 Y8.007 E65.28623
G1 X8.415 Y8.415 E65.33131
G1 X8.007 Y8.500 E65.37640
G1 X-8.007 Y8.500 E67.10682
G1 X-8.415 Y8.415 E67.15190
G1 X-8.500 Y8.007 E67.19698
G1 X-8.500 Y-8.007 E68.92740
G1 X-8.415 Y-8.415 E68.97248
G1 X-8.007 Y-8.500 E69.01756
G1 X8.007 Y-8.500 E70.74798
G1 X8.357 Y-8.428 E70.78658
G1 Z0.900 F4800.000
G1 X7.693 Y-7.693 F4800.000
G1 X7.693 Y7.693 E71.59039 F1500.000
G1 X-7.693 Y7.693 E72.39420
G1 X-7.693 Y-7.693 E73.19800
G1 X7.633 Y-7.693 E73.99868
G1 X7.200 Y-7.200 F4800.000
G1 X7.200 Y7.200 E74.42623 F375.000
G1 X-7.200 Y7.200 E74.85379
G1 X-7.200 Y-7.200 E75.28134
G1 X7.140 Y-7.200 E75.70712
G1 X7.600 Y-7.200 F4800.000
G1 X9.307 Y-9.307 F4800.000
G1 X9.307 Y9.307 E76.67963 F1500.000
G1 X-9.307 Y9.307 E77.65215
G1 X-9.307 Y-9.307 E78.62467
G1 X9.247 Y-9.307 E79.59405
G1 X9.800 Y-9.800 F4800.000
G1 X9.800 Y9.800 E80.17600 F375.000
G1 X-9.800 Y9.800 E80.75795
G1 X-9.800 Y-9.800 E81.33990
G1 X9.740 Y-9.800 E81.92007
G1 X9.600 Y-9.454 F4800.000
G1 X8.415 Y-8.415 F4800.000
G1 X8.500 Y-8.007 E81.96515 F900.000
G1 X8.500 Y8.007 E83.69557
G1 X8.415 Y8.415 E83.74065
G1 X8.007 Y8.500 E83.78573
G1 X-8.007 Y8.500 E85.51615
G1 X-8.415 Y8.415 E85.56123
G1 X-8.500 Y8.007 E85.60632
G1 X-8.500 Y-8.007 E87.33673
G1 X-8.415 Y-8.415 E87.38182
G1 X-8.007 Y-8.500 E87.42690
G1 X8.007 Y-8.500 E89.15732
G1 X8.357 Y-8.428 E89.19591
G1 Z1.100 F4800.000
G1 X7.693 Y-7.693 F4800.000
G1 X7.693 Y7.693 E89.99972 F1500.000
G1 X-7.693 Y7.693 E90.80353
G1 X-7.693 Y-7.693 E91.60734
G1 X7.633 Y-7.693 E92.40801
G1 X7.200 Y-7.200 F4800.000
G1 X7.200 Y7.200 E92.83557 F375.000
G1 X-7.200 Y7.200 E93.26312
G1 X-7.200 Y-7.200 E93.69068
G1 X7.140 Y-7.200 E94.11645
G1 X7.600 Y-7.200 F4800.000
G1 X9.307 Y-9.307 F4800.000
G1 X9.307 Y9.307 E95.08897 F1500.000
G1 X-9.307 Y9.307 E96.06149
G1 X-9.307 Y-9.307 E97.03401
G1 X9.247 Y-9.307 E98.00339
G1 X9.800 Y-9.800 F4800.000
G1 X9.800 Y9.800 E98.58534 F375.000
G1 X-9.800 Y9.800 E99.16729
G1 X-9.800 Y-9.800 E99.74924
G1 X9.740 Y-9.800 E100.32940
G1 X9.600 Y-9.454 F4800.000
G1 X8.415 Y-8.415 F4800.000
G1 X8.500 Y-8.007 E100.37449 F900.000
G1 X8.500 Y8.007 E102.10490
G1 X8.415 Y8.415 E102.14999
G1 X8.007 Y8.500 E102.19507
G1 X-8.007 Y8.500 E103.92549
G1 X-8.415 Y8.415 E103.97057
G1 X-8.500 Y8.007 E104.01565
G1 X-8.500 Y-8.007 E105.74607
G1 X-8.415 Y-8.415 E105.79115
G1 X-8.007 Y-8.500 E105.83623
G1 X8.007 Y-8.500 E107.56665
G1 X8.357 Y-8.428 E107.60525
G1 Z1.300 F4800.000
G1 X7.693 Y-7.693 F4800.000
G1 X7.693 Y7.693 E108.40906 F1500.000
G1 X-7.693 Y7.693 E109.21287
G1 X-7.693 Y-7.693 E110.01668
G1 X7.633 Y-7.693 E110.81735
G1 X7.200 Y-7.200 F4800.000
G1 X7.200 Y7.200 E111.24490 F375.000
G1 X-7.200 Y7.200 E111.67246
G1 X-7.200 Y-7.200 E112.10001
G1 X7.140 Y-7.200 E112.52579
G1 X7.600 Y-7.200 F4800.000
G1 X9.307 Y-9.307 F4800.000
G1 X9.307 Y9.307 E113.49831 F1500.000
G1 X-9.307 Y9.307 E114.47082
G1 X-9.307 Y-9.307 E115.44334
G1 X9.247 Y-9.307 E116.41272
G1 X9.800 Y-9.800 F4800.000
G1 X9.800 Y9.800 E116.99467 F375.000
G1 X-9.800 Y9.800 E117.57662
G1 X-9.800 Y-9.800 E118.15857
G1 X9.740 Y-9.800 E118.73874
G1 X9.600 Y-9.454 F4800.000
G1 X8.415 Y-8.415 F4800.000
G1 X8.500 Y-8.007 E118.78382 F900.000
G1 X8.500 Y8.007 E120.51424
G1 X8.415 Y8.415 E120.55932
G1 X8.007 Y8.500 E120.60440
G1 X-8.007 Y8.500 E122.33482
G1 X-8.415 Y8.415 E122.37991
G1 X-8.500 Y8.007 E122.42499
G1 X-8.500 Y-8.007 E124.15541
G1 X-8.415 Y-8.415 E124.20049
G1 X-8.007 Y-8.500 E124.24557
G1 X8.007 Y-8.500 E125.97599
G1 X8.357 Y-8.428 E126.01459
G1 Z1.500 F4800.000
G1 X7.693 Y-7.693 F4800.000
G1 X7.693 Y7.693 E126.81840 F1500.000
G1 X-7.693 Y7.693 E127.62220
G1 X-7.693 Y-7.693 E128.42601
G1 X7.633 Y-7.693 E129.22669
G1 X7.200 Y-7.200 F4800.000
G1 X7.200 Y7.200 E129.65424 F375.000
G1 X-7.200 Y7.200 E130.08180
G1 X-7.200 Y-7.200 E130.50935
G1 X7.140 Y-7.200 E130.93512
G1 X7.600 Y-7.200 F4800.000
G1 X9.307 Y-9.307 F4800.000
G1 X9.307 Y9.307 E131.90764 F1500.000
G1 X-9.307 Y9.307 E132.88016
G1 X-9.307 Y-9.307 E133.85268
G1 X9.247 Y-9.307 E134.82206
G1 X9.800 Y-9.800 F4800.000
G1 X9.800 Y9.800 E135.40401 F375.000
G1 X-9.800 Y9.800 E135.98596
G1 X-9.800 Y-9.800 E136.56791
G1 X9.740 Y-9.800 E137.14808
G1 X9.600 Y-9.454 F4800.000
G1 X8.415 Y-8.415 F4800.000
G1 X8.500 Y-8.007 E137.19316 F900.000
G1 X8.500 Y8.007 E138.92358
G1 X8.415 Y8.415 E138.96866
G1 X8.007 Y8.500 E139.01374
G1 X-8.007 Y8.500 E140.74416
G1 X-8.415 Y8.415 E140.78924
G1 X-8.500 Y8.007 E140.83432
G1 X-8.500 Y-8.007 E142.56474
G1 X-8.415 Y-8.415 E142.60982
G1 X-8.007 Y-8.500 E142.65491
G1 X8.007 Y-8.500 E144.38532
G1 X8.357 Y-8.428 E144.42392
G1 Z1.700 F4800.000
G1 X7.693 Y-7.693 F4800.000
G1 X7.693 Y7.693 E145.22773 F1500.000
G1 X-7.693 Y7.693 E146.03154
G1 X-7.693 Y-7.693 E146.83535
G1 X7.633 Y-7.693 E147.63602
G1 X7.200 Y-7.200 F4800.000
G1 X7.200 Y7.200 E148.06358 F375.000
G1 X-7.200 Y7.200 E148.49113
G1 X-7.200 Y-7.200 E148.91869
G1 X7.140 Y-7.200 E149.34446
G1 X7.600 Y-7.200 F4800.000
G1 X9.307 Y-9.307 F4800.000
G1 X9.307 Y9.307 E150.31698 F1500.000
G1 X-9.307 Y9.307 E151.28950
G1 X-9.307 Y-9.307 E152.26201
G1 X9.247 Y-9.307 E153.23140
G1 X9.800 Y-9.800 F4800.000
G1 X9.800 Y9.800 E153.81335 F375.000
G1 X-9.800 Y9.800 E154.39529
G1 X-9.800 Y-9.800 E154.97724
G1 X9.740 Y-9.800 E155.55741
G1 X9.600 Y-9.454 F4800.000
G1 X8.415 Y-8.415 F4800.000
G1 X8.500 Y-8.007 E155.60249 F900.000
G1 X8.500 Y8.007 E157.33291
G1 X8.415 Y8.415 E157.37799
G1 X8.007 Y8.500 E157.42308
G1 X-8.007 Y8.500 E159.15349
G1 X-8.415 Y8.415 E159.19858
G1 X-8.500 Y8.007 E159.24366
G1 X-8.500 Y-8.007 E160.97408
G1 X-8.415 Y-8.415 E161.01916
G1 X-8.007 Y-8.500 E161.06424
G1 X8.007 Y-8.500 E162.79466
G1 X8.357 Y-8.428 E162.83326
G1 Z1.900 F4800.000
G1 X7.693 Y-7.693 F4800.000
G1 X7.693 Y7.693 E163.63707 F1500.000
G1 X-7.693 Y7.693 E164.44088
G1 X-7.693 Y-7.693 E165.24468
G1 X7.633 Y-7.693 E166.04536
G1 X7.200 Y-7.200 F4800.000
G1 X7.200 Y7.200 E166.47291 F375.000
G1 X-7.200 Y7.200 E166.90047
G1 X-7.200 Y-7.200 E167.32802
G1 X7.140 Y-7.200 E167.75380
G1 X7.600 Y-7.200 F4800.000
G1 X9.307 Y-9.307 F4800.000
G1 X9.307 Y9.307 E168.72631 F1500.000
G1 X-9.307 Y9.307 E169.69883
G1 X-9.307 Y-9.307 E170.67135
G1 X9.247 Y-9.307 E171.64073
G1 X9.800 Y-9.800 F4800.000
G1 X9.800 Y9.800 E172.22268 F375.000
G1 X-9.800 Y9.800 E172.80463
G1 X-9.800 Y-9.800 E173.38658
G1 X9.740 Y-9.800 E173.96675
G1 X9.600 Y-9.454 F4800.000
G1 X8.415 Y-8.415 F4800.000
G1 X8.500 Y-8.007 E174.01183 F900.000
G1 X8.500 Y8.007 E175.74225
G1 X8.415 Y8.415 E175.78733
G1 X8.007 Y8.500 E175.83241
G1 X-8.007 Y8.500 E177.56283
G1 X-8.415 Y8.415 E177.60791
G1 X-8.500 Y8.007 E177.65300
G1 X-8.500 Y-8.007 E179.38341
G1 X-8.415 Y-8.415 E179.42850
G1 X-8.007 Y-8.500 E179.47358
G1 X8.007 Y-8.500 E181.20400
G1 X8.357 Y-8.428 E181.24259
G1 Z2.100 F4800.000
G1 X7.693 Y-7.693 F4800.000
G1 X7.693 Y7.693 E182.04640 F1500.000
G1 X-7.693 Y7.693 E182.85021
G1 X-7.693 Y-7.693 E183.65402
G1 X7.633 Y-7.693 E184.45469
G1 X7.200 Y-7.200 F4800.000
G1 X7.200 Y7.200 E184.88225 F375.000
G1 X-7.200 Y7.200 E185.30980
G1 X-7.200 Y-7.200 E185.73736
G1 X7.140 Y-7.200 E186.16313
G1 X7.600 Y-7.200 F4800.000
G1 X9.307 Y-9.307 F4800.000
G1 X9.307 Y9.307 E187.13565 F1500.000
G1 X-9.307 Y9.307 E188.10817
G1 X-9.307 Y-9.307 E189.08068
G1 X9.247 Y-9.307 E190.05007
G1 X9.800 Y-9.800 F4800.000
G1 X9.800 Y9.800 E190.63202 F375.000
G1 X-9.800 Y9.800 E191.21397
G1 X-9.800 Y-9.800 E191.79592
G1 X9.740 Y-9.800 E192.37608
G1 X9.600 Y-9.454 F4800.000
G1 X8.415 Y-8.415 F4800.000
G1 X8.500 Y-8.007 E192.42117 F900.000
G1 X8.500 Y8.007 E194.15158
G1 X8.415 Y8.415 E194.19667
G1 X8.007 Y8.500 E194.24175
G1 X-8.007 Y8.500 E195.97217
G1 X-8.415 Y8.415 E196.01725
G1 X-8.500 Y8.007 E196.06233
G1 X-8.500 Y-8.007 E197.79275
G1 X-8.415 Y-8.415 E197.83783
G1 X-8.007 Y-8.500 E197.88291
G1 X8.007 Y-8.500 E199.61333
G1 X8.357 Y-8.428 E199.65193
G1 Z2.300 F4800.000
G1 X7.693 Y-7.693 F4800.000
G1 X7.693 Y7.693 E200.45574 F1500.000
G1 X-7.693 Y7.693 E201.25955
G1 X-7.693 Y-7.693 E202.06336
G1 X7.633 Y-7.693 E202.86403
G1 X7.200 Y-7.200 F4800.000
G1 X7.200 Y7.200 E203.29158 F375.000
G1 X-7.200 Y7.200 E203.71914
G1 X-7.200 Y-7.200 E204.14669
G1 X7.140 Y-7.200 E204.57247
G1 X7.600 Y-7.200 F4800.000
G1 X9.307 Y-9.307 F4800.000
G1 X9.307 Y9.307 E205.54499 F1500.000
G1 X-9.307 Y9.307 E206.51750
G1 X-9.307 Y-9.307 E207.49002
G1 X9.247 Y-9.307 E208.45940
G1 X9.800 Y-9.800 F4800.000
G1 X9.800 Y9.800 E209.04135 F375.000
G1 X-9.800 Y9.800 E209.62330
G1 X-9.800 Y-9.800 E210.20525
G1 X9.740 Y-9.800 E210.78542
G1 X9.600 Y-9.454 F4800.000
G1 X8.415 Y-8.415 F4800.000
G1 X8.500 Y-8.007 E210.83050 F900.000
G1 X8.500 Y8.007 E212.56092
G1 X8.415 Y8.415 E212.60600
G1 X8.007 Y8.500 E212.65108
G1 X-8.007 Y8.500 E214.38150
G1 X-8.415 Y8.415 E214.42658
G1 X-8.500 Y8.007 E214.47167
G1 X-8.500 Y-8.007 E216.20209
G1 X-8.415 Y-8.415 E216.24717
G1 X-8.007 Y-8.500 E216.29225
G1 X8.007 Y-8.500 E218.02267
G1 X8.357 Y-8.428 E218.06127
G1 Z2.500 F4800.000
G1 X7.693 Y-7.693 F4800.000
G1 X7.693 Y7.693 E218.86507 F1500.000
G1 X-7.693 Y7.693 E219.66888
G1 X-7.693 Y-7.693 E220.47269
G1 X7.633 Y-7.693 E221.27337
G1 X7.200 Y-7.200 F4800.000
G1 X7.200 Y7.200 E221.70092 F375.000
G1 X-7.200 Y7.200 E222.12848
G1 X-7.200 Y-7.200 E222.55603
G1 X7.140 Y-7.200 E222.98180
G1 X7.600 Y-7.200 F4800.000
G1 X9.307 Y-9.307 F4800.000
G1 X9.307 Y9.307 E223.95432 F1500.000
G1 X-9.307 Y9.307 E224.92684
G1 X-9.307 Y-9.307 E225.89936
G1 X9.247 Y-9.307 E226.86874
G1 X9.800 Y-9.800 F4800.000
G1 X9.800 Y9.800 E227.45069 F375.000
G1 X-9.800 Y9.800 E228.03264
G1 X-9.800 Y-9.800 E228.61459
G1 X9.740 Y-9.800 E229.19476
