; generated by Slic3r 1.2.9 on 2022-07-26 at 20:39:03

; external perimeters extrusion width = 0.40mm
; perimeters extrusion width = 0.67mm
; infill extrusion width = 0.67mm
; solid infill extrusion width = 0.67mm
; top infill extrusion width = 0.67mm
; support material extrusion width = 0.40mm

G28 ; home all axes
M104 S190
M190 S70 ; set bed temperature
G1 Z220
G28
G1 X0.000 Y70.000 Z30.300 F8000.000
M109 S190
G1 Z0.2 F2000
G1 X40.000 Y50.000 Z0.1 E10.000
G1 X0 Y0 Z15

G21 ; set units to millimeters
G90 ; use absolute coordinates
M82 ; use absolute distances for extrusion
G92 E0
G1 Z0.300 F4800.000
G1 E-2.00000 F2400.00000
G92 E0
G1 X21.189 Y0.000 F4800.000
G1 E0.80000 F2400.00000
G1 X21.189 Y20.405 E2.29946 F1080.000
G1 X20.405 Y21.189 E2.38097
G1 X-20.405 Y21.189 E5.37988
G1 X-21.189 Y20.405 E5.46140
G1 X-21.189 Y-20.405 E8.46031
G1 X-20.405 Y-21.189 E8.54183
G1 X20.405 Y-21.189 E11.54074
G1 X21.189 Y-20.405 E11.62226
G1 X21.189 Y-0.060 E13.11731 F1080.000
G1 X20.653 Y0.000 F4800.000
G1 X20.653 Y20.183 E14.60046 F1080.000
G1 X20.183 Y20.653 E14.64937
G1 X-20.183 Y20.653 E17.61567
G1 X-20.653 Y20.183 E17.66458
G1 X-20.653 Y-20.183 E20.63089
G1 X-20.183 Y-20.653 E20.67980
G1 X20.183 Y-20.653 E23.64610
G1 X20.653 Y-20.183 E23.69501 F1080.000
G1 X20.653 Y-0.060 E25.17375
G1 E23.17375 F2400.00000
G92 E0
G1 X20.118 Y-19.961 F4800.000
G1 E0.80000 F2400.00000
G1 X20.118 Y19.961 E3.73370 F1080.000
G1 X19.961 Y20.118 E3.75000
G1 X-19.961 Y20.118 E6.68370
G1 X-20.118 Y19.961 E6.70000
G1 X-20.118 Y-19.961 E9.63370
G1 X-19.961 Y-20.118 E9.65000
G1 X19.961 Y-20.118 E12.58369
G1 X20.075 Y-20.003 E12.59559
G1 X19.550 Y-19.550 F4800.000
G1 X19.550 Y19.550 E15.46889 F216.000
G1 X-19.550 Y19.550 E18.34219
G1 X-19.550 Y-19.550 E21.21549
G1 X19.490 Y-19.550 E24.08438
G1 X19.350 Y-19.204 F4800.000
G1 X19.014 Y-19.014 F4800.000
G1 X19.014 Y19.014 E26.87896 F720.000
G1 X-19.014 Y19.014 E29.67354
G1 X-19.014 Y-19.014 E32.46812
G1 X18.954 Y-19.014 E35.25829
G1 X18.479 Y-18.479 F4800.000
G1 X18.479 Y18.479 E37.97415 F720.000
G1 X-18.479 Y18.479 E40.69001
G1 X-18.479 Y-18.479 E43.40587
G1 X18.419 Y-18.479 E46.11732
G1 X18.157 Y-17.890 F4800.000
G1 X17.890 Y-18.157 E46.14514 F360.000
G1 X17.131 Y-18.157 E46.20102
G1 X18.157 Y-17.131 E46.30785
G1 X18.157 Y-16.372 E46.36372
G1 X16.372 Y-18.157 E46.54958
G1 X15.613 Y-18.157 E46.60545
G1 X18.157 Y-15.613 E46.87031
G1 X18.157 Y-14.854 E46.92618
G1 X14.854 Y-18.157 E47.27006
G1 X14.095 Y-18.157 E47.32593
G1 X18.157 Y-14.095 E47.74882
G1 X18.157 Y-13.337 E47.80469
G1 X13.337 Y-18.157 E48.30660
G1 X12.578 Y-18.157 E48.36247
G1 X18.157 Y-12.578 E48.94339
G1 X18.157 Y-11.819 E48.99926
G1 X11.819 Y-18.157 E49.65919
G1 X11.060 Y-18.157 E49.71506
G1 X18.157 Y-11.060 E50.45400
G1 X18.157 Y-10.301 E50.50987
G1 X10.301 Y-18.157 E51.32783
G1 X9.542 Y-18.157 E51.38370
G1 X18.157 Y-9.542 E52.28067
G1 X18.157 Y-8.783 E52.33654
G1 X8.783 Y-18.157 E53.31253
G1 X8.024 Y-18.157 E53.36840
G1 X18.157 Y-8.024 E54.42340
G1 X18.157 Y-7.265 E54.47927
G1 X7.265 Y-18.157 E55.61328
G1 X6.507 Y-18.157 E55.66915
G1 X18.157 Y-6.507 E56.88217
G1 X18.157 Y-5.748 E56.93804
G1 X5.748 Y-18.157 E58.23008
G1 X4.989 Y-18.157 E58.28595
G1 X18.157 Y-4.989 E59.65700
G1 X18.157 Y-4.230 E59.71287
G1 X4.230 Y-18.157 E61.16294
G1 X3.471 Y-18.157 E61.21881
G1 X18.157 Y-3.471 E62.74789
G1 X18.157 Y-2.712 E62.80376
G1 X2.712 Y-18.157 E64.41185
G1 X1.953 Y-18.157 E64.46772
G1 X18.157 Y-1.953 E66.15482
G1 X18.157 Y-1.194 E66.21069
G1 X1.194 Y-18.157 E67.97681
G1 X0.436 Y-18.157 E68.03268
G1 X18.157 Y-0.436 E69.87781
G1 X18.157 Y0.323 E69.93368
G1 X-0.323 Y-18.157 E71.85783
G1 X-1.082 Y-18.157 E71.91370
G1 X18.157 Y1.082 E73.91685
G1 X18.157 Y1.841 E73.97272
G1 X-1.841 Y-18.157 E76.05489
G1 X-2.600 Y-18.157 E76.11076
G1 X18.157 Y2.600 E78.27195
G1 X18.157 Y3.359 E78.32782
G1 X-3.359 Y-18.157 E80.56802
G1 X-4.118 Y-18.157 E80.62389
G1 X18.157 Y4.118 E82.94310
G1 X18.157 Y4.877 E82.99897
G1 X-4.877 Y-18.157 E85.39719
G1 X-5.636 Y-18.157 E85.45306
G1 X18.157 Y5.636 E87.93030
G1 X18.157 Y6.394 E87.98617
G1 X-6.394 Y-18.157 E90.54242
G1 X-7.153 Y-18.157 E90.59829
G1 X18.157 Y7.153 E93.23355
G1 X18.157 Y7.912 E93.28942
G1 X-7.912 Y-18.157 E96.00370
G1 X-8.671 Y-18.157 E96.05957
G1 X18.157 Y8.671 E98.85286
G1 X18.157 Y9.430 E98.90873
G1 X-9.430 Y-18.157 E101.78103
G1 X-10.189 Y-18.157 E101.83691
G1 X18.157 Y10.189 E104.78822
G1 X18.157 Y10.948 E104.84409
G1 X-10.948 Y-18.157 E107.87442
G1 X-11.707 Y-18.157 E107.93029
G1 X18.157 Y11.707 E111.03964
G1 X18.157 Y12.466 E111.09551
G1 X-12.466 Y-18.157 E114.28386
G1 X-13.224 Y-18.157 E114.33973
G1 X18.157 Y13.224 E117.60710
G1 X18.157 Y13.983 E117.66297
G1 X-13.983 Y-18.157 E121.00936
G1 X-14.742 Y-18.157 E121.06523
G1 X18.157 Y14.742 E124.49062
G1 X18.157 Y15.501 E124.54649
G1 X-15.501 Y-18.157 E128.05090
G1 X-16.260 Y-18.157 E128.10677
G1 X18.157 Y16.260 E131.69020
G1 X18.157 Y17.019 E131.74607
G1 X-17.019 Y-18.157 E135.40850
G1 X-17.778 Y-18.157 E135.46437
G1 X18.157 Y17.778 E139.20582
G1 X17.778 Y18.157 E139.24533
G1 X-18.157 Y-17.778 E142.98677
G1 X-18.157 Y-17.019 E143.04264
G1 X17.019 Y18.157 E146.70507
G1 X16.260 Y18.157 E146.76094
G1 X-18.157 Y-16.260 E150.34436
G1 X-18.157 Y-15.501 E150.40023
G1 X15.501 Y18.157 E153.90463
G1 X14.742 Y18.157 E153.96050
G1 X-18.157 Y-14.742 E157.38589
G1 X-18.157 Y-13.983 E157.44176
G1 X13.983 Y18.157 E160.78814
G1 X13.224 Y18.157 E160.84401
G1 X-18.157 Y-13.224 E164.11137
G1 X-18.157 Y-12.465 E164.16724
G1 X12.465 Y18.157 E167.35559
G1 X11.707 Y18.157 E167.41146
G1 X-18.157 Y-11.707 E170.52080
G1 X-18.157 Y-10.948 E170.57667
G1 X10.948 Y18.157 E173.60699
G1 X10.189 Y18.157 E173.66286
G1 X-18.157 Y-10.189 E176.61417
G1 X-18.157 Y-9.430 E176.67004
G1 X9.430 Y18.157 E179.54234
G1 X8.671 Y18.157 E179.59821
G1 X-18.157 Y-8.671 E182.39149
G1 X-18.157 Y-7.912 E182.44736
G1 X7.912 Y18.157 E185.16163
G1 X7.153 Y18.157 E185.21750
G1 X-18.157 Y-7.153 E187.85276
G1 X-18.157 Y-6.394 E187.90863
G1 X6.394 Y18.157 E190.46487
G1 X5.635 Y18.157 E190.52074
G1 X-18.157 Y-5.635 E192.99797
G1 X-18.157 Y-4.877 E193.05384
G1 X4.877 Y18.157 E195.45206
G1 X4.118 Y18.157 E195.50793
G1 X-18.157 Y-4.118 E197.82713
G1 X-18.157 Y-3.359 E197.88300
G1 X3.359 Y18.157 E200.12319
G1 X2.600 Y18.157 E200.17906
G1 X-18.157 Y-2.600 E202.34024
G1 X-18.157 Y-1.841 E202.39611
G1 X1.841 Y18.157 E204.47827
G1 X1.082 Y18.157 E204.53414
G1 X-18.157 Y-1.082 E206.53729
G1 X-18.157 Y-0.323 E206.59317
G1 X0.323 Y18.157 E208.51730
G1 X-0.436 Y18.157 E208.57317
G1 X-18.157 Y0.436 E210.41830
G1 X-18.157 Y1.194 E210.47417
G1 X-1.194 Y18.157 E212.24028
G1 X-1.953 Y18.157 E212.29615
G1 X-18.157 Y1.953 E213.98324
G1 X-18.157 Y2.712 E214.03912
G1 X-2.712 Y18.157 E215.64720
G1 X-3.471 Y18.157 E215.70307
G1 X-18.157 Y3.471 E217.23214
G1 X-18.157 Y4.230 E217.28801
G1 X-4.230 Y18.157 E218.73807
G1 X-4.989 Y18.157 E218.79394
G1 X-18.157 Y4.989 E220.16498
G1 X-18.157 Y5.748 E220.22085
G1 X-5.748 Y18.157 E221.51288
G1 X-6.507 Y18.157 E221.56875
G1 X-18.157 Y6.507 E222.78177
G1 X-18.157 Y7.266 E222.83764
G1 X-7.266 Y18.157 E223.97165
G1 X-8.024 Y18.157 E224.02752
G1 X-18.157 Y8.024 E225.08251
G1 X-18.157 Y8.783 E225.13838
G1 X-8.783 Y18.157 E226.11435
G1 X-9.542 Y18.157 E226.17023
G1 X-18.157 Y9.542 E227.06719
G1 X-18.157 Y10.301 E227.12306
G1 X-10.301 Y18.157 E227.94101
G1 X-11.060 Y18.157 E227.99688
G1 X-18.157 Y11.060 E228.73582
G1 X-18.157 Y11.819 E228.79169
G1 X-11.819 Y18.157 E229.45161
G1 X-12.578 Y18.157 E229.50748
G1 X-18.157 Y12.578 E230.08840
G1 X-18.157 Y13.337 E230.14427
G1 X-13.337 Y18.157 E230.64616
G1 X-14.096 Y18.157 E230.70203
G1 X-18.157 Y14.096 E231.12492
G1 X-18.157 Y14.854 E231.18079
G1 X-14.854 Y18.157 E231.52466
G1 X-15.613 Y18.157 E231.58053
G1 X-18.157 Y15.613 E231.84539
G1 X-18.157 Y16.372 E231.90126
G1 X-16.372 Y18.157 E232.08710
G1 X-17.131 Y18.157 E232.14297
G1 X-18.157 Y17.131 E232.24981
G1 X-18.157 Y17.890 E232.30568
G1 X-17.890 Y18.157 E232.33349
G1 Z0.300 F4800.000
G1 Z0.500 F4800.000
G1 X18.279 Y-18.279 F4800.000
G1 X18.279 Y18.279 E234.43446 F1800.000
G1 X-18.279 Y18.279 E236.53542
G1 X-18.279 Y-18.279 E238.63639
G1 X18.219 Y-18.279 E240.73390
G1 X18.907 Y-18.907 F4800.000
G1 X18.907 Y18.907 E242.90708 F1800.000
G1 X-18.907 Y18.907 E245.08027
G1 X-18.907 Y-18.907 E247.25345
G1 X18.847 Y-18.907 E249.42318
G1 X19.400 Y-19.400 F4800.000
G1 X19.400 Y19.400 E250.69041 F540.000
G1 X-19.400 Y19.400 E251.95763
G1 X-19.400 Y-19.400 E253.22486
G1 X19.340 Y-19.400 E254.49012
G1 X19.200 Y-19.054 F4800.000
G1 X-17.898 Y-17.592 F4800.000
G1 X-17.592 Y-17.898 E254.51531 F900.000
G1 X-16.693 Y-17.898 E254.56752
G1 X-17.898 Y-16.693 E254.66654
G1 X-17.898 Y-15.795 E254.71876
G1 X-15.795 Y-17.898 E254.89162
G1 X-14.896 Y-17.898 E254.94383
G1 X-17.898 Y-14.896 E255.19053
G1 X-17.898 Y-13.998 E255.24274
G1 X-13.998 Y-17.898 E255.56327
G1 X-13.099 Y-17.898 E255.61548
G1 X-17.898 Y-13.099 E256.00986
G1 X-17.898 Y-12.201 E256.06207
G1 X-12.201 Y-17.898 E256.53027
G1 X-11.302 Y-17.898 E256.58248
G1 X-17.898 Y-11.302 E257.12453
G1 X-17.898 Y-10.404 E257.17674
G1 X-10.404 Y-17.898 E257.79262
G1 X-9.505 Y-17.898 E257.84483
G1 X-17.898 Y-9.505 E258.53455
G1 X-17.898 Y-8.607 E258.58676
G1 X-8.607 Y-17.898 E259.35032
G1 X-7.708 Y-17.898 E259.40253
G1 X-17.898 Y-7.708 E260.23992
G1 X-17.898 Y-6.810 E260.29213
G1 X-6.810 Y-17.898 E261.20336
G1 X-5.911 Y-17.898 E261.25557
G1 X-17.898 Y-5.911 E262.24063
G1 X-17.898 Y-5.013 E262.29285
G1 X-5.013 Y-17.898 E263.35175
G1 X-4.115 Y-17.898 E263.40396
G1 X-17.898 Y-4.115 E264.53670
G1 X-17.898 Y-3.216 E264.58891
G1 X-3.216 Y-17.898 E265.79548
G1 X-2.318 Y-17.898 E265.84769
G1 X-17.898 Y-2.318 E267.12810
G1 X-17.898 Y-1.419 E267.18031
G1 X-1.419 Y-17.898 E268.53456
G1 X-0.521 Y-17.898 E268.58677
G1 X-17.898 Y-0.521 E270.01486
G1 X-17.898 Y0.378 E270.06707
G1 X0.378 Y-17.898 E271.56899
G1 X1.276 Y-17.898 E271.62120
G1 X-17.898 Y1.276 E273.19696
G1 X-17.898 Y2.175 E273.24917
G1 X2.175 Y-17.898 E274.89877
G1 X3.073 Y-17.898 E274.95098
G1 X-17.898 Y3.073 E276.67441
G1 X-17.898 Y3.972 E276.72662
G1 X3.972 Y-17.898 E278.52389
G1 X4.870 Y-17.898 E278.57610
G1 X-17.898 Y4.870 E280.44720
G1 X-17.898 Y5.769 E280.49941
G1 X5.769 Y-17.898 E282.44435
G1 X6.667 Y-17.898 E282.49656
G1 X-17.898 Y6.667 E284.51534
G1 X-17.898 Y7.566 E284.56755
G1 X7.566 Y-17.898 E286.66017
G1 X8.464 Y-17.898 E286.71238
G1 X-17.898 Y8.464 E288.87883
G1 X-17.898 Y9.363 E288.93104
G1 X9.363 Y-17.898 E291.17133
G1 X10.261 Y-17.898 E291.22354
G1 X-17.898 Y10.261 E293.53766
G1 X-17.898 Y11.160 E293.58987
G1 X11.160 Y-17.898 E295.97784
G1 X12.058 Y-17.898 E296.03005
G1 X-17.898 Y12.058 E298.49184
G1 X-17.898 Y12.957 E298.54405
G1 X12.957 Y-17.898 E301.07969
G1 X13.855 Y-17.898 E301.13190
G1 X-17.898 Y13.855 E303.74137
G1 X-17.898 Y14.754 E303.79358
G1 X14.754 Y-17.898 E306.47689
G1 X15.652 Y-17.898 E306.52910
G1 X-17.898 Y15.652 E309.28624
G1 X-17.898 Y16.550 E309.33846
G1 X16.550 Y-17.898 E312.16944
G1 X17.449 Y-17.898 E312.22165
G1 X-17.898 Y17.449 E315.12646
G1 X-17.449 Y17.898 E315.16338
G1 X17.898 Y-17.449 E318.06821
G1 X17.898 Y-16.551 E318.12042
G1 X-16.551 Y17.898 E320.95140
G1 X-15.652 Y17.898 E321.00361
G1 X17.898 Y-15.652 E323.76076
G1 X17.898 Y-14.754 E323.81297
G1 X-14.754 Y17.898 E326.49629
G1 X-13.855 Y17.898 E326.54850
G1 X17.898 Y-13.855 E329.15797
G1 X17.898 Y-12.957 E329.21018
G1 X-12.957 Y17.898 E331.74582
G1 X-12.058 Y17.898 E331.79803
G1 X17.898 Y-12.058 E334.25984
G1 X17.898 Y-11.160 E334.31205
G1 X-11.160 Y17.898 E336.70001
G1 X-10.261 Y17.898 E336.75222
G1 X17.898 Y-10.261 E339.06635
G1 X17.898 Y-9.363 E339.11856
G1 X-9.363 Y17.898 E341.35886
G1 X-8.464 Y17.898 E341.41107
G1 X17.898 Y-8.464 E343.57752
G1 X17.898 Y-7.566 E343.62973
G1 X-7.566 Y17.898 E345.72235
G1 X-6.667 Y17.898 E345.77456
G1 X17.898 Y-6.667 E347.79335
G1 X17.898 Y-5.769 E347.84556
G1 X-5.769 Y17.898 E349.79051
G1 X-4.870 Y17.898 E349.84272
G1 X17.898 Y-4.870 E351.71383
G1 X17.898 Y-3.972 E351.76604
G1 X-3.972 Y17.898 E353.56331
G1 X-3.073 Y17.898 E353.61552
G1 X17.898 Y-3.073 E355.33896
G1 X17.898 Y-2.175 E355.39117
G1 X-2.175 Y17.898 E357.04077
G1 X-1.276 Y17.898 E357.09298
G1 X17.898 Y-1.276 E358.66874
G1 X17.898 Y-0.378 E358.72095
G1 X-0.378 Y17.898 E360.22288
G1 X0.521 Y17.898 E360.27509
G1 X17.898 Y0.521 E361.70318
G1 X17.898 Y1.419 E361.75539
G1 X1.419 Y17.898 E363.10964
G1 X2.318 Y17.898 E363.16185
G1 X17.898 Y2.318 E364.44227
G1 X17.898 Y3.216 E364.49448
G1 X3.216 Y17.898 E365.70106
G1 X4.114 Y17.898 E365.75327
G1 X17.898 Y4.114 E366.88601
G1 X17.898 Y5.013 E366.93823
G1 X5.013 Y17.898 E367.99713
G1 X5.911 Y17.898 E368.04934
G1 X17.898 Y5.911 E369.03441
G1 X17.898 Y6.810 E369.08662
G1 X6.810 Y17.898 E369.99786
G1 X7.708 Y17.898 E370.05007
G1 X17.898 Y7.708 E370.88746
G1 X17.898 Y8.607 E370.93968
G1 X8.607 Y17.898 E371.70324
G1 X9.505 Y17.898 E371.75545
G1 X17.898 Y9.505 E372.44517
G1 X17.898 Y10.404 E372.49738
G1 X10.404 Y17.898 E373.11327
G1 X11.302 Y17.898 E373.16548
G1 X17.898 Y11.302 E373.70753
G1 X17.898 Y12.201 E373.75974
G1 X12.201 Y17.898 E374.22795
G1 X13.099 Y17.898 E374.28016
G1 X17.898 Y13.099 E374.67454
G1 X17.898 Y13.998 E374.72675
G1 X13.998 Y17.898 E375.04729
G1 X14.896 Y17.898 E375.09950
G1 X17.898 Y14.896 E375.34621
G1 X17.898 Y15.795 E375.39842
G1 X15.795 Y17.898 E375.57128
G1 X16.693 Y17.898 E375.62349
G1 X17.898 Y16.693 E375.72253
G1 X17.898 Y17.592 E375.77474
G1 X17.592 Y17.898 E375.79993
G1 Z0.700 F4800.000
G1 X18.079 Y-18.079 F4800.000
G1 X18.079 Y18.079 E377.87791 F1800.000
G1 X-18.079 Y18.079 E379.95588
G1 X-18.079 Y-18.079 E382.03386
G1 X18.019 Y-18.079 E384.10839
G1 X18.707 Y-18.707 F4800.000
G1 X18.707 Y18.707 E386.25858 F1800.000
G1 X-18.707 Y18.707 E388.40878
G1 X-18.707 Y-18.707 E390.55897
G1 X18.647 Y-18.707 E392.70572
G1 X19.200 Y-19.200 F4800.000
G1 X19.200 Y19.200 E393.95988 F540.000
G1 X-19.200 Y19.200 E395.21404
G1 X-19.200 Y-19.200 E396.46820
G1 X19.140 Y-19.200 E397.72040
G1 X19.000 Y-18.854 F4800.000
G1 X17.698 Y-17.392 F4800.000
G1 X17.392 Y-17.698 E397.74563 F900.000
G1 X16.492 Y-17.698 E397.79798
G1 X17.698 Y-16.492 E397.89726
G1 X17.698 Y-15.592 E397.94961
G1 X15.592 Y-17.698 E398.12293
G1 X14.692 Y-17.698 E398.17529
G1 X17.698 Y-14.692 E398.42265
G1 X17.698 Y-13.793 E398.47501
G1 X13.793 Y-17.698 E398.79642
G1 X12.893 Y-17.698 E398.84877
G1 X17.698 Y-12.893 E399.24422
G1 X17.698 Y-11.993 E399.29658
G1 X11.993 Y-17.698 E399.76608
G1 X11.093 Y-17.698 E399.81843
G1 X17.698 Y-11.093 E400.36197
G1 X17.698 Y-10.194 E400.41433
G1 X10.194 Y-17.698 E401.03191
G1 X9.294 Y-17.698 E401.08427
G1 X17.698 Y-9.294 E401.77590
G1 X17.698 Y-8.394 E401.82826
G1 X8.394 Y-17.698 E402.59393
G1 X7.494 Y-17.698 E402.64629
G1 X17.698 Y-7.494 E403.48600
G1 X17.698 Y-6.595 E403.53836
G1 X6.595 Y-17.698 E404.45212
G1 X5.695 Y-17.698 E404.50448
G1 X17.698 Y-5.695 E405.49228
G1 X17.698 Y-4.795 E405.54464
G1 X4.795 Y-17.698 E406.60649
G1 X3.896 Y-17.698 E406.65885
G1 X17.698 Y-3.896 E407.79474
G1 X17.698 Y-2.996 E407.84710
G1 X2.996 Y-17.698 E409.05704
G1 X2.096 Y-17.698 E409.10940
G1 X17.698 Y-2.096 E410.39338
G1 X17.698 Y-1.196 E410.44574
G1 X1.196 Y-17.698 E411.80376
G1 X0.297 Y-17.698 E411.85612
G1 X17.698 Y-0.297 E413.28819
G1 X17.698 Y0.603 E413.34055
G1 X-0.603 Y-17.698 E414.84666
G1 X-1.503 Y-17.698 E414.89902
G1 X17.698 Y1.503 E416.47918
G1 X17.698 Y2.403 E416.53154
G1 X-2.403 Y-17.698 E418.18574
G1 X-3.302 Y-17.698 E418.23810
G1 X17.698 Y3.302 E419.96635
G1 X17.698 Y4.202 E420.01870
G1 X-4.202 Y-17.698 E421.82100
G1 X-5.102 Y-17.698 E421.87335
G1 X17.698 Y5.102 E423.74969
G1 X17.698 Y6.002 E423.80205
G1 X-6.002 Y-17.698 E425.75243
G1 X-6.901 Y-17.698 E425.80479
G1 X17.698 Y6.901 E427.82921
G1 X17.698 Y7.801 E427.88157
G1 X-7.801 Y-17.698 E429.98004
G1 X-8.701 Y-17.698 E430.03240
G1 X17.698 Y8.701 E432.20491
G1 X17.698 Y9.601 E432.25727
G1 X-9.601 Y-17.698 E434.50383
G1 X-10.500 Y-17.698 E434.55618
G1 X17.698 Y10.500 E436.87679
G1 X17.698 Y11.400 E436.92914
G1 X-11.400 Y-17.698 E439.32379
G1 X-12.300 Y-17.698 E439.37615
G1 X17.698 Y12.300 E441.84484
G1 X17.698 Y13.200 E441.89720
