; generated by Slic3r 1.2.9 on 2021-10-14 at 15:18:50

; external perimeters extrusion width = 0.40mm
; perimeters extrusion width = 0.67mm
; infill extrusion width = 0.67mm
; solid infill extrusion width = 0.67mm
; top infill extrusion width = 0.67mm

M107
M190 S65 ; set bed temperature
M104 S190 ; set temperature
G28 ; home all axes
G1 Z5 F5000 ; lift nozzle

M109 S190 ; wait for temperature to be reached
G21 ; set units to millimeters
G90 ; use absolute coordinates
M82 ; use absolute distances for extrusion
G92 E0
G1 Z0.400 F7800.000
G1 E-2.00000 F2400.00000
G92 E0
G1 X31.714 Y0.000 F7800.000
G1 E2.00000 F2400.00000
G1 X31.714 Y25.000 E4.67222 F1800.000
G1 X31.317 Y27.275 E4.91902
G1 X30.173 Y29.280 E5.16582
G1 X28.417 Y30.780 E5.41262
G1 X26.257 Y31.595 E5.65943
G1 X25.000 Y31.714 E5.79440
G1 X-25.000 Y31.714 E11.13883
G1 X-27.275 Y31.317 E11.38563
G1 X-29.280 Y30.173 E11.63243
G1 X-30.780 Y28.417 E11.87924
G1 X-31.595 Y26.257 E12.12604
G1 X-31.714 Y25.000 E12.26101
G1 X-31.714 Y-25.000 E17.60544
G1 X-31.317 Y-27.275 E17.85224
G1 X-30.173 Y-29.280 E18.09904
G1 X-28.417 Y-30.780 E18.34585
G1 X-26.257 Y-31.595 E18.59265
G1 X-25.000 Y-31.714 E18.72762
G1 X25.000 Y-31.714 E24.07205
G1 X27.275 Y-31.317 E24.31885
G1 X29.280 Y-30.173 E24.56566 F1800.000
G1 X30.780 Y-28.417 E24.81246
G1 X31.595 Y-26.257 E25.05926
G1 X31.714 Y-25.000 E25.19423
G1 X31.714 Y-0.060 E27.86003
G1 E25.86003 F2400.00000
G92 E0
G1 X28.214 Y0.000 F7800.000
G1 E2.00000 F2400.00000
G1 X28.214 Y26.331 E4.81450 F1800.000
G1 X26.331 Y28.214 E5.09908
G1 X-26.331 Y28.214 E10.72808
G1 X-28.214 Y26.331 E11.01265
G1 X-28.214 Y-26.331 E16.64166
G1 X-26.331 Y-28.214 E16.92623
G1 X26.331 Y-28.214 E22.55524
G1 X28.214 Y-26.331 E22.83981
G1 X28.214 Y-0.060 E25.64790 F1800.000
G1 X27.500 Y0.000 F7800.000
G1 X27.500 Y26.035 E28.43078 F1800.000
G1 X26.035 Y27.500 E28.65212
G1 X-26.035 Y27.500 E34.21788
G1 X-27.500 Y26.035 E34.43922
G1 X-27.500 Y-26.035 E40.00499
G1 X-26.035 Y-27.500 E40.22632
G1 X26.035 Y-27.500 E45.79209
G1 X27.500 Y-26.035 E46.01342 F1800.000
G1 X27.500 Y-0.060 E48.78989
G1 X26.785 Y0.000 F7800.000
G1 X26.785 Y25.740 E51.54116 F1800.000
G1 X25.740 Y26.785 E51.69925
G1 X-25.740 Y26.785 E57.20178
G1 X-26.785 Y25.740 E57.35988
G1 X-26.785 Y-25.740 E62.86241
G1 X-25.740 Y-26.785 E63.02050
G1 X25.740 Y-26.785 E68.52303
G1 X26.785 Y-25.740 E68.68113
G1 X26.785 Y-0.060 E71.42598 F1800.000
G1 X26.071 Y0.000 F7800.000
G1 X26.071 Y25.444 E74.14562 F1800.000
G1 X25.444 Y26.071 E74.24048
G1 X-25.444 Y26.071 E79.67977
G1 X-26.071 Y25.444 E79.77463
G1 X-26.071 Y-25.444 E85.21392
G1 X-25.444 Y-26.071 E85.30878
G1 X25.444 Y-26.071 E90.74807
G1 X26.071 Y-25.444 E90.84292 F1800.000
G1 X26.071 Y-0.060 E93.55615
G1 X25.357 Y0.000 F7800.000
G1 X25.357 Y25.148 E96.24418 F1800.000
G1 X25.148 Y25.357 E96.27580
G1 X-25.148 Y25.357 E101.65185
G1 X-25.357 Y25.148 E101.68347
G1 X-25.357 Y-25.148 E107.05952
G1 X-25.148 Y-25.357 E107.09114
G1 X25.148 Y-25.357 E112.46719
G1 X25.357 Y-25.148 E112.49881
G1 X25.357 Y-0.060 E115.18043 F1800.000
G1 E113.18043 F2400.00000
G92 E0
G1 X-22.900 Y-22.900 F7800.000
G1 E2.00000 F2400.00000
G1 X-17.334 Y-22.900 E2.59491 F600.000
G1 X22.900 Y17.334 E8.67686
G1 X22.900 Y22.900 E9.27177
G1 X17.334 Y22.900 E9.86668
G1 X-22.900 Y-17.334 E15.94864
G1 X-22.900 Y-22.840 E16.53713
G1 X-22.900 Y-23.300 F7800.000
G1 E14.53713 F2400.00000
G92 E0
G1 X-15.966 Y-22.900 F7800.000
G1 E2.00000 F2400.00000
G1 X22.900 Y-22.900 E6.15430 F600.000
G1 X22.900 Y15.966 E10.30860
G1 X-15.923 Y-22.858 E16.17726
G1 X-16.069 Y-23.286 F7800.000
G1 E14.17726 F2400.00000
G92 E0
G1 X-22.900 Y-15.966 F7800.000
G1 E2.00000 F2400.00000
G1 X15.966 Y22.900 E7.87507 F600.000
G1 X-22.900 Y22.900 E12.02937
G1 X-22.900 Y-15.906 E16.17726
G1 X-22.700 Y-16.312 F7800.000
G1 E14.17726 F2400.00000
G92 E0
G1 X-24.600 Y-24.600 F7800.000
G1 E2.00000 F2400.00000
G1 X24.600 Y-24.600 E7.25892 F600.000
G1 X24.600 Y24.600 E12.51784
G1 X-24.600 Y24.600 E17.77677
G1 X-24.600 Y-24.540 E23.02927
G1 X-24.254 Y-24.400 F7800.000
G1 X-23.665 Y-23.665 F7800.000
G1 X-23.257 Y-23.750 E23.12378 F600.000
G1 X23.257 Y-23.750 E33.66506
G1 X23.665 Y-23.665 E33.75956
G1 X23.750 Y-23.257 E33.85407
G1 X23.750 Y23.257 E44.39535
G1 X23.665 Y23.665 E44.48985
G1 X23.257 Y23.750 E44.58436
G1 X-23.257 Y23.750 E55.12564
G1 X-23.665 Y23.665 E55.22014
G1 X-23.750 Y23.257 E55.31465
G1 X-23.750 Y-23.257 E65.85593
G1 X-23.678 Y-23.607 E65.93684
G1 E63.93684 F2400.00000
G92 E0
G1 X-16.700 Y-22.950 F7800.000
G1 E2.00000 F2400.00000
G1 X22.950 Y16.700 E7.99363 F600.000
G1 E5.99363 F2400.00000
G92 E0
G1 X16.700 Y22.950 F7800.000
G1 E2.00000 F2400.00000
G1 X-22.950 Y-16.700 E7.99363 F600.000
G1 E5.99363 F2400.00000
G92 E0
M104 S0 ; turn off temperature
M140 S0; turn off heated bed
G28 X0  ; home X axis
M84     ; disable motors

; filament used = 257.9mm (0.6cm3)

; avoid_crossing_perimeters = 0
; bed_shape = 99.4522x10.4528,97.8148x20.7912,95.1057x30.9017,91.3545x40.6737,86.6025x50,80.9017x58.7785,74.3145x66.9131,66.9131x74.3145,58.7785x80.9017,50x86.6025,40.6737x91.3545,30.9017x95.1057,20.7912x97.8148,10.4528x99.4522,0x100,-10.4528x99.4522,-20.7912x97.8148,-30.9017x95.1057,-40.6737x91.3545,-50x86.6025,-58.7785x80.9017,-66.9131x74.3145,-74.3145x66.9131,-80.9017x58.7785,-86.6025x50,-91.3545x40.6737,-95.1057x30.9017,-97.8148x20.7912,-99.4522x10.4528,-100x0,-99.4522x-10.4528,-97.8148x-20.7912,-95.1057x-30.9017,-91.3545x-40.6737,-86.6025x-50,-80.9017x-58.7785,-74.3145x-66.9131,-66.9131x-74.3145,-58.7785x-80.9017,-50x-86.6025,-40.6737x-91.3545,-30.9017x-95.1057,-20.7912x-97.8148,-10.4528x-99.4522,0x-100,10.4528x-99.4522,20.7912x-97.8148,30.9017x-95.1057,40.6737x-91.3545,50x-86.6025,58.7785x-80.9017,66.9131x-74.3145,74.3145x-66.9131,80.9017x-58.7785,86.6025x-50,91.3545x-40.6737,95.1057x-30.9017,97.8148x-20.7912,99.4522x-10.4528,100x0
; bed_temperature = 60
; before_layer_gcode = 
; bridge_acceleration = 0
; bridge_fan_speed = 100
; brim_width = 4
; complete_objects = 0
; cooling = 1
; default_acceleration = 0
; disable_fan_first_layers = 4
; duplicate_distance = 6
; end_gcode = M104 S0 ; turn off temperature\nM140 S0; turn off heated bed\nG28 X0  ; home X axis\nM84     ; disable motors\n
; extruder_clearance_height = 20
; extruder_clearance_radius = 20
; extruder_offset = 0x0
; extrusion_axis = E
; extrusion_multiplier = 0.9
; fan_always_on = 0
; fan_below_layer_time = 60
; filament_colour = #000000
; filament_diameter = 1.75
; first_layer_acceleration = 0
; first_layer_bed_temperature = 65
; first_layer_extrusion_width = 200%
; first_layer_speed = 50%
; first_layer_temperature = 190
; gcode_arcs = 0
; gcode_comments = 0
; gcode_flavor = reprap
; infill_acceleration = 0
; infill_first = 0
; layer_gcode = 
; max_fan_speed = 100
; max_print_speed = 80
; max_volumetric_speed = 0
; min_fan_speed = 35
; min_print_speed = 10
; min_skirt_length = 0
; notes = 
; nozzle_diameter = 0.4
; only_retract_when_crossing_perimeters = 1
; ooze_prevention = 0
; output_filename_format = [input_filename_base].gcode
; perimeter_acceleration = 0
; post_process = 
; pressure_advance = 0
; resolution = 0
; retract_before_travel = 2
; retract_layer_change = 0
; retract_length = 2
; retract_length_toolchange = 10
; retract_lift = 0
; retract_restart_extra = 0
; retract_restart_extra_toolchange = 0
; retract_speed = 40
; skirt_distance = 6
; skirt_height = 1
; skirts = 1
; slowdown_below_layer_time = 5
; spiral_vase = 0
; standby_temperature_delta = -5
; start_gcode = G28 ; home all axes\nG1 Z5 F5000 ; lift nozzle\n
; temperature = 185
; threads = 2
; toolchange_gcode = 
; travel_speed = 130
; use_firmware_retraction = 0
; use_relative_e_distances = 0
; use_volumetric_e = 0
; vibration_limit = 0
; wipe = 0
; z_offset = 0
; dont_support_bridges = 1
; extrusion_width = 0
; first_layer_height = 0.4
; infill_only_where_needed = 0
; interface_shells = 0
; layer_height = 0.2
; raft_layers = 0
; seam_position = aligned
; support_material = 0
; support_material_angle = 0
; support_material_contact_distance = 0.2
; support_material_enforce_layers = 0
; support_material_extruder = 1
; support_material_extrusion_width = 0
; support_material_interface_extruder = 1
; support_material_interface_layers = 3
; support_material_interface_spacing = 0
; support_material_interface_speed = 100%
; support_material_pattern = rectilinear-grid
; support_material_spacing = 2.5
; support_material_speed = 60
; support_material_threshold = 0
; xy_size_compensation = 0
; bottom_solid_layers = 3
; bridge_flow_ratio = 1
; bridge_speed = 60
; external_fill_pattern = rectilinear
; external_perimeter_extrusion_width = 0
; external_perimeter_speed = 50%
; external_perimeters_first = 0
; extra_perimeters = 1
; fill_angle = 45
; fill_density = 15%
; fill_pattern = rectilinear
; gap_fill_speed = 20
; infill_every_layers = 1
; infill_extruder = 1
; infill_extrusion_width = 0
; infill_overlap = 15%
; infill_speed = 60
; overhangs = 1
; perimeter_extruder = 1
; perimeter_extrusion_width = 0
; perimeter_speed = 40
; perimeters = 3
; small_perimeter_speed = 15
; solid_infill_below_area = 70
; solid_infill_every_layers = 0
; solid_infill_extruder = 1
; solid_infill_extrusion_width = 0
; solid_infill_speed = 20
; thin_walls = 1
; top_infill_extrusion_width = 0
; top_solid_infill_speed = 15
; top_solid_layers = 3
