; generated by Slic3r 1.2.9 on 2022-03-16 at 17:00:48

; external perimeters extrusion width = 0.40mm
; perimeters extrusion width = 0.67mm
; infill extrusion width = 0.67mm
; solid infill extrusion width = 0.67mm
; top infill extrusion width = 0.67mm

M190 S64 ; set bed temperature
M104 S185 ; set temperature
G28 ; home all axes
G1 Z5 F5000 ; lift nozzle

M109 S185 ; wait for temperature to be reached
G21 ; set units to millimeters
G90 ; use absolute coordinates
M82 ; use absolute distances for extrusion
G92 E0
G1 E-6.00000 F3000.00000
G92 E0
G1 Z0.500 F4800.000
G1 X26.221 Y0.000 F4800.000
G1 Z0.300 F4800.000
G1 E5.00000 F3000.00000
G1 X26.221 Y19.150 E6.27932 F1080.000
G1 X25.824 Y21.487 E6.43765
G1 X24.677 Y23.561 E6.59598
G1 X22.909 Y25.139 E6.75431
G1 X20.719 Y26.045 E6.91264
G1 X19.150 Y26.221 E7.01814
G1 X-19.150 Y26.221 E9.57679
G1 X-21.487 Y25.824 E9.73512
G1 X-23.561 Y24.677 E9.89345
G1 X-25.139 Y22.909 E10.05178
G1 X-26.045 Y20.719 E10.21011
G1 X-26.221 Y19.150 E10.31560
G1 X-26.221 Y-19.150 E12.87425
G1 X-25.824 Y-21.487 E13.03258
G1 X-24.677 Y-23.561 E13.19091
G1 X-22.909 Y-25.139 E13.34924
G1 X-20.719 Y-26.045 E13.50757
G1 X-19.150 Y-26.221 E13.61307
G1 X19.150 Y-26.221 E16.17172
G1 X21.487 Y-25.824 E16.33005
G1 X23.561 Y-24.677 E16.48838 F1080.000
G1 X25.139 Y-22.909 E16.64671
G1 X26.045 Y-20.719 E16.80504
G1 X26.221 Y-19.150 E16.91053
G1 X26.221 Y-0.060 E18.18585
G1 X25.686 Y-0.060 F4800.000
G1 X25.686 Y19.150 E19.46918 F1080.000
G1 X25.289 Y21.393 E19.62135
G1 X24.146 Y23.363 E19.77352
G1 X22.397 Y24.822 E19.92569
G1 X19.150 Y25.686 E20.15012
G1 X-19.150 Y25.686 E22.70877
G1 X-21.393 Y25.289 E22.86094
G1 X-23.363 Y24.146 E23.01311
G1 X-24.822 Y22.397 E23.16528
G1 X-25.686 Y19.150 E23.38971
G1 X-25.686 Y-19.150 E25.94836
G1 X-25.289 Y-21.393 E26.10053
G1 X-24.146 Y-23.363 E26.25270
G1 X-22.397 Y-24.822 E26.40487
G1 X-19.150 Y-25.686 E26.62930
G1 X19.150 Y-25.686 E29.18795
G1 X21.393 Y-25.289 E29.34012
G1 X23.363 Y-24.146 E29.49229 F1080.000
G1 X24.822 Y-22.397 E29.64446
G1 X25.686 Y-19.150 E29.86889
G1 X25.686 Y-0.120 E31.14020
G1 F3840
G1 X25.686 Y7.560 E25.44020
G1 E25.14020 F3000.00000
G92 E0
G1 Z0.800 F4800.000
G1 X20.489 Y-0.120 F4800.000
G1 Z0.300 F4800.000
G1 E5.00000 F3000.00000
G1 X20.489 Y19.705 E6.32439 F1080.000
G1 X19.705 Y20.489 E6.39850
G1 X-19.705 Y20.489 E9.03126
G1 X-20.489 Y19.705 E9.10536
G1 X-20.489 Y-19.705 E11.73812
G1 X-19.705 Y-20.489 E11.81223
G1 X19.705 Y-20.489 E14.44498
G1 X20.489 Y-19.705 E14.51909
G1 X20.489 Y-0.180 E15.82344 F1080.000
G1 X19.953 Y-0.180 F4800.000
G1 X19.953 Y19.483 E17.13702 F1080.000
G1 X19.483 Y19.953 E17.18149
G1 X-19.483 Y19.953 E19.78460
G1 X-19.953 Y19.483 E19.82906
G1 X-19.953 Y-19.483 E22.43217
G1 X-19.483 Y-19.953 E22.47664
G1 X19.483 Y-19.953 E25.07975
G1 X19.953 Y-19.483 E25.12421 F1080.000
G1 X19.953 Y-0.240 E26.40974
G1 X19.418 Y-0.240 F4800.000
G1 X19.418 Y19.261 E27.71250 F1080.000
G1 X19.261 Y19.418 E27.72733
G1 X-19.261 Y19.418 E30.30079
G1 X-19.418 Y19.261 E30.31562
G1 X-19.418 Y-19.261 E32.88908
G1 X-19.261 Y-19.418 E32.90391
G1 X19.261 Y-19.418 E35.47737
G1 X19.418 Y-19.261 E35.49220
G1 X19.418 Y-0.300 E36.75889 F1080.000
G1 X18.850 Y-0.300 F4800.000
G1 X18.850 Y18.850 E38.03821 F420.000
G1 X-18.850 Y18.850 E40.55678 F420.000
G1 X-18.850 Y-18.850 E43.07534
G1 X18.850 Y-18.850 E45.59390
G1 X18.850 Y-0.360 E46.82914
G1 X18.504 Y-0.100 F4800.000
G1 X18.314 Y-0.360 F4800.000
G1 X18.314 Y18.314 E48.07669 F840.000
G1 X-18.314 Y18.314 E50.52369 F840.000
G1 X-18.314 Y-18.314 E52.97069
G1 X18.314 Y-18.314 E55.41769
G1 X18.314 Y-0.420 E56.61313
G1 X17.779 Y-2.905 F4800.000
G1 X17.779 Y17.779 E57.99492 F840.000
G1 X-17.779 Y17.779 E60.37035 F840.000
G1 X-17.779 Y-17.779 E62.74579
G1 X17.779 Y-17.779 E65.12122
G1 X17.779 Y-2.965 E66.11086
G1 X17.457 Y-17.190 F4800.000
G1 X17.190 Y-17.457 E66.13624 F360.000
G1 X16.428 Y-17.457 E66.18738
G1 X17.457 Y-16.428 E66.28508
G1 X17.457 Y-15.667 E66.33622
G1 X15.667 Y-17.457 E66.50624
G1 X14.905 Y-17.457 E66.55738
G1 X17.457 Y-14.905 E66.79973
G1 X17.457 Y-14.144 E66.85087
G1 X14.144 Y-17.457 E67.16553
G1 X13.383 Y-17.457 E67.21667
G1 X17.457 Y-13.383 E67.60366
G1 X17.457 Y-12.621 E67.65480
G1 X12.621 Y-17.457 E68.11410
G1 X11.860 Y-17.457 E68.16524
G1 X17.457 Y-11.860 E68.69687
G1 X17.457 Y-11.098 E68.74801
G1 X11.098 Y-17.457 E69.35196
G1 X10.337 Y-17.457 E69.40310
G1 X17.457 Y-10.337 E70.07937
G1 X17.457 Y-9.575 E70.13051
G1 X9.575 Y-17.457 E70.87910
G1 X8.814 Y-17.457 E70.93024
G1 X17.457 Y-8.814 E71.75115
G1 X17.457 Y-8.052 E71.80229
G1 X8.052 Y-17.457 E72.69553
G1 X7.291 Y-17.457 E72.74667
G1 X17.457 Y-7.291 E73.71222
G1 X17.457 Y-6.529 E73.76336
G1 X6.529 Y-17.457 E74.80124
G1 X5.768 Y-17.457 E74.85238
G1 X17.457 Y-5.768 E75.96257
G1 X17.457 Y-5.006 E76.01371
G1 X5.006 Y-17.457 E77.19623
G1 X4.245 Y-17.457 E77.24737
G1 X17.457 Y-4.245 E78.50221
G1 X17.457 Y-3.483 E78.55335
G1 X3.483 Y-17.457 E79.88051
G1 X2.722 Y-17.457 E79.93165
G1 X17.457 Y-2.722 E81.33113
G1 X17.457 Y-1.960 E81.38227
G1 X1.960 Y-17.457 E82.85407
G1 X1.199 Y-17.457 E82.90521
G1 X17.457 Y-1.199 E84.44933
G1 X17.457 Y-0.437 E84.50047
G1 X0.437 Y-17.457 E86.11692
G1 X-0.324 Y-17.457 E86.16806
G1 X17.457 Y0.324 E87.85682
G1 X17.457 Y1.085 E87.90796
G1 X-1.085 Y-17.457 E89.66905
G1 X-1.847 Y-17.457 E89.72019
G1 X17.457 Y1.847 E91.55360
G1 X17.457 Y2.608 E91.60473
G1 X-2.608 Y-17.457 E93.51046
G1 X-3.370 Y-17.457 E93.56160
G1 X17.457 Y3.370 E95.53965
G1 X17.457 Y4.131 E95.59079
G1 X-4.131 Y-17.457 E97.64116
G1 X-4.893 Y-17.457 E97.69230
G1 X17.457 Y4.893 E99.81500
G1 X17.457 Y5.654 E99.86613
G1 X-5.654 Y-17.457 E102.06115
G1 X-6.416 Y-17.457 E102.11229
G1 X17.457 Y6.416 E104.37962
G1 X17.457 Y7.177 E104.43076
G1 X-7.177 Y-17.457 E106.77042
G1 X-7.939 Y-17.457 E106.82155
G1 X17.457 Y7.939 E109.23353
G1 X17.457 Y8.700 E109.28467
G1 X-8.700 Y-17.457 E111.76897
G1 X-9.462 Y-17.457 E111.82011
G1 X17.457 Y9.462 E114.37673
G1 X17.457 Y10.223 E114.42786
G1 X-10.223 Y-17.457 E117.05680
G1 X-10.985 Y-17.457 E117.10794
G1 X17.457 Y10.985 E119.80920
G1 X17.457 Y11.746 E119.86034
G1 X-11.746 Y-17.457 E122.63393
G1 X-12.508 Y-17.457 E122.68506
G1 X17.457 Y12.508 E125.53097
G1 X17.457 Y13.269 E125.58211
G1 X-13.269 Y-17.457 E128.50033
G1 X-14.031 Y-17.457 E128.55147
G1 X17.457 Y14.031 E131.54202
G1 X17.457 Y14.792 E131.59315
G1 X-14.792 Y-17.457 E134.65602
G1 X-15.553 Y-17.457 E134.70716
G1 X17.457 Y15.553 E137.84235
G1 X17.457 Y16.315 E137.89349
G1 X-16.315 Y-17.457 E141.10099
G1 X-17.076 Y-17.457 E141.15213
G1 X17.457 Y17.076 E144.43196
G1 X17.076 Y17.457 E144.46812
G1 X-17.457 Y-17.076 E147.74795
G1 X-17.457 Y-16.315 E147.79909
G1 X16.315 Y17.457 E151.00659
G1 X15.553 Y17.457 E151.05773
G1 X-17.457 Y-15.553 E154.19291
G1 X-17.457 Y-14.792 E154.24405
G1 X14.792 Y17.457 E157.30691
G1 X14.030 Y17.457 E157.35805
G1 X-17.457 Y-14.030 E160.34859
G1 X-17.457 Y-13.269 E160.39973
G1 X13.269 Y17.457 E163.31794
G1 X12.508 Y17.457 E163.36908
G1 X-17.457 Y-12.508 E166.21498
G1 X-17.457 Y-11.746 E166.26612
G1 X11.746 Y17.457 E169.03969
G1 X10.985 Y17.457 E169.09083
G1 X-17.457 Y-10.985 E171.79209
G1 X-17.457 Y-10.223 E171.84323
G1 X10.223 Y17.457 E174.47216
G1 X9.462 Y17.457 E174.52330
G1 X-17.457 Y-9.462 E177.07991
G1 X-17.457 Y-8.700 E177.13105
G1 X8.700 Y17.457 E179.61534
G1 X7.939 Y17.457 E179.66648
G1 X-17.457 Y-7.939 E182.07845
G1 X-17.457 Y-7.177 E182.12959
G1 X7.177 Y17.457 E184.46924
G1 X6.416 Y17.457 E184.52038
G1 X-17.457 Y-6.416 E186.78771
G1 X-17.457 Y-5.654 E186.83885
G1 X5.654 Y17.457 E189.03386
G1 X4.893 Y17.457 E189.08499
G1 X-17.457 Y-4.893 E191.20768
G1 X-17.457 Y-4.131 E191.25882
G1 X4.131 Y17.457 E193.30918
G1 X3.370 Y17.457 E193.36032
G1 X-17.457 Y-3.370 E195.33837
G1 X-17.457 Y-2.608 E195.38951
G1 X2.608 Y17.457 E197.29523
G1 X1.847 Y17.457 E197.34637
G1 X-17.457 Y-1.847 E199.17977
G1 X-17.457 Y-1.085 E199.23091
G1 X1.085 Y17.457 E200.99199
G1 X0.324 Y17.457 E201.04313
G1 X-17.457 Y-0.324 E202.73189
G1 X-17.457 Y0.438 E202.78303
G1 X-0.438 Y17.457 E204.39947
G1 X-1.199 Y17.457 E204.45061
G1 X-17.457 Y1.199 E205.99472
G1 X-17.457 Y1.960 E206.04586
G1 X-1.960 Y17.457 E207.51766
G1 X-2.722 Y17.457 E207.56880
G1 X-17.457 Y2.722 E208.96827
G1 X-17.457 Y3.483 E209.01941
G1 X-3.483 Y17.457 E210.34657
G1 X-4.245 Y17.457 E210.39771
G1 X-17.457 Y4.245 E211.65254
G1 X-17.457 Y5.006 E211.70368
G1 X-5.006 Y17.457 E212.88619
G1 X-5.768 Y17.457 E212.93733
G1 X-17.457 Y5.768 E214.04752
G1 X-17.457 Y6.529 E214.09866
G1 X-6.529 Y17.457 E215.13653
G1 X-7.291 Y17.457 E215.18767
G1 X-17.457 Y7.291 E216.15322
G1 X-17.457 Y8.052 E216.20436
G1 X-8.052 Y17.457 E217.09759
G1 X-8.814 Y17.457 E217.14872
G1 X-17.457 Y8.814 E217.96963
G1 X-17.457 Y9.575 E218.02077
G1 X-9.575 Y17.457 E218.76936
G1 X-10.337 Y17.457 E218.82050
G1 X-17.457 Y10.337 E219.49676
G1 X-17.457 Y11.098 E219.54790
G1 X-11.098 Y17.457 E220.15184
G1 X-11.860 Y17.457 E220.20298
G1 X-17.457 Y11.860 E220.73460
G1 X-17.457 Y12.621 E220.78574
G1 X-12.621 Y17.457 E221.24504
G1 X-13.383 Y17.457 E221.29618
G1 X-17.457 Y13.383 E221.68316
G1 X-17.457 Y14.144 E221.73430
G1 X-14.144 Y17.457 E222.04896
G1 X-14.906 Y17.457 E222.10010
G1 X-17.457 Y14.906 E222.34244
G1 X-17.457 Y15.667 E222.39358
G1 X-15.667 Y17.457 E222.56360
G1 X-16.428 Y17.457 E222.61474
G1 X-17.457 Y16.428 E222.71243
G1 X-17.457 Y17.190 E222.76357
G1 X-17.190 Y17.457 E222.78895
M106 S127.5
M104 S180 ; set temperature
G1 F3840
G1 X-17.457 Y17.190 E222.50851
G1 F3840
G1 X-17.457 Y16.428 E221.94336
G1 F3840
G1 X-16.428 Y17.457 E220.86367
G1 F3840
G1 X-15.667 Y17.457 E220.29851
G1 F3840
G1 X-17.457 Y15.667 E218.41958
G1 F3840
G1 X-17.457 Y14.906 E217.85442
G1 F3840
G1 X-16.728 Y15.635 E217.08895
G1 E216.78895 F3000.00000
G92 E0
G1 Z0.800 F4800.000
G1 X-17.190 Y19.200 F4800.000
G1 Z0.500 F4800.000
G1 E5.00000 F3000.00000
G1 X-19.200 Y19.200 E5.05968 F1050.000
G1 X-19.200 Y-19.200 E6.19983
G1 X19.200 Y-19.200 E7.33997
G1 X19.200 Y19.200 E8.48012
G1 X-17.130 Y19.200 E9.55880 F1050.000
G1 X-17.390 Y18.854 F4800.000
G1 X-17.130 Y18.707 F4800.000
G1 X-18.707 Y18.707 E9.64121 F2100.000
G1 X-18.707 Y-18.707 E11.59593
G1 X18.707 Y-18.707 E13.55065
G1 X18.707 Y18.707 E15.50538
G1 X-17.070 Y18.707 E17.37455 F2100.000
G1 X-4.909 Y18.079 F4800.000
G1 X-18.079 Y18.079 E18.06263 F2100.000
G1 X-18.079 Y-18.079 E19.95170
G1 X18.079 Y-18.079 E21.84077
G1 X18.079 Y18.079 E23.72984
G1 X-4.849 Y18.079 E24.92770 F2100.000
G1 X17.392 Y17.698 F4800.000
G1 X17.698 Y17.392 E24.95063 F900.000
G1 X17.698 Y16.492 E24.99823
G1 X16.492 Y17.698 E25.08848
G1 X15.592 Y17.698 E25.13608
G1 X17.698 Y15.592 E25.29364
G1 X17.698 Y14.692 E25.34124
G1 X14.692 Y17.698 E25.56611
G1 X13.793 Y17.698 E25.61371
G1 X17.698 Y13.793 E25.90590
G1 X17.698 Y12.893 E25.95349
G1 X12.893 Y17.698 E26.31299
G1 X11.993 Y17.698 E26.36059
G1 X17.698 Y11.993 E26.78741
G1 X17.698 Y11.093 E26.83500
G1 X11.093 Y17.698 E27.32913
G1 X10.194 Y17.698 E27.37673
G1 X17.698 Y10.194 E27.93817
G1 X17.698 Y9.294 E27.98577
G1 X9.294 Y17.698 E28.61452
G1 X8.394 Y17.698 E28.66212
G1 X17.698 Y8.394 E29.35818
G1 X17.698 Y7.494 E29.40578
G1 X7.494 Y17.698 E30.16916
G1 X6.595 Y17.698 E30.21676
G1 X17.698 Y6.595 E31.04745
G1 X17.698 Y5.695 E31.09505
G1 X5.695 Y17.698 E31.99305
G1 X4.795 Y17.698 E32.04065
G1 X17.698 Y4.795 E33.00597
G1 X17.698 Y3.896 E33.05356
G1 X3.896 Y17.698 E34.08619
G1 X2.996 Y17.698 E34.13379
G1 X17.698 Y2.996 E35.23374
G1 X17.698 Y2.096 E35.28133
G1 X2.096 Y17.698 E36.44859
G1 X1.196 Y17.698 E36.49619
G1 X17.698 Y1.196 E37.73076
G1 X17.698 Y0.297 E37.77835
G1 X0.297 Y17.698 E39.08024
G1 X-0.603 Y17.698 E39.12783
G1 X17.698 Y-0.603 E40.49703
G1 X17.698 Y-1.503 E40.54463
G1 X-1.503 Y17.698 E41.98114
G1 X-2.403 Y17.698 E42.02873
G1 X17.698 Y-2.403 E43.53256
G1 X17.698 Y-3.302 E43.58015
G1 X-3.302 Y17.698 E45.15129
G1 X-4.202 Y17.698 E45.19889
G1 X17.698 Y-4.202 E46.83733
G1 X17.698 Y-5.102 E46.88493
G1 X-5.102 Y17.698 E48.59069
G1 X-6.002 Y17.698 E48.63829
G1 X17.698 Y-6.002 E50.41136
G1 X17.698 Y-6.901 E50.45896
G1 X-6.901 Y17.698 E52.29935
G1 X-7.801 Y17.698 E52.34695
G1 X17.698 Y-7.801 E54.25465
G1 X17.698 Y-8.701 E54.30224
G1 X-8.701 Y17.698 E56.27726
G1 X-9.601 Y17.698 E56.32485
G1 X17.698 Y-9.601 E58.36718
G1 X17.698 Y-10.500 E58.41478
G1 X-10.500 Y17.698 E60.52441
G1 X-11.400 Y17.698 E60.57201
G1 X17.698 Y-11.400 E62.74896
G1 X17.698 Y-12.300 E62.79656
G1 X-12.300 Y17.698 E65.04083
G1 X-13.200 Y17.698 E65.08842
G1 X17.698 Y-13.200 E67.40000
G1 X17.698 Y-14.099 E67.44760
G1 X-14.099 Y17.698 E69.82649
G1 X-14.999 Y17.698 E69.87409
G1 X17.698 Y-14.999 E72.32029
G1 X17.698 Y-15.899 E72.36789
G1 X-15.899 Y17.698 E74.88141
G1 X-16.799 Y17.698 E74.92900
G1 X17.698 Y-16.799 E77.50983
G1 X17.678 Y-17.678 E77.55638
G1 X-17.678 Y17.678 E80.20153
G1 X-17.698 Y16.798 E80.24808
G1 X16.798 Y-17.698 E82.82891
G1 X15.899 Y-17.698 E82.87651
G1 X-17.698 Y15.899 E85.39002
G1 X-17.698 Y14.999 E85.43762
G1 X14.999 Y-17.698 E87.88382
G1 X14.099 Y-17.698 E87.93141
G1 X-17.698 Y14.099 E90.31030
G1 X-17.698 Y13.199 E90.35790
G1 X13.199 Y-17.698 E92.66947
G1 X12.300 Y-17.698 E92.71707
G1 X-17.698 Y12.300 E94.96133
G1 X-17.698 Y11.400 E95.00892
G1 X11.400 Y-17.698 E97.18587
G1 X10.500 Y-17.698 E97.23347
G1 X-17.698 Y10.500 E99.34310
G1 X-17.698 Y9.601 E99.39070
G1 X9.601 Y-17.698 E101.43302
G1 X8.701 Y-17.698 E101.48062
G1 X-17.698 Y8.701 E103.45563
G1 X-17.698 Y7.801 E103.50323
G1 X7.801 Y-17.698 E105.41092
G1 X6.901 Y-17.698 E105.45852
G1 X-17.698 Y6.901 E107.29890
G1 X-17.698 Y6.002 E107.34650
G1 X6.002 Y-17.698 E109.11957
G1 X5.102 Y-17.698 E109.16717
G1 X-17.698 Y5.102 E110.87292
G1 X-17.698 Y4.202 E110.92052
G1 X4.202 Y-17.698 E112.55896
G1 X3.302 Y-17.698 E112.60656
G1 X-17.698 Y3.302 E114.17769
G1 X-17.698 Y2.403 E114.22529
G1 X2.403 Y-17.698 E115.72910
G1 X1.503 Y-17.698 E115.77670
G1 X-17.698 Y1.503 E117.21321
G1 X-17.698 Y0.603 E117.26080
G1 X0.603 Y-17.698 E118.63000
G1 X-0.297 Y-17.698 E118.67759
G1 X-17.698 Y-0.297 E119.97947
G1 X-17.698 Y-1.196 E120.02707
G1 X-1.196 Y-17.698 E121.26163
G1 X-2.096 Y-17.698 E121.30923
G1 X-17.698 Y-2.096 E122.47648
G1 X-17.698 Y-2.996 E122.52408
G1 X-2.996 Y-17.698 E123.62402
G1 X-3.896 Y-17.698 E123.67162
G1 X-17.698 Y-3.896 E124.70424
G1 X-17.698 Y-4.795 E124.75184
G1 X-4.795 Y-17.698 E125.71715
G1 X-5.695 Y-17.698 E125.76475
G1 X-17.698 Y-5.695 E126.66275
G1 X-17.698 Y-6.595 E126.71035
G1 X-6.595 Y-17.698 E127.54104
G1 X-7.495 Y-17.698 E127.58863
G1 X-17.698 Y-7.495 E128.35201
G1 X-17.698 Y-8.394 E128.39961
G1 X-8.394 Y-17.698 E129.09567
G1 X-9.294 Y-17.698 E129.14327
G1 X-17.698 Y-9.294 E129.77201
G1 X-17.698 Y-10.194 E129.81961
G1 X-10.194 Y-17.698 E130.38105
G1 X-11.094 Y-17.698 E130.42864
G1 X-17.698 Y-11.094 E130.92277
G1 X-17.698 Y-11.993 E130.97036
G1 X-11.993 Y-17.698 E131.39717
G1 X-12.893 Y-17.698 E131.44477
G1 X-17.698 Y-12.893 E131.80427
G1 X-17.698 Y-13.793 E131.85186
G1 X-13.793 Y-17.698 E132.14405
G1 X-14.692 Y-17.698 E132.19165
G1 X-17.698 Y-14.692 E132.41652
G1 X-17.698 Y-15.592 E132.46411
G1 X-15.592 Y-17.698 E132.62167
G1 X-16.492 Y-17.698 E132.66927
G1 X-17.698 Y-16.492 E132.75951
G1 X-17.698 Y-17.392 E132.80711
G1 X-17.392 Y-17.698 E132.83004
G1 F3840
G1 X-17.698 Y-17.392 E132.50832
G1 F3840
G1 X-17.698 Y-16.492 E131.84055
G1 F3840
G1 X-16.492 Y-17.698 E130.57445
G1 F3840
G1 X-15.592 Y-17.698 E129.90667
G1 F3840
G1 X-17.698 Y-15.592 E127.69620
G1 F3840
G1 X-17.698 Y-14.829 E127.13004
G1 E126.83004 F3000.00000
G92 E0
G1 Z1.000 F4800.000
G1 X-17.392 Y-19.400 F4800.000
G1 Z0.700 F4800.000
G1 E5.00000 F3000.00000
G1 X19.400 Y-19.400 E6.09239 F1050.000
G1 X19.400 Y19.400 E7.24442
G1 X-19.400 Y19.400 E8.39644 F1050.000
G1 X-19.400 Y-19.400 E9.54846
G1 X-17.452 Y-19.400 E9.60631
G1 X-17.192 Y-19.054 F4800.000
G1 X-17.452 Y-18.907 F4800.000
G1 X18.907 Y-18.907 E11.50588 F2100.000
G1 X18.907 Y18.907 E13.48150
G1 X-18.907 Y18.907 E15.45712 F2100.000
G1 X-18.907 Y-18.907 E17.43274
G1 X-17.512 Y-18.907 E17.50565
G1 X18.279 Y-1.320 F4800.000
G1 X18.279 Y18.279 E18.52961 F2100.000
G1 X-18.279 Y18.279 E20.43958 F2100.000
