; generated by Slic3r 1.2.9 on 2020-05-24 at 17:44:09

; external perimeters extrusion width = 0.40mm
; perimeters extrusion width = 0.67mm
; infill extrusion width = 0.67mm
; solid infill extrusion width = 0.67mm
; top infill extrusion width = 0.67mm
; support material extrusion width = 0.40mm

M190 S65 ; set bed temperature
M104 S190 ; set temperature
G28 ; home all axes
G1 Z5 F5000 ; lift nozzle

M109 S190 ; wait for temperature to be reached
G21 ; set units to millimeters
G90 ; use absolute coordinates
M82 ; use absolute distances for extrusion
G92 E0
G1 Z0.400 F7800.000
G1 E-2.00000 F2400.00000
G92 E0
G1 X17.428 Y0.000 F7800.000
G1 E2.00000 F2400.00000
G1 X17.428 Y10.000 E3.06889 F1800.000
G1 X17.031 Y12.397 E3.32858
G1 X15.882 Y14.537 E3.58827
G1 X14.103 Y16.192 E3.84796
G1 X11.886 Y17.185 E4.10765
G1 X10.000 Y17.428 E4.31086
G1 X-10.000 Y17.428 E6.44863
G1 X-12.397 Y17.031 E6.70832
G1 X-14.537 Y15.882 E6.96801
G1 X-16.192 Y14.103 E7.22770
G1 X-17.185 Y11.886 E7.48739
G1 X-17.428 Y10.000 E7.69060
G1 X-17.428 Y-10.000 E9.82838
G1 X-17.031 Y-12.397 E10.08807
G1 X-15.882 Y-14.537 E10.34776
G1 X-14.103 Y-16.192 E10.60745
G1 X-11.886 Y-17.185 E10.86714
G1 X-10.000 Y-17.428 E11.07035
G1 X10.000 Y-17.428 E13.20812
G1 X12.397 Y-17.031 E13.46781
G1 X14.537 Y-15.882 E13.72750 F1800.000
G1 X16.192 Y-14.103 E13.98719
G1 X17.185 Y-11.886 E14.24688
G1 X17.428 Y-10.000 E14.45009
G1 X17.428 Y-0.060 E15.51257
G1 X16.714 Y0.000 F7800.000
G1 X16.714 Y10.000 E16.58145 F1800.000
G1 X16.317 Y12.275 E16.82825
G1 X15.173 Y14.280 E17.07506
G1 X13.417 Y15.780 E17.32186
G1 X11.257 Y16.595 E17.56866
G1 X10.000 Y16.714 E17.70363
G1 X-10.000 Y16.714 E19.84140
G1 X-12.275 Y16.317 E20.08821
G1 X-14.280 Y15.173 E20.33501
G1 X-15.780 Y13.417 E20.58181
G1 X-16.595 Y11.257 E20.82861
G1 X-16.714 Y10.000 E20.96358
G1 X-16.714 Y-10.000 E23.10136
G1 X-16.317 Y-12.275 E23.34816
G1 X-15.173 Y-14.280 E23.59496
G1 X-13.417 Y-15.780 E23.84176
G1 X-11.257 Y-16.595 E24.08857
G1 X-10.000 Y-16.714 E24.22354
G1 X10.000 Y-16.714 E26.36131
G1 X12.275 Y-16.317 E26.60811
G1 X14.280 Y-15.173 E26.85491 F1800.000
G1 X15.780 Y-13.417 E27.10172
G1 X16.595 Y-11.257 E27.34852
G1 X16.714 Y-10.000 E27.48349
G1 X16.714 Y-0.060 E28.54596
G1 E26.54596 F2400.00000
G92 E0
G1 X8.114 Y-8.114 F7800.000
G1 E2.00000 F2400.00000
G1 X8.114 Y8.114 E3.73462 F1200.000
G1 X-8.114 Y8.114 E5.46925
G1 X-8.114 Y-8.114 E7.20387
G1 X8.054 Y-8.114 E8.93208
G1 X7.400 Y-7.400 F7800.000
G1 X7.400 Y7.400 E10.51403 F600.000
G1 X-7.400 Y7.400 E12.09598
G1 X-7.400 Y-7.400 E13.67793
G1 X7.340 Y-7.400 E15.25347
G1 X7.800 Y-7.400 F7800.000
G1 X8.886 Y-8.886 F7800.000
G1 X8.886 Y8.886 E17.15306 F1200.000
G1 X-8.886 Y8.886 E19.05266
G1 X-8.886 Y-8.886 E20.95225
G1 X8.826 Y-8.886 E22.84542
G1 X9.600 Y-9.600 F7800.000
G1 X9.600 Y9.600 E24.89769 F600.000
G1 X-9.600 Y9.600 E26.94995
G1 X-9.600 Y-9.600 E29.00221
G1 X9.540 Y-9.600 E31.04806
G1 X9.400 Y-9.254 F7800.000
G1 X8.495 Y-8.495 F7800.000
G1 X8.495 Y8.495 E32.86411 F600.000
G1 X-8.495 Y8.495 E34.68017
G1 X-8.495 Y-8.495 E36.49622
G1 X8.436 Y-8.500 E38.30591
G1 Z0.400 F7800.000
M106 S89.25
M104 S185 ; set temperature
M140 S60 ; wait for bed temperature to be reached
G1 Z0.600 F7800.000
G1 X7.693 Y-7.693 F7800.000
G1 X7.693 Y7.693 E39.02934 F2400.000
G1 X-7.693 Y7.693 E39.75277
G1 X-7.693 Y-7.693 E40.47619
G1 X7.633 Y-7.693 E41.19680
G1 X7.200 Y-7.200 F7800.000
G1 X7.200 Y7.200 E41.58160 F1200.000
G1 X-7.200 Y7.200 E41.96640
G1 X-7.200 Y-7.200 E42.35120
G1 X7.140 Y-7.200 E42.73439
G1 X7.600 Y-7.200 F7800.000
G1 X9.307 Y-9.307 F7800.000
G1 X9.307 Y9.307 E43.60966 F2400.000
G1 X-9.307 Y9.307 E44.48493
G1 X-9.307 Y-9.307 E45.36019
G1 X9.247 Y-9.307 E46.23264
G1 X9.800 Y-9.800 F7800.000
G1 X9.800 Y9.800 E46.75639 F1200.000
G1 X-9.800 Y9.800 E47.28015
G1 X-9.800 Y-9.800 E47.80390
G1 X9.740 Y-9.800 E48.32605
G1 X9.600 Y-9.454 F7800.000
G1 X8.415 Y-8.415 F7800.000
G1 X8.500 Y-8.007 E48.36663 F1200.000
G1 X8.500 Y8.007 E49.92400
G1 X8.415 Y8.415 E49.96458
G1 X8.007 Y8.500 E50.00515
G1 X-8.007 Y8.500 E51.56253
G1 X-8.415 Y8.415 E51.60310
G1 X-8.500 Y8.007 E51.64367
G1 X-8.500 Y-8.007 E53.20105
G1 X-8.415 Y-8.415 E53.24162
G1 X-8.007 Y-8.500 E53.28220
G1 X8.007 Y-8.500 E54.83957
G1 X8.357 Y-8.428 E54.87431
G1 Z0.800 F7800.000
G1 X7.693 Y-7.693 F7800.000
G1 X7.693 Y7.693 E55.59774 F2400.000
G1 X-7.693 Y7.693 E56.32117
G1 X-7.693 Y-7.693 E57.04460
G1 X7.633 Y-7.693 E57.76520
G1 X7.200 Y-7.200 F7800.000
G1 X7.200 Y7.200 E58.15000 F1200.000
G1 X-7.200 Y7.200 E58.53480
G1 X-7.200 Y-7.200 E58.91960
G1 X7.140 Y-7.200 E59.30280
G1 X7.600 Y-7.200 F7800.000
G1 X9.307 Y-9.307 F7800.000
G1 X9.307 Y9.307 E60.17806 F2400.000
G1 X-9.307 Y9.307 E61.05333
G1 X-9.307 Y-9.307 E61.92859
G1 X9.247 Y-9.307 E62.80104
G1 X9.800 Y-9.800 F7800.000
G1 X9.800 Y9.800 E63.32479 F1200.000
G1 X-9.800 Y9.800 E63.84855
G1 X-9.800 Y-9.800 E64.37230
G1 X9.740 Y-9.800 E64.89445
G1 X9.600 Y-9.454 F7800.000
G1 X8.415 Y-8.415 F7800.000
G1 X8.500 Y-8.007 E64.93503 F1200.000
G1 X8.500 Y8.007 E66.49240
G1 X8.415 Y8.415 E66.53298
G1 X8.007 Y8.500 E66.57355
G1 X-8.007 Y8.500 E68.13093
G1 X-8.415 Y8.415 E68.17150
G1 X-8.500 Y8.007 E68.21208
G1 X-8.500 Y-8.007 E69.76945
G1 X-8.415 Y-8.415 E69.81003
G1 X-8.007 Y-8.500 E69.85060
G1 X8.007 Y-8.500 E71.40798
G1 X8.357 Y-8.428 E71.44272
G1 Z1.000 F7800.000
G1 X7.693 Y-7.693 F7800.000
G1 X7.693 Y7.693 E72.16614 F2400.000
G1 X-7.693 Y7.693 E72.88957
G1 X-7.693 Y-7.693 E73.61300
G1 X7.633 Y-7.693 E74.33360
G1 X7.200 Y-7.200 F7800.000
G1 X7.200 Y7.200 E74.71840 F1200.000
G1 X-7.200 Y7.200 E75.10320
G1 X-7.200 Y-7.200 E75.48800
G1 X7.140 Y-7.200 E75.87120
G1 X7.600 Y-7.200 F7800.000
G1 X9.307 Y-9.307 F7800.000
G1 X9.307 Y9.307 E76.74646 F2400.000
G1 X-9.307 Y9.307 E77.62173
G1 X-9.307 Y-9.307 E78.49700
G1 X9.247 Y-9.307 E79.36944
G1 X9.800 Y-9.800 F7800.000
G1 X9.800 Y9.800 E79.89320 F1200.000
G1 X-9.800 Y9.800 E80.41695
G1 X-9.800 Y-9.800 E80.94070
G1 X9.740 Y-9.800 E81.46286
G1 X9.600 Y-9.454 F7800.000
G1 X8.415 Y-8.415 F7800.000
G1 X8.500 Y-8.007 E81.50343 F1200.000
G1 X8.500 Y8.007 E83.06081
G1 X8.415 Y8.415 E83.10138
G1 X8.007 Y8.500 E83.14195
G1 X-8.007 Y8.500 E84.69933
G1 X-8.415 Y8.415 E84.73990
G1 X-8.500 Y8.007 E84.78048
G1 X-8.500 Y-8.007 E86.33785
G1 X-8.415 Y-8.415 E86.37843
G1 X-8.007 Y-8.500 E86.41900
G1 X8.007 Y-8.500 E87.97638
G1 X8.357 Y-8.428 E88.01112
G1 Z1.200 F7800.000
G1 X7.693 Y-7.693 F7800.000
G1 X7.693 Y7.693 E88.73455 F2400.000
G1 X-7.693 Y7.693 E89.45797
G1 X-7.693 Y-7.693 E90.18140
G1 X7.633 Y-7.693 E90.90201
G1 X7.200 Y-7.200 F7800.000
G1 X7.200 Y7.200 E91.28681 F1200.000
G1 X-7.200 Y7.200 E91.67161
G1 X-7.200 Y-7.200 E92.05640
G1 X7.140 Y-7.200 E92.43960
G1 X7.600 Y-7.200 F7800.000
G1 X9.307 Y-9.307 F7800.000
G1 X9.307 Y9.307 E93.31487 F2400.000
G1 X-9.307 Y9.307 E94.19013
G1 X-9.307 Y-9.307 E95.06540
G1 X9.247 Y-9.307 E95.93784
G1 X9.800 Y-9.800 F7800.000
G1 X9.800 Y9.800 E96.46160 F1200.000
G1 X-9.800 Y9.800 E96.98535
G1 X-9.800 Y-9.800 E97.50911
G1 X9.740 Y-9.800 E98.03126
G1 X9.600 Y-9.454 F7800.000
G1 X8.415 Y-8.415 F7800.000
G1 X8.500 Y-8.007 E98.07183 F1200.000
G1 X8.500 Y8.007 E99.62921
G1 X8.415 Y8.415 E99.66978
G1 X8.007 Y8.500 E99.71036
G1 X-8.007 Y8.500 E101.26773
G1 X-8.415 Y8.415 E101.30831
G1 X-8.500 Y8.007 E101.34888
G1 X-8.500 Y-8.007 E102.90626
G1 X-8.415 Y-8.415 E102.94683
G1 X-8.007 Y-8.500 E102.98740
G1 X8.007 Y-8.500 E104.54478
G1 X8.357 Y-8.428 E104.57952
G1 Z1.400 F7800.000
G1 X7.693 Y-7.693 F7800.000
G1 X7.693 Y7.693 E105.30295 F2400.000
G1 X-7.693 Y7.693 E106.02638
G1 X-7.693 Y-7.693 E106.74980
G1 X7.633 Y-7.693 E107.47041
G1 X7.200 Y-7.200 F7800.000
G1 X7.200 Y7.200 E107.85521 F1200.000
G1 X-7.200 Y7.200 E108.24001
G1 X-7.200 Y-7.200 E108.62481
G1 X7.140 Y-7.200 E109.00800
G1 X7.600 Y-7.200 F7800.000
G1 X9.307 Y-9.307 F7800.000
G1 X9.307 Y9.307 E109.88327 F2400.000
G1 X-9.307 Y9.307 E110.75854
G1 X-9.307 Y-9.307 E111.63380
G1 X9.247 Y-9.307 E112.50625
G1 X9.800 Y-9.800 F7800.000
G1 X9.800 Y9.800 E113.03000 F1200.000
G1 X-9.800 Y9.800 E113.55376
G1 X-9.800 Y-9.800 E114.07751
G1 X9.740 Y-9.800 E114.59966
G1 X9.600 Y-9.454 F7800.000
G1 X8.415 Y-8.415 F7800.000
G1 X8.500 Y-8.007 E114.64023 F1200.000
G1 X8.500 Y8.007 E116.19761
G1 X8.415 Y8.415 E116.23818
G1 X8.007 Y8.500 E116.27876
G1 X-8.007 Y8.500 E117.83614
G1 X-8.415 Y8.415 E117.87671
G1 X-8.500 Y8.007 E117.91728
G1 X-8.500 Y-8.007 E119.47466
G1 X-8.415 Y-8.415 E119.51523
G1 X-8.007 Y-8.500 E119.55581
G1 X8.007 Y-8.500 E121.11318
G1 X8.357 Y-8.428 E121.14792
G1 Z1.600 F7800.000
G1 X7.693 Y-7.693 F7800.000
G1 X7.693 Y7.693 E121.87135 F2400.000
G1 X-7.693 Y7.693 E122.59478
G1 X-7.693 Y-7.693 E123.31821
G1 X7.633 Y-7.693 E124.03881
G1 X7.200 Y-7.200 F7800.000
G1 X7.200 Y7.200 E124.42361 F1200.000
G1 X-7.200 Y7.200 E124.80841
G1 X-7.200 Y-7.200 E125.19321
G1 X7.140 Y-7.200 E125.57641
G1 X7.600 Y-7.200 F7800.000
G1 X9.307 Y-9.307 F7800.000
G1 X9.307 Y9.307 E126.45167 F2400.000
G1 X-9.307 Y9.307 E127.32694
G1 X-9.307 Y-9.307 E128.20220
G1 X9.247 Y-9.307 E129.07465
G1 X9.800 Y-9.800 F7800.000
G1 X9.800 Y9.800 E129.59840 F1200.000
G1 X-9.800 Y9.800 E130.12216
G1 X-9.800 Y-9.800 E130.64591
G1 X9.740 Y-9.800 E131.16806
G1 X9.600 Y-9.454 F7800.000
G1 X8.415 Y-8.415 F7800.000
G1 X8.500 Y-8.007 E131.20864 F1200.000
G1 X8.500 Y8.007 E132.76601
G1 X8.415 Y8.415 E132.80659
G1 X8.007 Y8.500 E132.84716
G1 X-8.007 Y8.500 E134.40454
G1 X-8.415 Y8.415 E134.44511
G1 X-8.500 Y8.007 E134.48569
G1 X-8.500 Y-8.007 E136.04306
G1 X-8.415 Y-8.415 E136.08364
G1 X-8.007 Y-8.500 E136.12421
G1 X8.007 Y-8.500 E137.68159
G1 X8.357 Y-8.428 E137.71632
G1 Z1.800 F7800.000
G1 X7.693 Y-7.693 F7800.000
G1 X7.693 Y7.693 E138.43975 F2400.000
G1 X-7.693 Y7.693 E139.16318
G1 X-7.693 Y-7.693 E139.88661
G1 X7.633 Y-7.693 E140.60721
G1 X7.200 Y-7.200 F7800.000
G1 X7.200 Y7.200 E140.99201 F1200.000
G1 X-7.200 Y7.200 E141.37681
G1 X-7.200 Y-7.200 E141.76161
G1 X7.140 Y-7.200 E142.14481
G1 X7.600 Y-7.200 F7800.000
G1 X9.307 Y-9.307 F7800.000
G1 X9.307 Y9.307 E143.02007 F2400.000
G1 X-9.307 Y9.307 E143.89534
G1 X-9.307 Y-9.307 E144.77061
G1 X9.247 Y-9.307 E145.64305
G1 X9.800 Y-9.800 F7800.000
G1 X9.800 Y9.800 E146.16681 F1200.000
G1 X-9.800 Y9.800 E146.69056
G1 X-9.800 Y-9.800 E147.21431
G1 X9.740 Y-9.800 E147.73647
G1 X9.600 Y-9.454 F7800.000
G1 X8.415 Y-8.415 F7800.000
G1 X8.500 Y-8.007 E147.77704 F1200.000
G1 X8.500 Y8.007 E149.33442
G1 X8.415 Y8.415 E149.37499
G1 X8.007 Y8.500 E149.41556
G1 X-8.007 Y8.500 E150.97294
G1 X-8.415 Y8.415 E151.01351
G1 X-8.500 Y8.007 E151.05409
G1 X-8.500 Y-8.007 E152.61146
G1 X-8.415 Y-8.415 E152.65204
G1 X-8.007 Y-8.500 E152.69261
G1 X8.007 Y-8.500 E154.24999
G1 X8.357 Y-8.428 E154.28473
G1 Z2.000 F7800.000
G1 X7.693 Y-7.693 F7800.000
G1 X7.693 Y7.693 E155.00815 F2400.000
G1 X-7.693 Y7.693 E155.73158
G1 X-7.693 Y-7.693 E156.45501
G1 X7.633 Y-7.693 E157.17562
G1 X7.200 Y-7.200 F7800.000
G1 X7.200 Y7.200 E157.56042 F1200.000
G1 X-7.200 Y7.200 E157.94521
G1 X-7.200 Y-7.200 E158.33001
G1 X7.140 Y-7.200 E158.71321
G1 X7.600 Y-7.200 F7800.000
G1 X9.307 Y-9.307 F7800.000
G1 X9.307 Y9.307 E159.58848 F2400.000
G1 X-9.307 Y9.307 E160.46374
G1 X-9.307 Y-9.307 E161.33901
G1 X9.247 Y-9.307 E162.21145
G1 X9.800 Y-9.800 F7800.000
G1 X9.800 Y9.800 E162.73521 F1200.000
G1 X-9.800 Y9.800 E163.25896
G1 X-9.800 Y-9.800 E163.78272
G1 X9.740 Y-9.800 E164.30487
G1 X9.600 Y-9.454 F7800.000
G1 X8.415 Y-8.415 F7800.000
G1 X8.500 Y-8.007 E164.34544 F1200.000
G1 X8.500 Y8.007 E165.90282
G1 X8.415 Y8.415 E165.94339
G1 X8.007 Y8.500 E165.98397
G1 X-8.007 Y8.500 E167.54134
G1 X-8.415 Y8.415 E167.58192
G1 X-8.500 Y8.007 E167.62249
G1 X-8.500 Y-8.007 E169.17987
G1 X-8.415 Y-8.415 E169.22044
G1 X-8.007 Y-8.500 E169.26101
G1 X8.007 Y-8.500 E170.81839
G1 X8.357 Y-8.428 E170.85313
G1 Z2.200 F7800.000
G1 X7.693 Y-7.693 F7800.000
G1 X7.693 Y7.693 E171.57656 F2400.000
G1 X-7.693 Y7.693 E172.29998
G1 X-7.693 Y-7.693 E173.02341
G1 X7.633 Y-7.693 E173.74402
G1 X7.200 Y-7.200 F7800.000
G1 X7.200 Y7.200 E174.12882 F1200.000
G1 X-7.200 Y7.200 E174.51362
G1 X-7.200 Y-7.200 E174.89842
G1 X7.140 Y-7.200 E175.28161
G1 X7.600 Y-7.200 F7800.000
G1 X9.307 Y-9.307 F7800.000
G1 X9.307 Y9.307 E176.15688 F2400.000
G1 X-9.307 Y9.307 E177.03214
G1 X-9.307 Y-9.307 E177.90741
G1 X9.247 Y-9.307 E178.77986
G1 X9.800 Y-9.800 F7800.000
G1 X9.800 Y9.800 E179.30361 F1200.000
G1 X-9.800 Y9.800 E179.82736
G1 X-9.800 Y-9.800 E180.35112
G1 X9.740 Y-9.800 E180.87327
G1 X9.600 Y-9.454 F7800.000
G1 X8.415 Y-8.415 F7800.000
G1 X8.500 Y-8.007 E180.91384 F1200.000
G1 X8.500 Y8.007 E182.47122
G1 X8.415 Y8.415 E182.51179
G1 X8.007 Y8.500 E182.55237
G1 X-8.007 Y8.500 E184.10974
G1 X-8.415 Y8.415 E184.15032
G1 X-8.500 Y8.007 E184.19089
G1 X-8.500 Y-8.007 E185.74827
G1 X-8.415 Y-8.415 E185.78884
G1 X-8.007 Y-8.500 E185.82942
G1 X8.007 Y-8.500 E187.38679
G1 X8.357 Y-8.428 E187.42153
G1 Z2.400 F7800.000
G1 X7.693 Y-7.693 F7800.000
G1 X7.693 Y7.693 E188.14496 F2400.000
G1 X-7.693 Y7.693 E188.86839
G1 X-7.693 Y-7.693 E189.59181
G1 X7.633 Y-7.693 E190.31242
G1 X7.200 Y-7.200 F7800.000
G1 X7.200 Y7.200 E190.69722 F1200.000
G1 X-7.200 Y7.200 E191.08202
G1 X-7.200 Y-7.200 E191.46682
G1 X7.140 Y-7.200 E191.85001
G1 X7.600 Y-7.200 F7800.000
G1 X9.307 Y-9.307 F7800.000
G1 X9.307 Y9.307 E192.72528 F2400.000
G1 X-9.307 Y9.307 E193.60055
G1 X-9.307 Y-9.307 E194.47581
G1 X9.247 Y-9.307 E195.34826
G1 X9.800 Y-9.800 F7800.000
G1 X9.800 Y9.800 E195.87201 F1200.000
G1 X-9.800 Y9.800 E196.39577
G1 X-9.800 Y-9.800 E196.91952
G1 X9.740 Y-9.800 E197.44167
G1 X9.600 Y-9.454 F7800.000
G1 X8.415 Y-8.415 F7800.000
G1 X8.500 Y-8.007 E197.48225 F1200.000
G1 X8.500 Y8.007 E199.03962
G1 X8.415 Y8.415 E199.08020
G1 X8.007 Y8.500 E199.12077
G1 X-8.007 Y8.500 E200.67815
G1 X-8.415 Y8.415 E200.71872
G1 X-8.500 Y8.007 E200.75929
G1 X-8.500 Y-8.007 E202.31667
G1 X-8.415 Y-8.415 E202.35725
G1 X-8.007 Y-8.500 E202.39782
G1 X8.007 Y-8.500 E203.95520
G1 X8.357 Y-8.428 E203.98993
G1 Z2.600 F7800.000
G1 X7.693 Y-7.693 F7800.000
G1 X7.693 Y7.693 E204.71336 F2400.000
G1 X-7.693 Y7.693 E205.43679
G1 X-7.693 Y-7.693 E206.16022
G1 X7.633 Y-7.693 E206.88082
G1 X7.200 Y-7.200 F7800.000
G1 X7.200 Y7.200 E207.26562 F1200.000
G1 X-7.200 Y7.200 E207.65042
G1 X-7.200 Y-7.200 E208.03522
G1 X7.140 Y-7.200 E208.41842
G1 X7.600 Y-7.200 F7800.000
G1 X9.307 Y-9.307 F7800.000
G1 X9.307 Y9.307 E209.29368 F2400.000
G1 X-9.307 Y9.307 E210.16895
G1 X-9.307 Y-9.307 E211.04422
G1 X9.247 Y-9.307 E211.91666
G1 X9.800 Y-9.800 F7800.000
G1 X9.800 Y9.800 E212.44041 F1200.000
G1 X-9.800 Y9.800 E212.96417
G1 X-9.800 Y-9.800 E213.48792
G1 X9.740 Y-9.800 E214.01007
G1 X9.600 Y-9.454 F7800.000
G1 X8.415 Y-8.415 F7800.000
G1 X8.500 Y-8.007 E214.05065 F1200.000
G1 X8.500 Y8.007 E215.60802
G1 X8.415 Y8.415 E215.64860
G1 X8.007 Y8.500 E215.68917
G1 X-8.007 Y8.500 E217.24655
G1 X-8.415 Y8.415 E217.28712
G1 X-8.500 Y8.007 E217.32770
G1 X-8.500 Y-8.007 E218.88507
G1 X-8.415 Y-8.415 E218.92565
G1 X-8.007 Y-8.500 E218.96622
G1 X8.007 Y-8.500 E220.52360
G1 X8.357 Y-8.428 E220.55834
G1 Z2.800 F7800.000
G1 X7.693 Y-7.693 F7800.000
G1 X7.693 Y7.693 E221.28176 F2400.000
G1 X-7.693 Y7.693 E222.00519
G1 X-7.693 Y-7.693 E222.72862
G1 X7.633 Y-7.693 E223.44923
G1 X7.200 Y-7.200 F7800.000
G1 X7.200 Y7.200 E223.83403 F1200.000
G1 X-7.200 Y7.200 E224.21882
G1 X-7.200 Y-7.200 E224.60362
G1 X7.140 Y-7.200 E224.98682
G1 X7.600 Y-7.200 F7800.000
G1 X9.307 Y-9.307 F7800.000
G1 X9.307 Y9.307 E225.86209 F2400.000
G1 X-9.307 Y9.307 E226.73735
G1 X-9.307 Y-9.307 E227.61262
G1 X9.247 Y-9.307 E228.48506
G1 X9.800 Y-9.800 F7800.000
G1 X9.800 Y9.800 E229.00882 F1200.000
G1 X-9.800 Y9.800 E229.53257
G1 X-9.800 Y-9.800 E230.05633
G1 X9.740 Y-9.800 E230.57848
G1 X9.600 Y-9.454 F7800.000
G1 X8.415 Y-8.415 F7800.000
G1 X8.500 Y-8.007 E230.61905 F1200.000
G1 X8.500 Y8.007 E232.17643
G1 X8.415 Y8.415 E232.21700
G1 X8.007 Y8.500 E232.25758
G1 X-8.007 Y8.500 E233.81495
G1 X-8.415 Y8.415 E233.85553
G1 X-8.500 Y8.007 E233.89610
G1 X-8.500 Y-8.007 E235.45348
G1 X-8.415 Y-8.415 E235.49405
G1 X-8.007 Y-8.500 E235.53462
G1 X8.007 Y-8.500 E237.09200
