;FLAVOR:Marlin
;TIME:1234
;Filament used: 1.4525m
;Layer height: 0.15
;MINX:-27.65
;MINY:-27.65
;MINZ:0.3
;MAXX:27.649
;MAXY:27.65
;MAXZ:2.85
;Generated with Cura_SteamEngine 4.6.1
M140 S65
M105
M190 S65
M104 S190
M105
M109 S190
M82 ;absolute extrusion mode
G21 ;metric values
G90 ;absolute positioning
M82 ;set extruder to absolute mode
M107 ;start with the fan off
G28 ;Home all axes (max endstops)
G1 Z15.0 F9000 ;move the platform down 15mm
G92 E0 ;zero the extruded length
G1 F200 E3 ;extrude 3mm of feed stock
G92 E0 ;zero the extruded length again
G1 F9000
;Put printing message on LCD screen
M117 Printing...
G92 E0
G92 E0
G1 F1500 E-1
;LAYER_COUNT:18
;LAYER:0
M107
G0 F3600 X-27.65 Y-19.846 Z0.3
;TYPE:SKIRT
G1 F1500 E0
G1 X-27.61 Y-20.635 E0.07883
G1 X-27.491 Y-21.416 E0.15766
G1 X-27.294 Y-22.18 E0.23638
G1 X-27.02 Y-22.921 E0.31521
G1 X-26.673 Y-23.63 E0.39397
G1 X-26.256 Y-24.301 E0.4728
G1 X-25.773 Y-24.926 E0.55162
G1 X-25.229 Y-25.498 E0.63038
G1 X-24.63 Y-26.013 E0.7092
G1 X-23.983 Y-26.465 E0.78796
G1 X-23.293 Y-26.849 E0.86675
G1 X-22.567 Y-27.161 E0.94559
G1 X-21.814 Y-27.399 E1.02439
G1 X-21.041 Y-27.559 E1.10316
G1 X-20.255 Y-27.639 E1.18199
G1 X19.85 Y-27.65 E5.18368
G1 X20.639 Y-27.61 E5.26251
G1 X21.419 Y-27.491 E5.34124
G1 X22.184 Y-27.293 E5.42009
G1 X22.924 Y-27.019 E5.49882
G1 X23.633 Y-26.671 E5.57763
G1 X24.304 Y-26.253 E5.65651
G1 X24.928 Y-25.77 E5.73525
G1 X25.501 Y-25.227 E5.81402
G1 X26.016 Y-24.628 E5.89284
G1 X26.467 Y-23.98 E5.97161
G1 X26.851 Y-23.289 E6.05049
G1 X27.163 Y-22.564 E6.12925
G1 X27.4 Y-21.811 E6.20802
G1 X27.559 Y-21.037 E6.28686
G1 X27.64 Y-20.252 E6.3656
G1 X27.649 Y19.849 E10.3669
G1 X27.609 Y20.638 E10.44573
G1 X27.489 Y21.418 E10.52447
G1 X27.292 Y22.183 E10.60329
G1 X27.017 Y22.924 E10.68216
G1 X26.67 Y23.633 E10.76092
G1 X26.252 Y24.303 E10.83972
G1 X25.769 Y24.927 E10.91845
G1 X25.225 Y25.5 E10.99729
G1 X24.626 Y26.015 E11.07611
G1 X23.979 Y26.466 E11.15481
G1 X23.288 Y26.85 E11.23368
G1 X22.563 Y27.162 E11.31244
G1 X21.809 Y27.399 E11.3913
G1 X21.036 Y27.558 E11.47005
G1 X20.251 Y27.639 E11.54879
G1 X-19.85 Y27.65 E15.55009
G1 X-20.638 Y27.61 E15.62881
G1 X-21.419 Y27.491 E15.70764
G1 X-22.184 Y27.293 E15.78649
G1 X-22.924 Y27.019 E15.86523
G1 X-23.633 Y26.671 E15.94403
G1 X-24.304 Y26.254 E16.02286
G1 X-24.928 Y25.77 E16.10166
G1 X-25.501 Y25.227 E16.18043
G1 X-26.015 Y24.628 E16.25918
G1 X-26.467 Y23.98 E16.33802
G1 X-26.851 Y23.29 E16.41681
G1 X-27.163 Y22.564 E16.49566
G1 X-27.4 Y21.811 E16.57442
G1 X-27.559 Y21.037 E16.65327
G1 X-27.64 Y20.252 E16.73201
G1 X-27.65 Y-19.846 E20.733
G0 F3600 X-27.25 Y-19.847
G1 F1500 X-27.21 Y-20.615 E20.80974
G1 X-27.091 Y-21.375 E20.8865
G1 X-26.894 Y-22.118 E20.9632
G1 X-26.62 Y-22.837 E21.03997
G1 X-26.274 Y-23.524 E21.11672
G1 X-25.858 Y-24.17 E21.19339
G1 X-25.377 Y-24.771 E21.2702
G1 X-24.836 Y-25.318 E21.34696
G1 X-24.242 Y-25.806 E21.42367
G1 X-23.6 Y-26.23 E21.50044
G1 X-22.917 Y-26.584 E21.5772
G1 X-22.202 Y-26.866 E21.65389
G1 X-21.461 Y-27.073 E21.73066
G1 X-20.702 Y-27.201 E21.80746
G1 X-19.85 Y-27.25 E21.89261
G1 X19.85 Y-27.25 E25.8539
G1 X20.618 Y-27.21 E25.93063
G1 X21.378 Y-27.091 E26.00739
G1 X22.121 Y-26.893 E26.08411
G1 X22.84 Y-26.619 E26.16089
G1 X23.526 Y-26.272 E26.2376
G1 X24.173 Y-25.856 E26.31435
G1 X24.773 Y-25.375 E26.39108
G1 X25.32 Y-24.834 E26.46784
G1 X25.808 Y-24.239 E26.54463
G1 X26.231 Y-23.597 E26.62134
G1 X26.586 Y-22.914 E26.69815
G1 X26.867 Y-22.199 E26.7748
G1 X27.073 Y-21.457 E26.85164
G1 X27.201 Y-20.699 E26.92834
G1 X27.25 Y-19.85 E27.0132
G1 X27.249 Y19.849 E30.97438
G1 X27.209 Y20.617 E31.05112
G1 X27.09 Y21.377 E31.12787
G1 X26.892 Y22.12 E31.2046
G1 X26.618 Y22.839 E31.28137
G1 X26.271 Y23.526 E31.35817
G1 X25.855 Y24.172 E31.43484
G1 X25.373 Y24.772 E31.51163
G1 X24.833 Y25.319 E31.58832
G1 X24.238 Y25.807 E31.66511
G1 X23.596 Y26.23 E31.74182
G1 X22.913 Y26.585 E31.81863
G1 X22.197 Y26.866 E31.89538
G1 X21.456 Y27.072 E31.97212
G1 X20.698 Y27.2 E32.04882
G1 X19.849 Y27.249 E32.13368
G1 X-19.85 Y27.25 E36.09486
G1 X-20.618 Y27.21 E36.17159
G1 X-21.378 Y27.091 E36.24835
G1 X-22.121 Y26.893 E36.32507
G1 X-22.84 Y26.619 E36.40185
G1 X-23.526 Y26.272 E36.47856
G1 X-24.173 Y25.856 E36.55531
G1 X-24.773 Y25.375 E36.63204
G1 X-25.32 Y24.834 E36.7088
G1 X-25.808 Y24.239 E36.78559
G1 X-26.231 Y23.597 E36.8623
G1 X-26.586 Y22.914 E36.93911
G1 X-26.867 Y22.199 E37.01576
G1 X-27.073 Y21.458 E37.0925
G1 X-27.201 Y20.699 E37.16931
G1 X-27.25 Y19.85 E37.25416
G1 X-27.25 Y-19.847 E41.21514
G0 F3600 X-26.85 Y-19.847
G1 F1500 X-26.81 Y-20.594 E41.28979
G1 X-26.691 Y-21.332 E41.36438
G1 X-26.494 Y-22.054 E41.43905
G1 X-26.221 Y-22.75 E41.51365
G1 X-25.875 Y-23.414 E41.58836
G1 X-25.46 Y-24.036 E41.66297
G1 X-24.982 Y-24.611 E41.73758
G1 X-24.444 Y-25.131 E41.81224
G1 X-23.854 Y-25.592 E41.88695
G1 X-23.219 Y-25.986 E41.96151
G1 X-22.545 Y-26.311 E42.03617
G1 X-21.84 Y-26.561 E42.11081
G1 X-21.112 Y-26.735 E42.1855
G1 X-20.37 Y-26.831 E42.26015
G1 X-19.85 Y-26.85 E42.31207
G1 X19.85 Y-26.85 E46.27335
G1 X20.597 Y-26.81 E46.348
G1 X21.335 Y-26.691 E46.42259
G1 X22.057 Y-26.493 E46.49729
G1 X22.753 Y-26.22 E46.57189
G1 X23.416 Y-25.873 E46.64655
G1 X24.039 Y-25.458 E46.72125
G1 X24.613 Y-24.979 E46.79584
G1 X25.134 Y-24.442 E46.8705
G1 X25.593 Y-23.852 E46.94509
G1 X25.988 Y-23.216 E47.01979
G1 X26.312 Y-22.542 E47.09441
G1 X26.562 Y-21.837 E47.16905
G1 X26.736 Y-21.109 E47.24373
G1 X26.831 Y-20.367 E47.31837
G1 X26.85 Y-19.85 E47.36999
G1 X26.849 Y19.849 E51.33118
G1 X26.809 Y20.596 E51.40582
G1 X26.69 Y21.335 E51.48051
G1 X26.492 Y22.056 E51.55511
G1 X26.218 Y22.752 E51.62975
G1 X25.872 Y23.416 E51.70446
G1 X25.457 Y24.038 E51.77907
G1 X24.978 Y24.613 E51.85374
G1 X24.441 Y25.133 E51.92833
G1 X23.851 Y25.592 E52.00291
G1 X23.215 Y25.987 E52.07762
G1 X22.541 Y26.311 E52.15224
G1 X21.836 Y26.561 E52.22687
G1 X21.108 Y26.735 E52.30156
G1 X20.366 Y26.83 E52.3762
G1 X19.849 Y26.849 E52.42782
G1 X-19.85 Y26.85 E56.389
G1 X-20.597 Y26.81 E56.46365
G1 X-21.335 Y26.691 E56.53824
G1 X-22.057 Y26.493 E56.61294
G1 X-22.753 Y26.22 E56.68754
G1 X-23.416 Y25.873 E56.7622
G1 X-24.039 Y25.458 E56.8369
G1 X-24.613 Y24.979 E56.91149
G1 X-25.133 Y24.442 E56.98608
G1 X-25.593 Y23.852 E57.06073
G1 X-25.988 Y23.216 E57.13543
G1 X-26.312 Y22.542 E57.21005
G1 X-26.562 Y21.837 E57.28469
G1 X-26.736 Y21.109 E57.35937
G1 X-26.831 Y20.367 E57.43402
G1 X-26.85 Y19.85 E57.48564
G1 X-26.85 Y-19.847 E61.44662
G0 F3600 X-26.45 Y-19.847
G1 F1500 X-26.41 Y-20.572 E61.51907
G1 X-26.291 Y-21.289 E61.59159
G1 X-26.094 Y-21.988 E61.66405
G1 X-25.821 Y-22.661 E61.73652
G1 X-25.476 Y-23.3 E61.80898
G1 X-25.063 Y-23.898 E61.8815
G1 X-24.587 Y-24.446 E61.95392
G1 X-24.053 Y-24.939 E62.02644
G1 X-23.468 Y-25.37 E62.09894
G1 X-22.84 Y-25.734 E62.17137
G1 X-22.175 Y-26.027 E62.24388
G1 X-21.482 Y-26.245 E62.31637
G1 X-20.77 Y-26.386 E62.38879
G1 X-19.85 Y-26.45 E62.48081
G1 X19.85 Y-26.45 E66.44209
G1 X20.575 Y-26.41 E66.51455
G1 X21.292 Y-26.291 E66.58707
G1 X21.991 Y-26.093 E66.65956
G1 X22.664 Y-25.82 E66.73202
G1 X23.303 Y-25.475 E66.80448
G1 X23.9 Y-25.061 E66.87697
G1 X24.448 Y-24.585 E66.9494
G1 X24.941 Y-24.051 E67.02192
G1 X25.371 Y-23.466 E67.09436
G1 X25.735 Y-22.837 E67.16688
G1 X26.028 Y-22.172 E67.23939
G1 X26.246 Y-21.479 E67.31187
G1 X26.386 Y-20.767 E67.38428
G1 X26.45 Y-19.85 E67.476
G1 X26.449 Y19.849 E71.43718
G1 X26.409 Y20.574 E71.50963
G1 X26.29 Y21.291 E71.58215
G1 X26.092 Y21.99 E71.65464
G1 X25.819 Y22.663 E71.72711
G1 X25.474 Y23.302 E71.79957
G1 X25.06 Y23.899 E71.87206
G1 X24.584 Y24.447 E71.94449
G1 X24.05 Y24.94 E72.01701
G1 X23.465 Y25.37 E72.08945
G1 X22.836 Y25.734 E72.16196
G1 X22.171 Y26.027 E72.23447
G1 X21.478 Y26.245 E72.30696
G1 X20.766 Y26.385 E72.37937
G1 X19.849 Y26.449 E72.47109
G1 X-19.85 Y26.45 E76.43227
G1 X-20.575 Y26.41 E76.50472
G1 X-21.292 Y26.291 E76.57724
G1 X-21.991 Y26.093 E76.64973
G1 X-22.664 Y25.82 E76.7222
G1 X-23.303 Y25.475 E76.79466
G1 X-23.9 Y25.061 E76.86715
G1 X-24.448 Y24.585 E76.93958
G1 X-24.94 Y24.051 E77.01203
G1 X-25.371 Y23.466 E77.08453
G1 X-25.735 Y22.837 E77.15704
G1 X-26.028 Y22.173 E77.22946
G1 X-26.246 Y21.48 E77.30195
G1 X-26.386 Y20.767 E77.37445
G1 X-26.45 Y19.85 E77.46617
G1 X-26.45 Y-19.847 E81.42715
G0 F3600 X-26.05 Y-19.847
G1 F1500 X-26.01 Y-20.55 E81.49741
G1 X-25.891 Y-21.244 E81.56767
G1 X-25.694 Y-21.92 E81.63793
G1 X-25.422 Y-22.569 E81.70814
G1 X-25.078 Y-23.183 E81.77837
G1 X-24.666 Y-23.754 E81.84863
G1 X-24.193 Y-24.275 E81.91884
G1 X-23.663 Y-24.739 E81.98913
G1 X-23.084 Y-25.14 E82.0594
G1 X-22.464 Y-25.472 E82.12958
G1 X-21.81 Y-25.732 E82.1998
G1 X-21.13 Y-25.916 E82.27009
G1 X-20.434 Y-26.022 E82.34034
G1 X-19.85 Y-26.05 E82.39868
G1 X19.85 Y-26.05 E86.35996
G1 X20.553 Y-26.01 E86.43022
G1 X21.247 Y-25.891 E86.50048
G1 X21.922 Y-25.693 E86.57067
G1 X22.571 Y-25.421 E86.64088
G1 X23.185 Y-25.076 E86.71116
G1 X23.756 Y-24.665 E86.78136
G1 X24.277 Y-24.191 E86.85164
G1 X24.741 Y-23.661 E86.92192
G1 X25.141 Y-23.082 E86.99214
G1 X25.473 Y-22.461 E87.06241
G1 X25.733 Y-21.807 E87.13263
G1 X25.917 Y-21.127 E87.20292
G1 X26.023 Y-20.431 E87.27317
G1 X26.05 Y-19.85 E87.3312
G1 X26.049 Y19.849 E91.29239
G1 X26.009 Y20.552 E91.36264
G1 X25.89 Y21.246 E91.4329
G1 X25.692 Y21.922 E91.50319
G1 X25.42 Y22.571 E91.5734
G1 X25.075 Y23.185 E91.64368
G1 X24.663 Y23.756 E91.71393
G1 X24.19 Y24.276 E91.78407
G1 X23.66 Y24.74 E91.85436
G1 X23.081 Y25.14 E91.92458
G1 X22.46 Y25.472 E91.99484
G1 X21.806 Y25.732 E92.06507
G1 X21.126 Y25.916 E92.13536
G1 X20.43 Y26.022 E92.20561
G1 X19.849 Y26.049 E92.26364
G1 X-19.85 Y26.05 E96.22482
G1 X-20.553 Y26.01 E96.29508
G1 X-21.246 Y25.891 E96.36524
G1 X-21.922 Y25.693 E96.43553
G1 X-22.571 Y25.421 E96.50574
G1 X-23.185 Y25.076 E96.57602
G1 X-23.756 Y24.665 E96.64622
G1 X-24.277 Y24.191 E96.7165
G1 X-24.74 Y23.661 E96.78672
G1 X-25.141 Y23.082 E96.85699
G1 X-25.473 Y22.461 E96.92726
G1 X-25.733 Y21.807 E96.99748
G1 X-25.917 Y21.127 E97.06777
G1 X-26.023 Y20.431 E97.13802
G1 X-26.05 Y19.85 E97.19605
G1 X-26.05 Y-19.847 E101.15704
G0 F3600 X-25.65 Y-19.847
G1 F1500 X-25.61 Y-20.527 E101.225
G1 X-25.491 Y-21.197 E101.2929
G1 X-25.295 Y-21.849 E101.36084
G1 X-25.023 Y-22.474 E101.42885
G1 X-24.68 Y-23.062 E101.49677
G1 X-24.27 Y-23.606 E101.56474
G1 X-23.799 Y-24.098 E101.6327
G1 X-23.274 Y-24.531 E101.70061
G1 X-22.702 Y-24.9 E101.76853
G1 X-22.091 Y-25.2 E101.83644
G1 X-21.448 Y-25.425 E101.90442
G1 X-20.784 Y-25.574 E101.97232
G1 X-19.85 Y-25.65 E102.06582
G1 X19.85 Y-25.65 E106.02711
G1 X20.53 Y-25.61 E106.09507
G1 X21.2 Y-25.491 E106.16297
G1 X21.852 Y-25.294 E106.23093
G1 X22.476 Y-25.022 E106.29885
G1 X23.064 Y-24.678 E106.36683
G1 X23.608 Y-24.268 E106.4348
G1 X24.099 Y-23.797 E106.50269
G1 X24.533 Y-23.272 E106.57065
G1 X24.902 Y-22.7 E106.63857
G1 X25.201 Y-22.088 E106.70654
G1 X25.426 Y-21.446 E106.77442
G1 X25.575 Y-20.781 E106.84242
G1 X25.65 Y-19.85 E106.93561
G1 X25.649 Y19.849 E110.8968
G1 X25.609 Y20.529 E110.96476
G1 X25.49 Y21.199 E111.03266
G1 X25.293 Y21.851 E111.10062
G1 X25.02 Y22.475 E111.16859
G1 X24.677 Y23.063 E111.23651
G1 X24.267 Y23.607 E111.30448
G1 X23.796 Y24.099 E111.37244
G1 X23.271 Y24.532 E111.44034
G1 X22.699 Y24.901 E111.50826
G1 X22.087 Y25.2 E111.57623
G1 X21.445 Y25.425 E111.64411
G1 X20.78 Y25.574 E111.71211
G1 X19.849 Y25.649 E111.8053
G1 X-19.85 Y25.65 E115.76648
G1 X-20.53 Y25.61 E115.83445
G1 X-21.2 Y25.491 E115.90235
G1 X-21.852 Y25.294 E115.97031
G1 X-22.476 Y25.022 E116.03823
G1 X-23.064 Y24.678 E116.10621
G1 X-23.607 Y24.268 E116.1741
G1 X-24.099 Y23.798 E116.24199
G1 X-24.533 Y23.272 E116.31003
G1 X-24.901 Y22.7 E116.3779
G1 X-25.201 Y22.088 E116.44591
G1 X-25.426 Y21.446 E116.51379
G1 X-25.575 Y20.781 E116.58179
G1 X-25.65 Y19.85 E116.67498
G1 X-25.65 Y-19.847 E120.63597
G0 F3600 X-25.25 Y-19.848
G1 F1500 X-25.21 Y-20.503 E120.70144
G1 X-25.091 Y-21.149 E120.76699
G1 X-24.895 Y-21.776 E120.83253
G1 X-24.624 Y-22.375 E120.89814
G1 X-24.282 Y-22.936 E120.96369
G1 X-23.874 Y-23.451 E121.02925
G1 X-23.407 Y-23.913 E121.0948
G1 X-22.887 Y-24.315 E121.16038
G1 X-22.323 Y-24.651 E121.22589
G1 X-21.721 Y-24.915 E121.29148
G1 X-21.093 Y-25.105 E121.35695
G1 X-20.445 Y-25.217 E121.42256
G1 X-19.85 Y-25.25 E121.48202
G1 X19.85 Y-25.25 E125.4433
G1 X20.506 Y-25.21 E125.50888
G1 X21.152 Y-25.091 E125.57442
G1 X21.779 Y-24.894 E125.64
G1 X22.377 Y-24.622 E125.70555
G1 X22.938 Y-24.28 E125.77111
G1 X23.453 Y-23.872 E125.83667
G1 X23.915 Y-23.405 E125.90222
G1 X24.316 Y-22.885 E125.96774
G1 X24.652 Y-22.321 E126.03324
G1 X24.916 Y-21.719 E126.09883
G1 X25.106 Y-21.09 E126.1644
G1 X25.217 Y-20.443 E126.2299
G1 X25.25 Y-19.85 E126.28916
G1 X25.249 Y19.849 E130.25034
G1 X25.209 Y20.505 E130.31592
G1 X25.09 Y21.151 E130.38146
G1 X24.893 Y21.778 E130.44704
G1 X24.621 Y22.376 E130.51259
G1 X24.279 Y22.937 E130.57815
G1 X23.871 Y23.452 E130.64371
G1 X23.404 Y23.914 E130.70926
G1 X22.884 Y24.315 E130.77478
G1 X22.319 Y24.651 E130.84037
G1 X21.718 Y24.915 E130.90587
G1 X21.089 Y25.105 E130.97143
G1 X20.442 Y25.216 E131.03693
G1 X19.849 Y25.249 E131.09619
G1 X-19.85 Y25.25 E135.05737
G1 X-20.506 Y25.21 E135.12295
G1 X-21.152 Y25.091 E135.18849
G1 X-21.778 Y24.894 E135.25398
G1 X-22.377 Y24.622 E135.31962
G1 X-22.938 Y24.28 E135.38518
G1 X-23.453 Y23.873 E135.45067
G1 X-23.914 Y23.405 E135.51622
G1 X-24.316 Y22.885 E135.5818
G1 X-24.652 Y22.321 E135.64731
G1 X-24.916 Y21.719 E135.7129
G1 X-25.106 Y21.09 E135.77846
G1 X-25.217 Y20.443 E135.84396
G1 X-25.25 Y19.85 E135.90323
G1 X-25.25 Y-19.848 E139.86431
G0 F3600 X-24.85 Y-19.848
G1 F1500 X-24.81 Y-20.479 E139.9274
G1 X-24.691 Y-21.099 E139.99039
G1 X-24.495 Y-21.7 E140.05347
G1 X-24.224 Y-22.272 E140.11662
G1 X-23.884 Y-22.804 E140.17962
G1 X-23.479 Y-23.29 E140.24274
G1 X-23.016 Y-23.72 E140.30579
G1 X-22.502 Y-24.089 E140.36893
G1 X-21.946 Y-24.389 E140.43197
G1 X-21.357 Y-24.618 E140.49502
G1 X-20.743 Y-24.77 E140.55814
G1 X-19.85 Y-24.85 E140.6476
G1 X19.85 Y-24.85 E144.60888
G1 X20.481 Y-24.81 E144.67197
G1 X21.102 Y-24.691 E144.73506
G1 X21.702 Y-24.494 E144.79807
G1 X22.274 Y-24.223 E144.86123
G1 X22.806 Y-23.883 E144.92423
G1 X23.291 Y-23.477 E144.98734
G1 X23.721 Y-23.014 E145.05039
G1 X24.09 Y-22.5 E145.11352
G1 X24.39 Y-21.944 E145.17656
G1 X24.618 Y-21.355 E145.23958
G1 X24.77 Y-20.741 E145.30269
G1 X24.85 Y-19.85 E145.39196
G1 X24.849 Y19.849 E149.35314
G1 X24.809 Y20.48 E149.41623
G1 X24.69 Y21.101 E149.47932
G1 X24.493 Y21.702 E149.54242
G1 X24.222 Y22.273 E149.60549
G1 X23.882 Y22.805 E149.66849
G1 X23.476 Y23.29 E149.7316
G1 X23.013 Y23.721 E149.79472
G1 X22.499 Y24.089 E149.85779
G1 X21.943 Y24.389 E149.92083
G1 X21.354 Y24.617 E149.98385
G1 X20.74 Y24.769 E150.04697
G1 X19.849 Y24.849 E150.13623
G1 X-19.85 Y24.85 E154.09741
G1 X-20.481 Y24.81 E154.1605
G1 X-21.102 Y24.691 E154.22359
G1 X-21.702 Y24.494 E154.2866
G1 X-22.274 Y24.223 E154.34976
G1 X-22.806 Y23.883 E154.41276
G1 X-23.291 Y23.477 E154.47587
G1 X-23.721 Y23.014 E154.53892
G1 X-24.09 Y22.501 E154.60197
G1 X-24.39 Y21.944 E154.6651
G1 X-24.618 Y21.355 E154.72812
G1 X-24.77 Y20.741 E154.79123
G1 X-24.85 Y19.85 E154.88049
G1 X-24.85 Y-19.848 E158.84158
G0 F3600 X-24.45 Y-19.848
G1 F1500 X-24.41 Y-20.453 E158.90208
G1 X-24.291 Y-21.047 E158.96252
G1 X-24.095 Y-21.621 E159.02304
G1 X-23.826 Y-22.164 E159.08351
G1 X-23.487 Y-22.667 E159.14403
G1 X-23.085 Y-23.121 E159.20454
G1 X-22.626 Y-23.518 E159.26509
G1 X-22.12 Y-23.851 E159.32553
G1 X-21.574 Y-24.115 E159.38605
G1 X-20.998 Y-24.304 E159.44654
G1 X-20.402 Y-24.417 E159.50707
G1 X-19.85 Y-24.45 E159.56224
G1 X19.85 Y-24.45 E163.52352
G1 X20.455 Y-24.41 E163.58402
G1 X21.049 Y-24.291 E163.64447
G1 X21.623 Y-24.095 E163.70499
G1 X22.166 Y-23.824 E163.76555
G1 X22.669 Y-23.485 E163.82607
G1 X23.122 Y-23.083 E163.8865
G1 X23.519 Y-22.625 E163.94698
G1 X23.852 Y-22.118 E164.0075
G1 X24.116 Y-21.572 E164.06802
G1 X24.305 Y-20.996 E164.12851
G1 X24.417 Y-20.4 E164.18902
G1 X24.45 Y-19.85 E164.24399
G1 X24.449 Y19.849 E168.20518
G1 X24.409 Y20.454 E168.26568
G1 X24.29 Y21.049 E168.32622
