; generated by Slic3r 1.2.9 on 2022-04-22 at 17:49:30

; external perimeters extrusion width = 0.40mm
; perimeters extrusion width = 0.67mm
; infill extrusion width = 0.67mm
; solid infill extrusion width = 0.67mm
; top infill extrusion width = 0.67mm

G28 ; home all axes
M104 S190
M190 S70 ; set bed temperature
G1 Z220
G28
G1 X0.000 Y70.000 Z30.300 F8000.000
M109 S190
G1 Z0.2 F2000
G1 X40.000 Y50.000 Z0.1 E10.000
G1 X0 Y0 Z15

G21 ; set units to millimeters
G90 ; use absolute coordinates
M82 ; use absolute distances for extrusion
G92 E0
G1 Z0.300 F4800.000
G1 E-2.00000 F2400.00000
G92 E0
G1 X61.071 Y0.000 F4800.000
G1 E0.80000 F2400.00000
G1 X61.071 Y50.000 E4.47430 F1080.000
G1 X60.673 Y52.943 E4.69250
G1 X59.507 Y55.673 E4.91071
G1 X57.657 Y57.996 E5.12891
G1 X55.257 Y59.744 E5.34712
G1 X52.478 Y60.790 E5.56532
G1 X50.000 Y61.071 E5.74858
G1 X-50.000 Y61.071 E13.09718
G1 X-52.943 Y60.673 E13.31538
G1 X-55.673 Y59.507 E13.53359
G1 X-57.996 Y57.657 E13.75179
G1 X-59.744 Y55.257 E13.97000
G1 X-60.790 Y52.478 E14.18820
G1 X-61.071 Y50.000 E14.37146
G1 X-61.071 Y-50.000 E21.72005
G1 X-60.673 Y-52.943 E21.93826
G1 X-59.507 Y-55.673 E22.15646
G1 X-57.657 Y-57.996 E22.37467
G1 X-55.257 Y-59.744 E22.59287
G1 X-52.478 Y-60.790 E22.81108
G1 X-50.000 Y-61.071 E22.99434
G1 X50.000 Y-61.071 E30.34293
G1 X52.943 Y-60.673 E30.56114
G1 X55.673 Y-59.507 E30.77934 F1080.000
G1 X57.996 Y-57.657 E30.99755
G1 X59.744 Y-55.257 E31.21575
G1 X60.790 Y-52.478 E31.43396
G1 X61.071 Y-50.000 E31.61722
G1 X61.071 Y-0.060 E35.28710
G1 X60.536 Y0.000 F4800.000
G1 X60.536 Y50.000 E38.96140 F1080.000
G1 X60.138 Y52.869 E39.17424
G1 X58.973 Y55.521 E39.38707
G1 X57.131 Y57.756 E39.59991
G1 X54.750 Y59.404 E39.81275
G1 X52.009 Y60.342 E40.02558
G1 X50.000 Y60.536 E40.17394
G1 X-50.000 Y60.536 E47.52253
G1 X-52.869 Y60.138 E47.73537
G1 X-55.521 Y58.973 E47.94820
G1 X-57.756 Y57.131 E48.16104
G1 X-59.404 Y54.750 E48.37388
G1 X-60.342 Y52.009 E48.58671
G1 X-60.536 Y50.000 E48.73507
G1 X-60.536 Y-50.000 E56.08366
G1 X-60.138 Y-52.869 E56.29650
G1 X-58.973 Y-55.521 E56.50933
G1 X-57.131 Y-57.756 E56.72217
G1 X-54.750 Y-59.404 E56.93501
G1 X-52.009 Y-60.342 E57.14784
G1 X-50.000 Y-60.536 E57.29620
G1 X50.000 Y-60.536 E64.64479
G1 X52.869 Y-60.138 E64.85763
G1 X55.521 Y-58.973 E65.07046 F1080.000
G1 X57.756 Y-57.131 E65.28330
G1 X59.404 Y-54.750 E65.49614
G1 X60.342 Y-52.009 E65.70897
G1 X60.536 Y-50.000 E65.85732
G1 X60.536 Y-0.060 E69.52721
G1 E67.52721 F2400.00000
G92 E0
G1 X51.339 Y0.000 F4800.000
G1 E0.80000 F2400.00000
G1 X51.339 Y50.555 E4.51506 F1080.000
G1 X50.555 Y51.339 E4.59657
G1 X-50.555 Y51.339 E12.02669
G1 X-51.339 Y50.555 E12.10821
G1 X-51.339 Y-50.555 E19.53832
G1 X-50.555 Y-51.339 E19.61984
G1 X50.555 Y-51.339 E27.04995
G1 X51.339 Y-50.555 E27.13147
G1 X51.339 Y-0.060 E30.84212 F1080.000
G1 X50.803 Y0.000 F4800.000
G1 X50.803 Y50.333 E34.54087 F1080.000
G1 X50.333 Y50.803 E34.58978
G1 X-50.333 Y50.803 E41.98729
G1 X-50.803 Y50.333 E42.03620
G1 X-50.803 Y-50.333 E49.43370
G1 X-50.333 Y-50.803 E49.48262
G1 X50.333 Y-50.803 E56.88012
G1 X50.803 Y-50.333 E56.92903 F1080.000
G1 X50.803 Y-0.060 E60.62338
G1 E58.62338 F2400.00000
G92 E0
G1 X50.268 Y-50.111 F4800.000
G1 E0.80000 F2400.00000
G1 X50.268 Y50.111 E8.16490 F1080.000
G1 X50.111 Y50.268 E8.18120
G1 X-50.111 Y50.268 E15.54610
G1 X-50.268 Y50.111 E15.56241
G1 X-50.268 Y-50.111 E22.92730
G1 X-50.111 Y-50.268 E22.94361
G1 X50.111 Y-50.268 E30.30851
G1 X50.225 Y-50.153 E30.32040
G1 X49.700 Y-49.700 F4800.000
G1 X49.700 Y49.700 E37.62490 F216.000
G1 X-49.700 Y49.700 E44.92941
G1 X-49.700 Y-49.700 E52.23391
G1 X49.640 Y-49.700 E59.53401
G1 X49.500 Y-49.354 F4800.000
G1 X49.164 Y-49.164 F4800.000
G1 X49.164 Y49.164 E66.75979 F720.000
G1 X-49.164 Y49.164 E73.98557
G1 X-49.164 Y-49.164 E81.21136
G1 X49.104 Y-49.164 E88.43273
G1 X48.629 Y-48.629 F4800.000
G1 X48.629 Y48.629 E95.57979 F720.000
G1 X-48.629 Y48.629 E102.72685
G1 X-48.629 Y-48.629 E109.87391
G1 X48.569 Y-48.629 E117.01657
G1 E115.01657 F2400.00000
G92 E0
G1 X-45.300 Y-30.724 F4800.000
G1 E0.80000 F2400.00000
G1 X30.724 Y45.300 E8.70081 F216.000
G1 X-45.300 Y45.300 E14.28752
G1 X-45.300 Y-30.664 E19.86983
G1 X-45.100 Y-31.071 F4800.000
G1 X-45.836 Y-32.017 F4800.000
G1 X32.017 Y45.836 E27.96069 F720.000
G1 X-45.836 Y45.836 E33.68179
G1 X-45.836 Y-31.957 E39.39848
G1 X-46.371 Y-33.310 F4800.000
G1 X33.310 Y46.371 E47.67939 F720.000
G1 X-46.371 Y46.371 E53.53487
G1 X-46.371 Y-33.250 E59.38595
G1 E57.38595 F2400.00000
G92 E0
G1 X-30.724 Y-45.300 F4800.000
G1 E0.80000 F2400.00000
G1 X45.300 Y-45.300 E6.38672 F216.000
G1 X45.300 Y30.724 E11.97343
G1 X-30.682 Y-45.258 E19.86983
G1 X-30.828 Y-45.686 F4800.000
G1 X-32.017 Y-45.836 F4800.000
G1 X45.836 Y-45.836 E25.59093 F720.000
G1 X45.836 Y32.017 E31.31203
G1 X-31.975 Y-45.793 E39.39848
G1 X-33.310 Y-46.371 F4800.000
G1 X46.371 Y-46.371 E45.25397 F720.000
G1 X46.371 Y33.310 E51.10945
G1 X-33.268 Y-46.329 E59.38595
G1 X-45.300 Y-45.300 F4800.000
G1 X-34.876 Y-45.300 E60.15199 F216.000
G1 X45.300 Y34.876 E68.48424
G1 X45.300 Y45.300 E69.25028
G1 X34.876 Y45.300 E70.01631
G1 X-45.300 Y-34.876 E78.34856
G1 X-45.300 Y-45.240 E79.11019
G1 X-45.300 Y-45.700 F4800.000
G1 X-45.836 Y-45.836 F4800.000
G1 X-34.654 Y-45.836 E79.93189 F720.000
G1 X45.836 Y34.654 E88.29675
G1 X45.836 Y45.836 E89.11845
G1 X34.654 Y45.836 E89.94015
G1 X-45.836 Y-34.654 E98.30501
G1 X-45.836 Y-45.776 E99.12230
G1 X-46.371 Y-46.371 F4800.000
G1 X-34.432 Y-46.371 E99.99966 F720.000
G1 X46.371 Y34.432 E108.39713
G1 X46.371 Y46.371 E109.27449
G1 X34.432 Y46.371 E110.15186
G1 X-46.371 Y-34.432 E118.54932
G1 X-46.371 Y-46.311 E119.42228
G1 X-46.639 Y-34.139 F4800.000
G1 X34.139 Y46.639 E127.81713 F360.000
G1 E125.81713 F2400.00000
G92 E0
G1 X46.639 Y34.139 F4800.000
G1 E0.80000 F2400.00000
G1 X-34.139 Y-46.639 E9.19485 F360.000
G1 X-34.135 Y-47.032 F4800.000
G1 X-35.410 Y-48.307 E9.32761 F360.000
G1 X-36.169 Y-48.307 E9.38345
G1 X-34.555 Y-46.693 E9.55146
G1 X-35.313 Y-46.693 E9.60730
G1 X-36.928 Y-48.307 E9.77532
G1 X-37.686 Y-48.307 E9.83115
G1 X-36.072 Y-46.693 E9.99917
G1 X-36.831 Y-46.693 E10.05500
G1 X-38.445 Y-48.307 E10.22302
G1 X-39.204 Y-48.307 E10.27886
G1 X-37.589 Y-46.693 E10.44687
G1 X-38.348 Y-46.693 E10.50271
G1 X-39.962 Y-48.307 E10.67073
G1 X-40.721 Y-48.307 E10.72656
G1 X-39.107 Y-46.693 E10.89458
G1 X-39.865 Y-46.693 E10.95041
G1 X-41.479 Y-48.307 E11.11843
G1 X-42.238 Y-48.307 E11.17426
G1 X-40.624 Y-46.693 E11.34228
G1 X-41.382 Y-46.693 E11.39812
G1 X-42.997 Y-48.307 E11.56613
G1 X-43.755 Y-48.307 E11.62197
G1 X-42.141 Y-46.693 E11.78999
G1 X-42.900 Y-46.693 E11.84582
G1 X-44.514 Y-48.307 E12.01384
G1 X-45.273 Y-48.307 E12.06967
G1 X-43.658 Y-46.693 E12.23769
G1 X-44.417 Y-46.693 E12.29353
G1 X-46.031 Y-48.307 E12.46154
G1 X-46.790 Y-48.307 E12.51738
G1 X-45.176 Y-46.693 E12.68540
G1 X-45.934 Y-46.693 E12.74123
G1 X-47.549 Y-48.307 E12.90925
G1 X-48.287 Y-48.287 E12.96363
G1 X-46.693 Y-46.693 E13.12957
G1 X-46.693 Y-45.934 E13.18540
G1 X-48.307 Y-47.548 E13.35342
G1 X-48.307 Y-46.790 E13.40926
G1 X-46.693 Y-45.176 E13.57727
G1 X-46.693 Y-44.417 E13.63311
G1 X-48.307 Y-46.031 E13.80113
G1 X-48.307 Y-45.272 E13.85696
G1 X-46.693 Y-43.658 E14.02498
G1 X-46.693 Y-42.900 E14.08081
G1 X-48.307 Y-44.514 E14.24883
G1 X-48.307 Y-43.755 E14.30466
G1 X-46.693 Y-42.141 E14.47268
G1 X-46.693 Y-41.382 E14.52852
G1 X-48.307 Y-42.997 E14.69653
G1 X-48.307 Y-42.238 E14.75237
G1 X-46.693 Y-40.624 E14.92039
G1 X-46.693 Y-39.865 E14.97622
G1 X-48.307 Y-41.479 E15.14424
G1 X-48.307 Y-40.721 E15.20007
G1 X-46.693 Y-39.106 E15.36809
G1 X-46.693 Y-38.348 E15.42393
G1 X-48.307 Y-39.962 E15.59194
G1 X-48.307 Y-39.203 E15.64778
G1 X-46.693 Y-37.589 E15.81580
G1 X-46.693 Y-36.830 E15.87163
G1 X-48.307 Y-38.445 E16.03965
G1 X-48.307 Y-37.686 E16.09548
G1 X-46.693 Y-36.072 E16.26350
G1 X-46.693 Y-35.313 E16.31933
G1 X-48.307 Y-36.927 E16.48735
G1 X-48.307 Y-36.169 E16.54319
G1 X-46.693 Y-34.555 E16.71120
G1 X-47.032 Y-34.135 E16.75091
G1 X-48.307 Y-35.410 E16.88367
G1 X-48.307 Y-34.652 E16.93950
G1 X-46.693 Y-33.037 E17.10752
G1 X-46.693 Y-32.279 E17.16335
G1 X-48.307 Y-33.893 E17.33137
G1 X-48.307 Y-33.134 E17.38720
G1 X-46.693 Y-31.520 E17.55522
G1 X-46.693 Y-30.761 E17.61106
G1 X-48.307 Y-32.376 E17.77907
G1 X-48.307 Y-31.617 E17.83491
G1 X-46.693 Y-30.003 E18.00293
G1 X-46.693 Y-29.244 E18.05876
G1 X-48.307 Y-30.858 E18.22678
G1 X-48.307 Y-30.100 E18.28261
G1 X-46.693 Y-28.485 E18.45063
G1 X-46.693 Y-27.727 E18.50647
G1 X-48.307 Y-29.341 E18.67448
G1 X-48.307 Y-28.582 E18.73032
G1 X-46.693 Y-26.968 E18.89834
G1 X-46.693 Y-26.210 E18.95417
G1 X-48.307 Y-27.824 E19.12219
G1 X-48.307 Y-27.065 E19.17802
G1 X-46.693 Y-25.451 E19.34604
G1 X-46.693 Y-24.692 E19.40188
G1 X-48.307 Y-26.307 E19.56989
G1 X-48.307 Y-25.548 E19.62573
G1 X-46.693 Y-23.934 E19.79375
G1 X-46.693 Y-23.175 E19.84958
G1 X-48.307 Y-24.789 E20.01760
G1 X-48.307 Y-24.031 E20.07343
G1 X-46.693 Y-22.416 E20.24145
G1 X-46.693 Y-21.658 E20.29728
G1 X-48.307 Y-23.272 E20.46530
G1 X-48.307 Y-22.513 E20.52114
G1 X-46.693 Y-20.899 E20.68915
G1 X-46.693 Y-20.140 E20.74499
G1 X-48.307 Y-21.755 E20.91301
G1 X-48.307 Y-20.996 E20.96884
G1 X-46.693 Y-19.382 E21.13686
G1 X-46.693 Y-18.623 E21.19269
G1 X-48.307 Y-20.237 E21.36071
G1 X-48.307 Y-19.479 E21.41655
G1 X-46.693 Y-17.865 E21.58456
G1 X-46.693 Y-17.106 E21.64040
G1 X-48.307 Y-18.720 E21.80842
G1 X-48.307 Y-17.961 E21.86425
G1 X-46.693 Y-16.347 E22.03227
G1 X-46.693 Y-15.589 E22.08810
G1 X-48.307 Y-17.203 E22.25612
G1 X-48.307 Y-16.444 E22.31196
G1 X-46.693 Y-14.830 E22.47997
G1 X-46.693 Y-14.071 E22.53581
G1 X-48.307 Y-15.686 E22.70383
G1 X-48.307 Y-14.927 E22.75966
G1 X-46.693 Y-13.313 E22.92768
G1 X-46.693 Y-12.554 E22.98351
G1 X-48.307 Y-14.168 E23.15153
G1 X-48.307 Y-13.410 E23.20737
G1 X-46.693 Y-11.795 E23.37538
G1 X-46.693 Y-11.037 E23.43122
G1 X-48.307 Y-12.651 E23.59924
G1 X-48.307 Y-11.892 E23.65507
G1 X-46.693 Y-10.278 E23.82309
G1 X-46.693 Y-9.519 E23.87892
G1 X-48.307 Y-11.134 E24.04694
G1 X-48.307 Y-10.375 E24.10277
G1 X-46.693 Y-8.761 E24.27079
G1 X-46.693 Y-8.002 E24.32663
G1 X-48.307 Y-9.616 E24.49464
G1 X-48.307 Y-8.858 E24.55048
G1 X-46.693 Y-7.244 E24.71850
G1 X-46.693 Y-6.485 E24.77433
G1 X-48.307 Y-8.099 E24.94235
G1 X-48.307 Y-7.341 E24.99818
G1 X-46.693 Y-5.726 E25.16620
G1 X-46.693 Y-4.968 E25.22204
G1 X-48.307 Y-6.582 E25.39005
G1 X-48.307 Y-5.823 E25.44589
G1 X-46.693 Y-4.209 E25.61391
G1 X-46.693 Y-3.450 E25.66974
G1 X-48.307 Y-5.065 E25.83776
G1 X-48.307 Y-4.306 E25.89359
G1 X-46.693 Y-2.692 E26.06161
G1 X-46.693 Y-1.933 E26.11745
G1 X-48.307 Y-3.547 E26.28546
G1 X-48.307 Y-2.789 E26.34130
G1 X-46.693 Y-1.174 E26.50932
G1 X-46.693 Y-0.416 E26.56515
G1 X-48.307 Y-2.030 E26.73317
G1 X-48.307 Y-1.271 E26.78900
G1 X-46.693 Y0.343 E26.95702
G1 X-46.693 Y1.101 E27.01286
G1 X-48.307 Y-0.513 E27.18087
G1 X-48.307 Y0.246 E27.23671
G1 X-46.693 Y1.860 E27.40473
G1 X-46.693 Y2.619 E27.46056
G1 X-48.307 Y1.004 E27.62858
G1 X-48.307 Y1.763 E27.68441
G1 X-46.693 Y3.377 E27.85243
G1 X-46.693 Y4.136 E27.90826
G1 X-48.307 Y2.522 E28.07628
G1 X-48.307 Y3.280 E28.13212
G1 X-46.693 Y4.895 E28.30014
G1 X-46.693 Y5.653 E28.35597
G1 X-48.307 Y4.039 E28.52399
G1 X-48.307 Y4.798 E28.57982
G1 X-46.693 Y6.412 E28.74784
G1 X-46.693 Y7.171 E28.80367
G1 X-48.307 Y5.556 E28.97169
G1 X-48.307 Y6.315 E29.02753
G1 X-46.693 Y7.929 E29.19554
G1 X-46.693 Y8.688 E29.25138
G1 X-48.307 Y7.074 E29.41940
G1 X-48.307 Y7.832 E29.47523
G1 X-46.693 Y9.446 E29.64325
G1 X-46.693 Y10.205 E29.69908
G1 X-48.307 Y8.591 E29.86710
G1 X-48.307 Y9.349 E29.92294
G1 X-46.693 Y10.964 E30.09095
G1 X-46.693 Y11.722 E30.14679
G1 X-48.307 Y10.108 E30.31481
G1 X-48.307 Y10.867 E30.37064
G1 X-46.693 Y12.481 E30.53866
G1 X-46.693 Y13.240 E30.59449
G1 X-48.307 Y11.625 E30.76251
G1 X-48.307 Y12.384 E30.81835
G1 X-46.693 Y13.998 E30.98636
G1 X-46.693 Y14.757 E31.04220
G1 X-48.307 Y13.143 E31.21022
G1 X-48.307 Y13.901 E31.26605
G1 X-46.693 Y15.516 E31.43407
G1 X-46.693 Y16.274 E31.48990
G1 X-48.307 Y14.660 E31.65792
G1 X-48.307 Y15.419 E31.71376
G1 X-46.693 Y17.033 E31.88177
G1 X-46.693 Y17.791 E31.93761
G1 X-48.307 Y16.177 E32.10563
G1 X-48.307 Y16.936 E32.16146
G1 X-46.693 Y18.550 E32.32948
G1 X-46.693 Y19.309 E32.38531
G1 X-48.307 Y17.695 E32.55333
G1 X-48.307 Y18.453 E32.60916
G1 X-46.693 Y20.067 E32.77718
G1 X-46.693 Y20.826 E32.83302
G1 X-48.307 Y19.212 E33.00103
G1 X-48.307 Y19.970 E33.05687
G1 X-46.693 Y21.585 E33.22489
G1 X-46.693 Y22.343 E33.28072
G1 X-48.307 Y20.729 E33.44874
G1 X-48.307 Y21.488 E33.50457
G1 X-46.693 Y23.102 E33.67259
G1 X-46.693 Y23.861 E33.72843
G1 X-48.307 Y22.246 E33.89644
G1 X-48.307 Y23.005 E33.95228
G1 X-46.693 Y24.619 E34.12030
G1 X-46.693 Y25.378 E34.17613
G1 X-48.307 Y23.764 E34.34415
G1 X-48.307 Y24.522 E34.39998
G1 X-46.693 Y26.137 E34.56800
G1 X-46.693 Y26.895 E34.62384
G1 X-48.307 Y25.281 E34.79185
G1 X-48.307 Y26.040 E34.84769
G1 X-46.693 Y27.654 E35.01571
G1 X-46.693 Y28.412 E35.07154
G1 X-48.307 Y26.798 E35.23956
G1 X-48.307 Y27.557 E35.29539
G1 X-46.693 Y29.171 E35.46341
G1 X-46.693 Y29.930 E35.51925
G1 X-48.307 Y28.315 E35.68726
G1 X-48.307 Y29.074 E35.74310
G1 X-46.693 Y30.688 E35.91112
G1 X-46.693 Y31.447 E35.96695
G1 X-48.307 Y29.833 E36.13497
G1 X-48.307 Y30.591 E36.19080
G1 X-46.693 Y32.206 E36.35882
G1 X-46.693 Y32.964 E36.41465
G1 X-48.307 Y31.350 E36.58267
G1 X-48.307 Y32.109 E36.63851
G1 X-46.693 Y33.723 E36.80652
G1 X-46.693 Y34.482 E36.86236
G1 X-48.307 Y32.867 E37.03038
G1 X-48.307 Y33.626 E37.08621
G1 X-46.693 Y35.240 E37.25423
G1 X-46.693 Y35.999 E37.31006
G1 X-48.307 Y34.385 E37.47808
G1 X-48.307 Y35.143 E37.53392
G1 X-46.693 Y36.757 E37.70193
G1 X-46.693 Y37.516 E37.75777
G1 X-48.307 Y35.902 E37.92579
G1 X-48.307 Y36.660 E37.98162
G1 X-46.693 Y38.275 E38.14964
G1 X-46.693 Y39.033 E38.20547
G1 X-48.307 Y37.419 E38.37349
G1 X-48.307 Y38.178 E38.42933
G1 X-46.693 Y39.792 E38.59734
G1 X-46.693 Y40.551 E38.65318
G1 X-48.307 Y38.936 E38.82120
G1 X-48.307 Y39.695 E38.87703
G1 X-46.693 Y41.309 E39.04505
G1 X-46.693 Y42.068 E39.10088
G1 X-48.307 Y40.454 E39.26890
G1 X-48.307 Y41.212 E39.32473
G1 X-46.693 Y42.827 E39.49275
G1 X-46.693 Y43.585 E39.54859
G1 X-48.307 Y41.971 E39.71661
G1 X-48.307 Y42.730 E39.77244
G1 X-46.693 Y44.344 E39.94046
G1 X-46.693 Y45.102 E39.99629
G1 X-48.307 Y43.488 E40.16431
G1 X-48.307 Y44.247 E40.22014
G1 X-46.693 Y45.861 E40.38816
G1 X-46.693 Y46.620 E40.44400
G1 X-48.307 Y45.006 E40.61201
G1 X-48.307 Y45.764 E40.66785
G1 X-45.764 Y48.307 E40.93253
G1 X-46.523 Y48.307 E40.98837
G1 X-48.307 Y46.523 E41.17409
G1 X-48.307 Y47.281 E41.22992
G1 X-47.281 Y48.307 E41.33668
G1 X-46.620 Y46.693 F4800.000
G1 X-45.006 Y48.307 E41.50470 F360.000
G1 X-44.247 Y48.307 E41.56053
G1 X-45.861 Y46.693 E41.72855
G1 X-45.102 Y46.693 E41.78439
G1 X-43.488 Y48.307 E41.95240
G1 X-42.730 Y48.307 E42.00824
G1 X-44.344 Y46.693 E42.17626
G1 X-43.585 Y46.693 E42.23209
G1 X-41.971 Y48.307 E42.40011
G1 X-41.212 Y48.307 E42.45594
G1 X-42.827 Y46.693 E42.62396
G1 X-42.068 Y46.693 E42.67980
G1 X-40.454 Y48.307 E42.84781
G1 X-39.695 Y48.307 E42.90365
G1 X-41.309 Y46.693 E43.07167
G1 X-40.551 Y46.693 E43.12750
G1 X-38.936 Y48.307 E43.29552
G1 X-38.178 Y48.307 E43.35135
G1 X-39.792 Y46.693 E43.51937
G1 X-39.033 Y46.693 E43.57520
G1 X-37.419 Y48.307 E43.74322
G1 X-36.660 Y48.307 E43.79906
G1 X-38.275 Y46.693 E43.96707
G1 X-37.516 Y46.693 E44.02291
G1 X-35.902 Y48.307 E44.19093
G1 X-35.143 Y48.307 E44.24676
G1 X-36.757 Y46.693 E44.41478
G1 X-35.999 Y46.693 E44.47061
G1 X-34.385 Y48.307 E44.63863
G1 X-33.626 Y48.307 E44.69447
G1 X-35.240 Y46.693 E44.86248
G1 X-34.482 Y46.693 E44.91832
G1 X-32.867 Y48.307 E45.08634
G1 X-32.109 Y48.307 E45.14217
G1 X-33.723 Y46.693 E45.31019
G1 X-32.964 Y46.693 E45.36602
G1 X-31.350 Y48.307 E45.53404
G1 X-30.591 Y48.307 E45.58988
G1 X-32.206 Y46.693 E45.75789
G1 X-31.447 Y46.693 E45.81373
G1 X-29.833 Y48.307 E45.98175
G1 X-29.074 Y48.307 E46.03758
G1 X-30.688 Y46.693 E46.20560
G1 X-29.930 Y46.693 E46.26143
G1 X-28.315 Y48.307 E46.42945
G1 X-27.557 Y48.307 E46.48529
