; generated by Slic3r 1.2.9 on 2022-04-22 at 18:08:25

; external perimeters extrusion width = 0.40mm
; perimeters extrusion width = 0.67mm
; infill extrusion width = 0.67mm
; solid infill extrusion width = 0.67mm
; top infill extrusion width = 0.67mm

G28 ; home all axes
M104 S190
M190 S70 ; set bed temperature
G1 Z220
G28
G1 X0.000 Y70.000 Z30.300 F8000.000
M109 S190
G1 Z0.2 F2000
G1 X40.000 Y50.000 Z0.1 E10.000
G1 X0 Y0 Z15

G21 ; set units to millimeters
G90 ; use absolute coordinates
M82 ; use absolute distances for extrusion
G92 E0
G1 Z0.300 F4800.000
G1 E-2.00000 F2400.00000
G92 E0
G1 X27.836 Y27.836 F4800.000
G1 E0.80000 F2400.00000
G1 X20.654 Y27.836 E1.32776 F720.000
G1 X-27.836 Y-20.654 E6.36702
G1 X-27.836 Y-27.836 E6.89478
G1 X-20.654 Y-27.836 E7.42254
G1 X27.836 Y20.654 E12.46180
G1 X27.836 Y27.776 E12.98515
G1 X27.300 Y27.300 F4800.000
G1 X20.876 Y27.300 E13.45724 F216.000
G1 X-27.300 Y-20.876 E18.46390
G1 X-27.300 Y-27.300 E18.93599
G1 X-20.876 Y-27.300 E19.40808
G1 X27.300 Y20.876 E24.41474
G1 X27.300 Y27.240 E24.88242
G1 X27.300 Y27.700 F4800.000
G1 E22.88242 F2400.00000
G92 E0
G1 X27.836 Y20.017 F4800.000
G1 E0.80000 F2400.00000
G1 X-20.017 Y-27.836 E5.77311 F720.000
G1 X27.836 Y-27.836 E9.28964
G1 X27.836 Y19.957 E12.80175
G1 X27.300 Y18.724 F4800.000
G1 X-18.724 Y-27.300 E17.58481 F216.000
G1 X27.300 Y-27.300 E20.96695
G1 X27.300 Y18.664 E24.34468
G1 X27.100 Y19.071 F4800.000
G1 E22.34468 F2400.00000
G92 E0
G1 X20.017 Y27.836 F4800.000
G1 E0.80000 F2400.00000
G1 X-27.836 Y27.836 E4.31652 F720.000
G1 X-27.836 Y-20.017 E7.83304
G1 X19.975 Y27.793 E12.80175
G1 X18.724 Y27.300 F4800.000
G1 X-27.300 Y27.300 E16.18389 F216.000
G1 X-27.300 Y-18.724 E19.56602
G1 X18.682 Y27.258 E24.34468
G1 X18.828 Y27.686 F4800.000
G1 E22.34468 F2400.00000
G92 E0
G1 X29.164 Y29.164 F4800.000
G1 E0.80000 F2400.00000
G1 X-29.164 Y29.164 E5.08634 F720.000
G1 X-29.164 Y-29.164 E9.37269
G1 X29.164 Y-29.164 E13.65903
G1 X29.164 Y29.104 E17.94097
G1 X29.700 Y29.700 F4800.000
G1 X-29.700 Y29.700 E22.30604 F216.000
G1 X-29.700 Y-29.700 E26.67110
G1 X29.700 Y-29.700 E31.03617
G1 X29.700 Y29.640 E35.39683
G1 X29.354 Y29.500 F4800.000
G1 X28.432 Y28.432 F4800.000
G1 X28.103 Y28.500 E35.44910 F360.000
G1 X-28.103 Y28.500 E44.20640
G1 X-28.432 Y28.432 E44.25867
G1 X-28.500 Y28.103 E44.31094
G1 X-28.500 Y-28.103 E53.06824
G1 X-28.432 Y-28.432 E53.12051
G1 X-28.103 Y-28.500 E53.17279
G1 X28.103 Y-28.500 E61.93008
G1 X28.432 Y-28.432 E61.98236
G1 X28.500 Y-28.103 E62.03463
G1 X28.500 Y28.103 E70.79193
G1 X28.444 Y28.373 E70.83485
G1 E68.83485 F2400.00000
G92 E0
M104 S0 ; turn off temperature
M140 S0; turn off heated bed
G28
M84     ; disable motors

; filament used = 136.4mm (0.3cm3)

; avoid_crossing_perimeters = 0
; bed_shape = 99.4522x10.4528,97.8148x20.7912,95.1057x30.9017,91.3545x40.6737,86.6025x50,80.9017x58.7785,74.3145x66.9131,66.9131x74.3145,58.7785x80.9017,50x86.6025,40.6737x91.3545,30.9017x95.1057,20.7912x97.8148,10.4528x99.4522,0x100,-10.4528x99.4522,-20.7912x97.8148,-30.9017x95.1057,-40.6737x91.3545,-50x86.6025,-58.7785x80.9017,-66.9131x74.3145,-74.3145x66.9131,-80.9017x58.7785,-86.6025x50,-91.3545x40.6737,-95.1057x30.9017,-97.8148x20.7912,-99.4522x10.4528,-100x0,-99.4522x-10.4528,-97.8148x-20.7912,-95.1057x-30.9017,-91.3545x-40.6737,-86.6025x-50,-80.9017x-58.7785,-74.3145x-66.9131,-66.9131x-74.3145,-58.7785x-80.9017,-50x-86.6025,-40.6737x-91.3545,-30.9017x-95.1057,-20.7912x-97.8148,-10.4528x-99.4522,0x-100,10.4528x-99.4522,20.7912x-97.8148,30.9017x-95.1057,40.6737x-91.3545,50x-86.6025,58.7785x-80.9017,66.9131x-74.3145,74.3145x-66.9131,80.9017x-58.7785,86.6025x-50,91.3545x-40.6737,95.1057x-30.9017,97.8148x-20.7912,99.4522x-10.4528,100x0
; bed_temperature = 70
; before_layer_gcode = 
; bridge_acceleration = 0
; bridge_fan_speed = 100
; brim_width = 0
; complete_objects = 0
; cooling = 0
; default_acceleration = 0
; disable_fan_first_layers = 3
; duplicate_distance = 6
; end_gcode = M104 S0 ; turn off temperature\nM140 S0; turn off heated bed\nG28\nM84     ; disable motors\n
; extruder_clearance_height = 20
; extruder_clearance_radius = 20
; extruder_offset = 0x0
; extrusion_axis = E
; extrusion_multiplier = 1.1
; fan_always_on = 1
; fan_below_layer_time = 60
; filament_colour = #000000
; filament_diameter = 1.75
; first_layer_acceleration = 0
; first_layer_bed_temperature = 70
; first_layer_extrusion_width = 200%
; first_layer_speed = 40%
; first_layer_temperature = 190
; gcode_arcs = 0
; gcode_comments = 0
; gcode_flavor = reprap
; infill_acceleration = 0
; infill_first = 0
; layer_gcode = 
; max_fan_speed = 100
; max_print_speed = 50
; max_volumetric_speed = 0
; min_fan_speed = 100
; min_print_speed = 5
; min_skirt_length = 0
; notes = 
; nozzle_diameter = 0.4
; only_retract_when_crossing_perimeters = 1
; ooze_prevention = 0
; output_filename_format = [input_filename_base].gcode
; perimeter_acceleration = 0
; post_process = 
; pressure_advance = 0
; resolution = 0
; retract_before_travel = 2
; retract_layer_change = 0
; retract_length = 2
; retract_length_toolchange = 10
; retract_lift = 0
; retract_restart_extra = -1.2
; retract_restart_extra_toolchange = 0
; retract_speed = 40
; skirt_distance = 10
; skirt_height = 1
; skirts = 0
; slowdown_below_layer_time = 10
; spiral_vase = 0
; standby_temperature_delta = -5
; start_gcode = G28 ; home all axes\nM104 S[first_layer_temperature]\nM190 S70 ; set bed temperature\nG1 Z220\nG28\nG1 X0.000 Y70.000 Z30.300 F8000.000\nM109 S[first_layer_temperature]\nG1 Z0.2 F2000\nG1 X40.000 Y50.000 Z0.1 E10.000\nG1 X0 Y0 Z15\n
; temperature = 190
; threads = 2
; toolchange_gcode = 
; travel_speed = 80
; use_firmware_retraction = 0
; use_relative_e_distances = 0
; use_volumetric_e = 0
; vibration_limit = 0
; wipe = 0
; z_offset = 0
; dont_support_bridges = 1
; extrusion_width = 0
; first_layer_height = 0.3
; infill_only_where_needed = 0
; interface_shells = 0
; layer_height = 0.2
; raft_layers = 0
; seam_position = aligned
; support_material = 0
; support_material_angle = 0
; support_material_contact_distance = 0.2
; support_material_enforce_layers = 0
; support_material_extruder = 1
; support_material_extrusion_width = 0
; support_material_interface_extruder = 1
; support_material_interface_layers = 3
; support_material_interface_spacing = 0
; support_material_interface_speed = 100%
; support_material_pattern = rectilinear-grid
; support_material_spacing = 2.5
; support_material_speed = 45
; support_material_threshold = 0
; xy_size_compensation = 0
; bottom_solid_layers = 3
; bridge_flow_ratio = 1
; bridge_speed = 45
; external_fill_pattern = rectilinear
; external_perimeter_extrusion_width = 0
; external_perimeter_speed = 30%
; external_perimeters_first = 0
; extra_perimeters = 1
; fill_angle = 45
; fill_density = 30%
; fill_pattern = rectilinear
; gap_fill_speed = 15
; infill_every_layers = 1
; infill_extruder = 1
; infill_extrusion_width = 0
; infill_overlap = 15%
; infill_speed = 30
; overhangs = 1
; perimeter_extruder = 1
; perimeter_extrusion_width = 0
; perimeter_speed = 30
; perimeters = 3
; small_perimeter_speed = 12
; solid_infill_below_area = 70
; solid_infill_every_layers = 0
; solid_infill_extruder = 1
; solid_infill_extrusion_width = 0
; solid_infill_speed = 15
; thin_walls = 1
; top_infill_extrusion_width = 0
; top_solid_infill_speed = 12
; top_solid_layers = 3
