; generated by Slic3r 1.2.9 on 2021-10-08 at 17:54:10

; external perimeters extrusion width = 0.40mm
; perimeters extrusion width = 0.67mm
; infill extrusion width = 0.67mm
; solid infill extrusion width = 0.67mm
; top infill extrusion width = 0.67mm

M107
M190 S60 ; set bed temperature
M104 S185 ; set temperature
G28 ; home all axes
G1 Z5 F5000 ; lift nozzle

M109 S185 ; wait for temperature to be reached
G21 ; set units to millimeters
G90 ; use absolute coordinates
M82 ; use absolute distances for extrusion
G92 E0
G1 Z0.400 F7800.000
G1 E-2.00000 F1800.00000
G92 E0
G1 X26.514 Y0.000 F7800.000
G1 E2.00000 F1800.00000
G1 X26.514 Y19.800 E4.11640 F270.000
G1 X26.117 Y22.075 E4.36320
G1 X24.973 Y24.080 E4.61000
G1 X23.217 Y25.580 E4.85680
G1 X21.057 Y26.395 E5.10360
G1 X19.800 Y26.514 E5.23857
G1 X-19.800 Y26.514 E9.47137
G1 X-22.075 Y26.117 E9.71817
G1 X-24.080 Y24.973 E9.96497
G1 X-25.580 Y23.217 E10.21177
G1 X-26.395 Y21.057 E10.45857
G1 X-26.514 Y19.800 E10.59354
G1 X-26.514 Y-19.800 E14.82634
G1 X-26.117 Y-22.075 E15.07314
G1 X-24.973 Y-24.080 E15.31994
G1 X-23.217 Y-25.580 E15.56674
G1 X-21.057 Y-26.395 E15.81354
G1 X-19.800 Y-26.514 E15.94851
G1 X19.800 Y-26.514 E20.18131
G1 X22.075 Y-26.117 E20.42811
G1 X24.080 Y-24.973 E20.67491 F270.000
G1 X25.580 Y-23.217 E20.92171
G1 X26.395 Y-21.057 E21.16851
G1 X26.514 Y-19.800 E21.30348
G1 X26.514 Y-0.060 E23.41347
G1 E21.41347 F1800.00000
G92 E0
G1 X17.972 Y-17.972 F7800.000
G1 E2.00000 F1800.00000
G1 X17.972 Y17.972 E5.84194 F945.000
G1 X-17.972 Y17.972 E9.68388
G1 X-17.972 Y-17.972 E13.52581
G1 X17.912 Y-17.972 E17.36134
G1 X18.686 Y-18.686 F7800.000
G1 X18.686 Y18.686 E21.35595 F945.000
G1 X-18.686 Y18.686 E25.35056
G1 X-18.686 Y-18.686 E29.34516
G1 X18.626 Y-18.686 E33.33336
G1 X19.400 Y-19.400 F7800.000
G1 X19.400 Y19.400 E37.48064 F425.250
G1 X-19.400 Y19.400 E41.62792
G1 X-19.400 Y-19.400 E45.77520
G1 X19.340 Y-19.400 E49.91607
G1 X19.200 Y-19.054 F7800.000
G1 X17.536 Y-17.193 F7800.000
G1 X17.193 Y-17.536 E49.96850 F540.000
G1 X16.172 Y-17.536 E50.07893
G1 X17.536 Y-16.172 E50.28752
G1 X17.536 Y-15.150 E50.39795
G1 X15.150 Y-17.536 E50.76270
G1 X14.129 Y-17.536 E50.87313
G1 X17.536 Y-14.129 E51.39405
G1 X17.536 Y-13.107 E51.50447
G1 X13.107 Y-17.536 E52.18155
G1 X12.086 Y-17.536 E52.29197
G1 X17.536 Y-12.086 E53.12521
G1 X17.536 Y-11.064 E53.23563
G1 X11.064 Y-17.536 E54.22504
G1 X10.043 Y-17.536 E54.33546
G1 X17.536 Y-10.043 E55.48102
G1 X17.536 Y-9.022 E55.59144
G1 X9.022 Y-17.536 E56.89317
G1 X8.000 Y-17.536 E57.00359
G1 X17.536 Y-8.000 E58.46147
G1 X17.536 Y-6.979 E58.57190
G1 X6.979 Y-17.536 E60.18594
G1 X5.957 Y-17.536 E60.29636
G1 X17.536 Y-5.957 E62.06657
G1 X17.536 Y-4.936 E62.17699
G1 X4.936 Y-17.536 E64.10336
G1 X3.914 Y-17.536 E64.21378
G1 X17.536 Y-3.914 E66.29631
G1 X17.536 Y-2.893 E66.40673
G1 X2.893 Y-17.536 E68.64542
G1 X1.871 Y-17.536 E68.75584
G1 X17.536 Y-1.871 E71.15069
G1 X17.536 Y-0.850 E71.26111
G1 X0.850 Y-17.536 E73.81212
G1 X-0.172 Y-17.536 E73.92254
G1 X17.536 Y0.171 E76.62971
G1 X17.536 Y1.193 E76.74013
G1 X-1.193 Y-17.536 E79.60347
G1 X-2.214 Y-17.536 E79.71389
G1 X17.536 Y2.214 E82.73338
G1 X17.536 Y3.236 E82.84380
G1 X-3.236 Y-17.536 E86.01945
G1 X-4.257 Y-17.536 E86.12988
G1 X17.536 Y4.257 E89.46169
G1 X17.536 Y5.279 E89.57211
G1 X-5.279 Y-17.536 E93.06009
G1 X-6.300 Y-17.536 E93.17051
G1 X17.536 Y6.300 E96.81464
G1 X17.536 Y7.322 E96.92507
G1 X-7.322 Y-17.536 E100.72536
G1 X-8.343 Y-17.536 E100.83578
G1 X17.536 Y8.343 E104.79224
G1 X17.536 Y9.365 E104.90266
G1 X-9.365 Y-17.536 E109.01528
G1 X-10.386 Y-17.536 E109.12570
G1 X17.536 Y10.386 E113.39448
G1 X17.536 Y11.407 E113.50490
G1 X-11.407 Y-17.536 E117.92984
G1 X-12.429 Y-17.536 E118.04026
G1 X17.536 Y12.429 E122.62136
G1 X17.536 Y13.450 E122.73178
G1 X-13.450 Y-17.536 E127.46905
G1 X-14.472 Y-17.536 E127.57947
G1 X17.536 Y14.472 E132.47289
G1 X17.536 Y15.493 E132.58331
G1 X-15.493 Y-17.536 E137.63289
G1 X-16.515 Y-17.536 E137.74331
G1 X17.536 Y16.515 E142.94906
G1 X17.516 Y17.516 E143.05734
G1 X-17.516 Y-17.516 E148.41312
G1 X-17.536 Y-16.515 E148.52141
G1 X16.515 Y17.536 E153.72715
G1 X15.493 Y17.536 E153.83757
G1 X-17.536 Y-15.493 E158.88715
G1 X-17.536 Y-14.472 E158.99757
G1 X14.472 Y17.536 E163.89099
G1 X13.450 Y17.536 E164.00141
G1 X-17.536 Y-13.450 E168.73866
G1 X-17.536 Y-12.429 E168.84909
G1 X12.429 Y17.536 E173.43018
G1 X11.407 Y17.536 E173.54061
G1 X-17.536 Y-11.407 E177.96554
G1 X-17.536 Y-10.386 E178.07596
G1 X10.386 Y17.536 E182.34474
G1 X9.365 Y17.536 E182.45516
G1 X-17.536 Y-9.365 E186.56777
G1 X-17.536 Y-8.343 E186.67820
G1 X8.343 Y17.536 E190.63465
G1 X7.322 Y17.536 E190.74507
G1 X-17.536 Y-7.322 E194.54536
G1 X-17.536 Y-6.300 E194.65578
G1 X6.300 Y17.536 E198.29992
G1 X5.279 Y17.536 E198.41034
G1 X-17.536 Y-5.279 E201.89831
G1 X-17.536 Y-4.257 E202.00873
G1 X4.257 Y17.536 E205.34054
G1 X3.236 Y17.536 E205.45096
G1 X-17.536 Y-3.236 E208.62661
G1 X-17.536 Y-2.214 E208.73703
G1 X2.214 Y17.536 E211.75652
G1 X1.193 Y17.536 E211.86694
G1 X-17.536 Y-1.193 E214.73027
G1 X-17.536 Y-0.171 E214.84069
G1 X0.171 Y17.536 E217.54786
G1 X-0.850 Y17.536 E217.65828
G1 X-17.536 Y0.850 E220.20929
G1 X-17.536 Y1.871 E220.31971
G1 X-1.871 Y17.536 E222.71455
G1 X-2.893 Y17.536 E222.82498
G1 X-17.536 Y2.893 E225.06366
G1 X-17.536 Y3.914 E225.17408
G1 X-3.914 Y17.536 E227.25661
G1 X-4.936 Y17.536 E227.36703
G1 X-17.536 Y4.936 E229.29339
G1 X-17.536 Y5.957 E229.40381
G1 X-5.957 Y17.536 E231.17402
G1 X-6.979 Y17.536 E231.28444
G1 X-17.536 Y6.979 E232.89848
G1 X-17.536 Y8.000 E233.00890
G1 X-8.000 Y17.536 E234.46678
G1 X-9.022 Y17.536 E234.57720
G1 X-17.536 Y9.022 E235.87892
G1 X-17.536 Y10.043 E235.98935
G1 X-10.043 Y17.536 E237.13490
G1 X-11.064 Y17.536 E237.24533
G1 X-17.536 Y11.064 E238.23472
G1 X-17.536 Y12.086 E238.34515
G1 X-12.086 Y17.536 E239.17838
G1 X-13.107 Y17.536 E239.28881
G1 X-17.536 Y13.107 E239.96588
G1 X-17.536 Y14.129 E240.07630
G1 X-14.129 Y17.536 E240.59722
G1 X-15.150 Y17.536 E240.70764
G1 X-17.536 Y15.150 E241.07240
G1 X-17.536 Y16.172 E241.18282
G1 X-16.172 Y17.536 E241.39141
G1 X-17.193 Y17.536 E241.50184
G1 X-17.536 Y17.193 E241.55427
M104 S180 ; set temperature
G1 Z0.600 F7800.000
G1 X18.179 Y-18.179 F7800.000
G1 X18.179 Y18.179 E243.26384 F2100.000
G1 X-18.179 Y18.179 E244.97340
G1 X-18.179 Y-18.179 E246.68297
G1 X18.119 Y-18.179 E248.38971
G1 X18.807 Y-18.807 F7800.000
G1 X18.807 Y18.807 E250.15837 F2100.000
G1 X-18.807 Y18.807 E251.92702
G1 X-18.807 Y-18.807 E253.69568
G1 X18.747 Y-18.807 E255.46151
G1 X19.300 Y-19.300 F7800.000
G1 X19.300 Y19.300 E256.49298 F945.000
G1 X-19.300 Y19.300 E257.52446
G1 X-19.300 Y-19.300 E258.55593
G1 X19.240 Y-19.300 E259.58581
G1 X19.100 Y-18.954 F7800.000
G1 X-17.798 Y-17.492 F7800.000
G1 X-17.492 Y-17.798 E259.60630 F1200.000
G1 X-16.598 Y-17.798 E259.64854
G1 X-17.798 Y-16.598 E259.72876
G1 X-17.798 Y-15.705 E259.77100
G1 X-15.705 Y-17.798 E259.91096
G1 X-14.811 Y-17.798 E259.95320
G1 X-17.798 Y-14.811 E260.15289
G1 X-17.798 Y-13.918 E260.19513
G1 X-13.918 Y-17.798 E260.45455
G1 X-13.025 Y-17.798 E260.49679
G1 X-17.798 Y-13.025 E260.81594
G1 X-17.798 Y-12.131 E260.85818
G1 X-12.131 Y-17.798 E261.23707
G1 X-11.238 Y-17.798 E261.27931
G1 X-17.798 Y-11.238 E261.71793
G1 X-17.798 Y-10.344 E261.76017
G1 X-10.344 Y-17.798 E262.25853
G1 X-9.451 Y-17.798 E262.30076
G1 X-17.798 Y-9.451 E262.85885
G1 X-17.798 Y-8.558 E262.90109
G1 X-8.558 Y-17.798 E263.51891
G1 X-7.664 Y-17.798 E263.56115
G1 X-17.798 Y-7.664 E264.23870
G1 X-17.798 Y-6.771 E264.28094
G1 X-6.771 Y-17.798 E265.01823
G1 X-5.877 Y-17.798 E265.06046
G1 X-17.798 Y-5.877 E265.85748
G1 X-17.798 Y-4.984 E265.89972
G1 X-4.984 Y-17.798 E266.75647
G1 X-4.090 Y-17.798 E266.79871
G1 X-17.798 Y-4.090 E267.71520
G1 X-17.798 Y-3.197 E267.75743
G1 X-3.197 Y-17.798 E268.73365
G1 X-2.304 Y-17.798 E268.77589
G1 X-17.798 Y-2.304 E269.81184
G1 X-17.798 Y-1.410 E269.85408
G1 X-1.410 Y-17.798 E270.94976
G1 X-0.517 Y-17.798 E270.99200
G1 X-17.798 Y-0.517 E272.14742
G1 X-17.798 Y0.377 E272.18965
G1 X0.377 Y-17.798 E273.40480
G1 X1.270 Y-17.798 E273.44704
G1 X-17.798 Y1.270 E274.72192
G1 X-17.798 Y2.163 E274.76416
G1 X2.163 Y-17.798 E276.09878
G1 X3.057 Y-17.798 E276.14101
G1 X-17.798 Y3.057 E277.53536
G1 X-17.798 Y3.950 E277.57760
G1 X3.950 Y-17.798 E279.03168
G1 X4.844 Y-17.798 E279.07392
G1 X-17.798 Y4.844 E280.58773
G1 X-17.798 Y5.737 E280.62997
G1 X5.737 Y-17.798 E282.20352
G1 X6.630 Y-17.798 E282.24575
G1 X-17.798 Y6.630 E283.87903
G1 X-17.798 Y7.524 E283.92127
G1 X7.524 Y-17.798 E285.61428
G1 X8.417 Y-17.798 E285.65652
G1 X-17.798 Y8.417 E287.40926
G1 X-17.798 Y9.311 E287.45150
G1 X9.311 Y-17.798 E289.26398
G1 X10.204 Y-17.798 E289.30622
G1 X-17.798 Y10.204 E291.17843
G1 X-17.798 Y11.098 E291.22067
G1 X11.098 Y-17.798 E293.15261
G1 X11.991 Y-17.798 E293.19485
G1 X-17.798 Y11.991 E295.18652
G1 X-17.798 Y12.884 E295.22876
G1 X12.884 Y-17.798 E297.28017
G1 X13.778 Y-17.798 E297.32241
G1 X-17.798 Y13.778 E299.43355
G1 X-17.798 Y14.671 E299.47579
G1 X14.671 Y-17.798 E301.64666
G1 X15.565 Y-17.798 E301.68890
G1 X-17.798 Y15.565 E303.91951
G1 X-17.798 Y16.458 E303.96174
G1 X16.458 Y-17.798 E306.25208
G1 X17.351 Y-17.798 E306.29432
G1 X-17.798 Y17.351 E308.64439
G1 X-17.352 Y17.798 E308.67426
G1 X17.798 Y-17.352 E311.02434
G1 X17.798 Y-16.458 E311.06658
G1 X-16.458 Y17.798 E313.35692
G1 X-15.565 Y17.798 E313.39916
G1 X17.798 Y-15.565 E315.62977
G1 X17.798 Y-14.671 E315.67201
G1 X-14.671 Y17.798 E317.84289
G1 X-13.778 Y17.798 E317.88512
G1 X17.798 Y-13.778 E319.99627
G1 X17.798 Y-12.884 E320.03851
G1 X-12.884 Y17.798 E322.08992
G1 X-11.991 Y17.798 E322.13216
G1 X17.798 Y-11.991 E324.12384
G1 X17.798 Y-11.098 E324.16608
G1 X-11.098 Y17.798 E326.09802
G1 X-10.204 Y17.798 E326.14026
G1 X17.798 Y-10.204 E328.01248
G1 X17.798 Y-9.311 E328.05471
G1 X-9.311 Y17.798 E329.86720
G1 X-8.417 Y17.798 E329.90943
G1 X17.798 Y-8.417 E331.66218
G1 X17.798 Y-7.524 E331.70442
G1 X-7.524 Y17.798 E333.39744
G1 X-6.631 Y17.798 E333.43967
G1 X17.798 Y-6.631 E335.07296
G1 X17.798 Y-5.737 E335.11519
G1 X-5.737 Y17.798 E336.68874
G1 X-4.844 Y17.798 E336.73098
G1 X17.798 Y-4.844 E338.24480
G1 X17.798 Y-3.950 E338.28704
G1 X-3.950 Y17.798 E339.74112
G1 X-3.057 Y17.798 E339.78336
G1 X17.798 Y-3.057 E341.17771
G1 X17.798 Y-2.163 E341.21995
G1 X-2.163 Y17.798 E342.55457
G1 X-1.270 Y17.798 E342.59681
G1 X17.798 Y-1.270 E343.87169
G1 X17.798 Y-0.377 E343.91393
G1 X-0.377 Y17.798 E345.12908
G1 X0.517 Y17.798 E345.17132
G1 X17.798 Y0.517 E346.32674
G1 X17.798 Y1.410 E346.36898
G1 X1.410 Y17.798 E347.46467
G1 X2.304 Y17.798 E347.50691
G1 X17.798 Y2.304 E348.54286
G1 X17.798 Y3.197 E348.58510
G1 X3.197 Y17.798 E349.56132
G1 X4.090 Y17.798 E349.60356
G1 X17.798 Y4.090 E350.52005
G1 X17.798 Y4.984 E350.56229
G1 X4.984 Y17.798 E351.41904
G1 X5.877 Y17.798 E351.46128
G1 X17.798 Y5.877 E352.25830
G1 X17.798 Y6.771 E352.30054
G1 X6.771 Y17.798 E353.03783
G1 X7.664 Y17.798 E353.08007
G1 X17.798 Y7.664 E353.75763
G1 X17.798 Y8.557 E353.79987
G1 X8.557 Y17.798 E354.41769
G1 X9.451 Y17.798 E354.45993
G1 X17.798 Y9.451 E355.01802
G1 X17.798 Y10.344 E355.06026
G1 X10.344 Y17.798 E355.55862
G1 X11.238 Y17.798 E355.60086
G1 X17.798 Y11.238 E356.03948
G1 X17.798 Y12.131 E356.08172
G1 X12.131 Y17.798 E356.46061
G1 X13.025 Y17.798 E356.50285
G1 X17.798 Y13.025 E356.82201
G1 X17.798 Y13.918 E356.86425
G1 X13.918 Y17.798 E357.12368
G1 X14.811 Y17.798 E357.16592
G1 X17.798 Y14.811 E357.36561
G1 X17.798 Y15.705 E357.40785
G1 X15.705 Y17.798 E357.54781
G1 X16.598 Y17.798 E357.59005
G1 X17.798 Y16.598 E357.67028
G1 X17.798 Y17.492 E357.71252
G1 X17.492 Y17.798 E357.73302
G1 Z0.800 F7800.000
G1 X17.979 Y-17.979 F7800.000
G1 X17.979 Y17.979 E359.42377 F2100.000
G1 X-17.979 Y17.979 E361.11453
G1 X-17.979 Y-17.979 E362.80529
G1 X17.919 Y-17.979 E364.49323
G1 X18.607 Y-18.607 F7800.000
G1 X18.607 Y18.607 E366.24307 F2100.000
G1 X-18.607 Y18.607 E367.99292
G1 X-18.607 Y-18.607 E369.74276
G1 X18.547 Y-18.607 E371.48979
G1 X19.100 Y-19.100 F7800.000
G1 X19.100 Y19.100 E372.51058 F945.000
G1 X-19.100 Y19.100 E373.53136
G1 X-19.100 Y-19.100 E374.55215
G1 X19.040 Y-19.100 E375.57133
G1 X18.900 Y-18.754 F7800.000
G1 X17.598 Y-17.292 F7800.000
G1 X17.292 Y-17.598 E375.59186 F1200.000
G1 X16.397 Y-17.598 E375.63421
G1 X17.598 Y-16.397 E375.71463
G1 X17.598 Y-15.502 E375.75698
G1 X15.502 Y-17.598 E375.89729
G1 X14.608 Y-17.598 E375.93964
G1 X17.598 Y-14.608 E376.13984
G1 X17.598 Y-13.713 E376.18219
G1 X13.713 Y-17.598 E376.44229
G1 X12.819 Y-17.598 E376.48464
G1 X17.598 Y-12.819 E376.80463
G1 X17.598 Y-11.924 E376.84698
G1 X11.924 Y-17.598 E377.22686
G1 X11.029 Y-17.598 E377.26921
G1 X17.598 Y-11.029 E377.70899
G1 X17.598 Y-10.135 E377.75134
G1 X10.135 Y-17.598 E378.25101
G1 X9.240 Y-17.598 E378.29336
G1 X17.598 Y-9.240 E378.85292
G1 X17.598 Y-8.346 E378.89527
G1 X8.346 Y-17.598 E379.51473
G1 X7.451 Y-17.598 E379.55708
G1 X17.598 Y-7.451 E380.23643
G1 X17.598 Y-6.556 E380.27878
G1 X6.556 Y-17.598 E381.01802
G1 X5.662 Y-17.598 E381.06037
G1 X17.598 Y-5.662 E381.85951
G1 X17.598 Y-4.767 E381.90186
G1 X4.767 Y-17.598 E382.76089
G1 X3.872 Y-17.598 E382.80324
G1 X17.598 Y-3.872 E383.72216
G1 X17.598 Y-2.978 E383.76451
G1 X2.978 Y-17.598 E384.74332
G1 X2.083 Y-17.598 E384.78567
G1 X17.598 Y-2.083 E385.82438
G1 X17.598 Y-1.189 E385.86673
G1 X1.189 Y-17.598 E386.96533
G1 X0.294 Y-17.598 E387.00768
G1 X17.598 Y-0.294 E388.16617
G1 X17.598 Y0.601 E388.20853
G1 X-0.601 Y-17.598 E389.42691
G1 X-1.495 Y-17.598 E389.46926
G1 X17.598 Y1.495 E390.74754
G1 X17.598 Y2.390 E390.78989
G1 X-2.390 Y-17.598 E392.12806
G1 X-3.284 Y-17.598 E392.17042
G1 X17.598 Y3.284 E393.56848
G1 X17.598 Y4.179 E393.61083
G1 X-4.179 Y-17.598 E395.06879
G1 X-5.074 Y-17.598 E395.11114
G1 X17.598 Y5.074 E396.62899
G1 X17.598 Y5.968 E396.67134
G1 X-5.968 Y-17.598 E398.24909
G1 X-6.863 Y-17.598 E398.29144
G1 X17.598 Y6.863 E399.92908
G1 X17.598 Y7.758 E399.97143
G1 X-7.758 Y-17.598 E401.66896
G1 X-8.652 Y-17.598 E401.71131
G1 X17.598 Y8.652 E403.46873
G1 X17.598 Y9.547 E403.51108
G1 X-9.547 Y-17.598 E405.32840
G1 X-10.441 Y-17.598 E405.37075
G1 X17.598 Y10.441 E407.24796
G1 X17.598 Y11.336 E407.29031
G1 X-11.336 Y-17.598 E409.22741
G1 X-12.231 Y-17.598 E409.26977
G1 X17.598 Y12.231 E411.26676
G1 X17.598 Y13.125 E411.30911
G1 X-13.125 Y-17.598 E413.36600
G1 X-14.020 Y-17.598 E413.40835
G1 X17.598 Y14.020 E415.52513
G1 X17.598 Y14.914 E415.56749
G1 X-14.914 Y-17.598 E417.74416
G1 X-15.809 Y-17.598 E417.78651
G1 X17.598 Y15.809 E420.02308
G1 X17.598 Y16.704 E420.06543
G1 X-16.704 Y-17.598 E422.36189
G1 X-17.578 Y-17.578 E422.40331
G1 X17.578 Y17.578 E424.75698
G1 X16.704 Y17.598 E424.79840
G1 X-17.598 Y-16.704 E427.09485
G1 X-17.598 Y-15.809 E427.13720
G1 X15.809 Y17.598 E429.37377
G1 X14.914 Y17.598 E429.41612
G1 X-17.598 Y-14.914 E431.59279
G1 X-17.598 Y-14.020 E431.63514
G1 X14.020 Y17.598 E433.75192
G1 X13.125 Y17.598 E433.79427
G1 X-17.598 Y-13.125 E435.85116
G1 X-17.598 Y-12.231 E435.89351
G1 X12.231 Y17.598 E437.89050
G1 X11.336 Y17.598 E437.93285
G1 X-17.598 Y-11.336 E439.86995
G1 X-17.598 Y-10.441 E439.91230
G1 X10.441 Y17.598 E441.78950
G1 X9.547 Y17.598 E441.83186
G1 X-17.598 Y-9.547 E443.64917
G1 X-17.598 Y-8.652 E443.69152
G1 X8.652 Y17.598 E445.44894
G1 X7.757 Y17.598 E445.49129
G1 X-17.598 Y-7.757 E447.18882
G1 X-17.598 Y-6.863 E447.23117
G1 X6.863 Y17.598 E448.86880
G1 X5.968 Y17.598 E448.91115
G1 X-17.598 Y-5.968 E450.48889
G1 X-17.598 Y-5.074 E450.53124
G1 X5.074 Y17.598 E452.04909
G1 X4.179 Y17.598 E452.09144
G1 X-17.598 Y-4.179 E453.54940
G1 X-17.598 Y-3.284 E453.59175
G1 X3.284 Y17.598 E454.98981
G1 X2.390 Y17.598 E455.03216
G1 X-17.598 Y-2.390 E456.37033
G1 X-17.598 Y-1.495 E456.41268
G1 X1.495 Y17.598 E457.69095
G1 X0.601 Y17.598 E457.73330
G1 X-17.598 Y-0.601 E458.95168
G1 X-17.598 Y0.294 E458.99404
G1 X-0.294 Y17.598 E460.15252
G1 X-1.189 Y17.598 E460.19488
G1 X-17.598 Y1.189 E461.29347
G1 X-17.598 Y2.083 E461.33582
G1 X-2.083 Y17.598 E462.37452
G1 X-2.978 Y17.598 E462.41688
G1 X-17.598 Y2.978 E463.39569
G1 X-17.598 Y3.873 E463.43804
G1 X-3.873 Y17.598 E464.35695
