; generated by Slic3r 1.2.9 on 2018-10-30 at 12:00:28

; external perimeters extrusion width = 0.40mm
; perimeters extrusion width = 0.67mm
; infill extrusion width = 0.67mm
; solid infill extrusion width = 0.67mm
; top infill extrusion width = 0.67mm

M190 S65 ; set bed temperature
M104 S190 ; set temperature
G28 ; home all axes
G1 Z5 F5000 ; lift nozzle

M109 S190 ; wait for temperature to be reached
G21 ; set units to millimeters
G90 ; use absolute coordinates
M82 ; use absolute distances for extrusion
G92 E0
G1 Z0.400 F4800.000
G1 E-2.00000 F2400.00000
G92 E0
G1 X0.000 Y42.928 F4800.000
G1 E2.00000 F2400.00000
G1 X-53.500 Y42.928 E7.71854 F1440.000
G1 X-53.940 Y42.915 E7.76554
G1 X-54.994 Y42.807 E7.87880
G1 X-55.887 Y42.651 E7.97573
G1 X-56.627 Y42.434 E8.05820
G1 X-57.250 Y42.217 E8.12870
G1 X-58.142 Y41.837 E8.23230
G1 X-58.760 Y41.489 E8.30816
G1 X-59.319 Y41.138 E8.37866
G1 X-60.141 Y40.539 E8.48740
G1 X-60.629 Y40.093 E8.55805
G1 X-61.095 Y39.627 E8.62855
G1 X-61.801 Y38.810 E8.74391
G1 X-62.140 Y38.316 E8.80796
G1 X-62.491 Y37.757 E8.87846
G1 X-63.022 Y36.748 E9.00042
G1 X-63.435 Y35.625 E9.12835
G1 X-63.742 Y34.448 E9.25826
G1 X-63.882 Y33.335 E9.37822
G1 X-63.928 Y32.500 E9.46759
G1 X-63.928 Y-32.500 E16.41535
G1 X-63.915 Y-32.937 E16.46210
G1 X-63.807 Y-33.993 E16.57559
G1 X-63.651 Y-34.887 E16.67260
G1 X-63.434 Y-35.627 E16.75502
G1 X-63.216 Y-36.250 E16.82553
G1 X-62.843 Y-37.130 E16.92774
G1 X-62.489 Y-37.760 E17.00497
G1 X-62.138 Y-38.319 E17.07547
G1 X-61.539 Y-39.141 E17.18426
G1 X-61.093 Y-39.629 E17.25489
G1 X-60.626 Y-40.095 E17.32538
G1 X-59.810 Y-40.801 E17.44075
G1 X-59.316 Y-41.140 E17.50477
G1 X-58.757 Y-41.491 E17.57527
G1 X-57.748 Y-42.022 E17.69723
G1 X-56.624 Y-42.435 E17.82518
G1 X-55.449 Y-42.741 E17.95502
G1 X-54.335 Y-42.882 E18.07501
G1 X-53.718 Y-42.925 E18.14107
G1 X53.930 Y-42.916 E29.64746
G1 X54.994 Y-42.807 E29.76175 F1440.000
G1 X55.874 Y-42.654 E29.85728
G1 X56.627 Y-42.434 E29.94115
G1 X57.250 Y-42.217 E30.01165
G1 X58.142 Y-41.837 E30.11525
G1 X58.760 Y-41.489 E30.19110
G1 X59.319 Y-41.138 E30.26160
G1 X60.141 Y-40.539 E30.37040
G1 X60.629 Y-40.093 E30.44101
G1 X61.095 Y-39.627 E30.51151
G1 X61.808 Y-38.800 E30.62817
G1 X62.491 Y-37.757 E30.76138
G1 X63.022 Y-36.747 E30.88343
G1 X63.435 Y-35.624 E31.01128
G1 X63.739 Y-34.461 E31.13984
G1 X63.882 Y-33.335 E31.26112
G1 X63.928 Y-32.500 E31.35051
G1 X63.928 Y32.500 E38.29827
G1 X63.915 Y32.940 E38.34529
G1 X63.807 Y33.994 E38.45853
G1 X63.651 Y34.887 E38.55548
G1 X63.434 Y35.627 E38.63793
G1 X63.217 Y36.250 E38.70843
G1 X62.843 Y37.130 E38.81066
G1 X62.489 Y37.760 E38.88789
G1 X62.138 Y38.319 E38.95839
G1 X61.539 Y39.142 E39.06723
G1 X61.093 Y39.629 E39.13780
G1 X60.627 Y40.095 E39.20829
G1 X59.810 Y40.801 E39.32363
G1 X59.316 Y41.140 E39.38769
G1 X58.757 Y41.491 E39.45819
G1 X57.747 Y42.022 E39.58021
G1 X56.624 Y42.435 E39.70809
G1 X55.460 Y42.739 E39.83669
G1 X54.335 Y42.882 E39.95793
G1 X53.500 Y42.928 E40.04732
G1 X0.060 Y42.928 E45.75945
G1 X0.000 Y42.214 F4800.000
G1 X-53.898 Y42.202 E51.52052 F1440.000
G1 X-54.914 Y42.098 E51.62967
G1 X-55.722 Y41.956 E51.71741
G1 X-56.391 Y41.760 E51.79195
G1 X-57.014 Y41.542 E51.86245
G1 X-57.821 Y41.199 E51.95623
G1 X-58.380 Y40.884 E52.02478
G1 X-58.939 Y40.533 E52.09529
G1 X-59.682 Y39.992 E52.19357
G1 X-60.124 Y39.588 E52.25756
G1 X-60.590 Y39.122 E52.32806
G1 X-61.228 Y38.384 E52.43233
G1 X-61.886 Y37.377 E52.56083
G1 X-62.366 Y36.465 E52.67106
G1 X-62.761 Y35.389 E52.79360
G1 X-63.038 Y34.324 E52.91115
G1 X-63.172 Y33.255 E53.02635
G1 X-63.214 Y32.500 E53.10716
G1 X-63.214 Y-32.500 E60.05493
G1 X-63.202 Y-32.896 E60.09725
G1 X-63.098 Y-33.913 E60.20660
G1 X-62.959 Y-34.710 E60.29306
G1 X-62.760 Y-35.392 E60.36892
G1 X-62.542 Y-36.014 E60.43942
G1 X-62.205 Y-36.810 E60.53180
G1 X-61.884 Y-37.380 E60.60174
G1 X-61.533 Y-37.939 E60.67224
G1 X-60.984 Y-38.692 E60.77192
G1 X-60.588 Y-39.124 E60.83454
G1 X-60.121 Y-39.590 E60.90503
G1 X-59.373 Y-40.236 E61.01066
G1 X-58.377 Y-40.886 E61.13778
G1 X-57.465 Y-41.366 E61.24801
G1 X-56.388 Y-41.761 E61.37057
G1 X-55.325 Y-42.038 E61.48805
G1 X-54.255 Y-42.172 E61.60328
G1 X-53.698 Y-42.211 E61.66300
G1 X53.889 Y-42.203 E73.16275
G1 X54.914 Y-42.098 E73.27290 F1440.000
G1 X55.709 Y-41.959 E73.35925
G1 X56.392 Y-41.760 E73.43518
G1 X57.014 Y-41.542 E73.50568
G1 X57.821 Y-41.199 E73.59945
G1 X58.380 Y-40.884 E73.66801
G1 X58.939 Y-40.533 E73.73851
G1 X59.682 Y-39.992 E73.83685
G1 X60.124 Y-39.588 E73.90080
G1 X60.590 Y-39.122 E73.97130
G1 X61.235 Y-38.374 E74.07688
G1 X61.886 Y-37.378 E74.20405
G1 X62.366 Y-36.464 E74.31437
G1 X62.761 Y-35.389 E74.43684
G1 X63.036 Y-34.337 E74.55303
G1 X63.172 Y-33.255 E74.66957
G1 X63.214 Y-32.500 E74.75039
G1 X63.214 Y32.500 E81.69816
G1 X63.202 Y32.898 E81.74072
G1 X63.098 Y33.914 E81.84985
G1 X62.959 Y34.710 E81.93625
G1 X62.760 Y35.392 E82.01214
G1 X62.542 Y36.014 E82.08264
G1 X62.205 Y36.810 E82.17503
G1 X61.884 Y37.380 E82.24497
G1 X61.533 Y37.939 E82.31547
G1 X60.983 Y38.692 E82.41519
G1 X60.588 Y39.124 E82.47776
G1 X60.122 Y39.590 E82.54825
G1 X59.373 Y40.235 E82.65385
G1 X58.378 Y40.886 E82.78101
G1 X57.464 Y41.366 E82.89130
G1 X56.389 Y41.761 E83.01379
G1 X55.324 Y42.038 E83.13137
G1 X54.255 Y42.172 E83.24652
G1 X53.700 Y42.211 E83.30599
G1 X0.060 Y42.214 E89.03949
G1 E87.03949 F2400.00000
G92 E0
G1 X-43.142 Y6.714 F4800.000
G1 E2.00000 F2400.00000
G1 X-43.142 Y-25.657 E5.46008 F960.000
G1 X-43.045 Y-26.764 E5.57887
G1 X-42.736 Y-27.915 E5.70623
G1 X-42.233 Y-28.995 E5.83358
G1 X-41.550 Y-29.971 E5.96093
G1 X-40.707 Y-30.813 E6.08829
G1 X-39.731 Y-31.496 E6.21565
G1 X-38.651 Y-32.000 E6.34300
G1 X-37.500 Y-32.308 E6.47035
G1 X-36.393 Y-32.405 E6.58914
G1 X34.059 Y-32.405 E14.11965 F960.000
G1 X35.166 Y-32.308 E14.23844
G1 X36.317 Y-32.000 E14.36579
G1 X37.396 Y-31.496 E14.49315
G1 X38.372 Y-30.813 E14.62050
G1 X39.215 Y-29.971 E14.74786
G1 X39.898 Y-28.995 E14.87521
G1 X40.402 Y-27.915 E15.00257
G1 X40.710 Y-26.764 E15.12992
G1 X40.807 Y-25.657 E15.24871
G1 X40.807 Y25.465 E20.71302
G1 X40.710 Y26.572 E20.83181
G1 X40.402 Y27.723 E20.95916
G1 X39.898 Y28.803 E21.08652
G1 X39.215 Y29.779 E21.21387
G1 X38.372 Y30.621 E21.34123
G1 X37.396 Y31.304 E21.46858
G1 X36.317 Y31.808 E21.59593
G1 X35.166 Y32.116 E21.72329
G1 X34.059 Y32.213 E21.84208
G1 X-36.393 Y32.213 E29.37259
G1 X-37.500 Y32.116 E29.49138
G1 X-38.651 Y31.808 E29.61874
G1 X-39.731 Y31.304 E29.74609
G1 X-40.707 Y30.621 E29.87344
G1 X-41.550 Y29.779 E30.00080
G1 X-42.259 Y28.766 E30.13296
G1 X-42.738 Y27.716 E30.25635
G1 X-43.045 Y26.572 E30.38293
G1 X-43.142 Y25.465 E30.50172
G1 X-43.142 Y6.774 E32.49953
G1 X-42.428 Y6.714 F4800.000
G1 X-42.428 Y-25.626 E35.95628 F960.000
G1 X-42.339 Y-26.639 E36.06506
G1 X-42.063 Y-27.670 E36.17906
G1 X-41.612 Y-28.636 E36.29305
G1 X-41.000 Y-29.510 E36.40705
G1 X-40.246 Y-30.264 E36.52105
G1 X-39.373 Y-30.876 E36.63505
G1 X-38.406 Y-31.326 E36.74904
G1 X-37.376 Y-31.602 E36.86304
G1 X-36.362 Y-31.691 E36.97182
G1 X34.027 Y-31.691 E44.49566 F960.000
G1 X35.041 Y-31.602 E44.60444
G1 X36.071 Y-31.326 E44.71844
G1 X37.038 Y-30.876 E44.83243
G1 X37.912 Y-30.264 E44.94643
G1 X38.666 Y-29.510 E45.06043
G1 X39.278 Y-28.636 E45.17443
G1 X39.728 Y-27.670 E45.28842
G1 X40.004 Y-26.639 E45.40242
G1 X40.093 Y-25.626 E45.51120
G1 X40.093 Y25.434 E50.96884
G1 X40.004 Y26.447 E51.07762
G1 X39.728 Y27.478 E51.19162
G1 X39.278 Y28.444 E51.30562
G1 X38.666 Y29.318 E51.41961
G1 X37.912 Y30.072 E51.53362
G1 X37.038 Y30.684 E51.64761
G1 X36.071 Y31.134 E51.76160
G1 X35.041 Y31.410 E51.87560
G1 X34.027 Y31.499 E51.98439
G1 X-36.362 Y31.499 E59.50822
G1 X-37.376 Y31.410 E59.61700
G1 X-38.406 Y31.134 E59.73100
G1 X-39.373 Y30.684 E59.84500
G1 X-40.246 Y30.072 E59.95899
G1 X-41.000 Y29.318 E60.07299
G1 X-41.636 Y28.410 E60.19150
G1 X-42.064 Y27.473 E60.30153
G1 X-42.339 Y26.447 E60.41505
G1 X-42.428 Y25.434 E60.52383
G1 X-42.428 Y6.774 E62.51831
G1 X-41.713 Y6.714 F4800.000
G1 X-41.713 Y-25.594 E65.97173 F480.000
G1 X-41.633 Y-26.515 E66.07049
G1 X-41.389 Y-27.424 E66.17114
G1 X-40.991 Y-28.278 E66.27177
G1 X-40.451 Y-29.049 E66.37241
G1 X-39.785 Y-29.715 E66.47306
G1 X-39.014 Y-30.255 E66.57370
G1 X-38.161 Y-30.653 E66.67434
G1 X-37.251 Y-30.896 E66.77498
G1 X-36.331 Y-30.977 E66.87375
G1 X33.996 Y-30.977 E74.39092 F480.000
G1 X34.917 Y-30.896 E74.48969
G1 X35.826 Y-30.653 E74.59033
G1 X36.680 Y-30.255 E74.69097
G1 X37.451 Y-29.715 E74.79161
G1 X38.117 Y-29.049 E74.89225
G1 X38.657 Y-28.278 E74.99289
G1 X39.055 Y-27.424 E75.09353
G1 X39.298 Y-26.515 E75.19417
G1 X39.379 Y-25.594 E75.29294
G1 X39.379 Y25.402 E80.74392
G1 X39.298 Y26.323 E80.84268
G1 X39.055 Y27.232 E80.94332
G1 X38.657 Y28.086 E81.04396
G1 X38.117 Y28.857 E81.14460
G1 X37.451 Y29.523 E81.24525
G1 X36.680 Y30.063 E81.34589
G1 X35.826 Y30.461 E81.44653
G1 X34.917 Y30.704 E81.54717
G1 X33.996 Y30.785 E81.64594
G1 X-36.331 Y30.785 E89.16311
G1 X-37.251 Y30.704 E89.26188
G1 X-38.161 Y30.461 E89.36252
G1 X-39.014 Y30.063 E89.46316
G1 X-39.785 Y29.523 E89.56380
G1 X-40.451 Y28.857 E89.66444
G1 X-41.014 Y28.053 E89.76928
G1 X-41.390 Y27.231 E89.86595
G1 X-41.633 Y26.323 E89.96643
G1 X-41.713 Y25.402 E90.06519
G1 X-41.713 Y6.774 E92.05634
G1 X-42.060 Y6.514 F4800.000
G1 X-54.672 Y6.714 F4800.000
G1 X-54.672 Y-32.398 E96.23697 F960.000
G1 X-54.632 Y-32.755 E96.27534
G1 X-54.546 Y-33.001 E96.30328
G1 X-54.409 Y-33.220 E96.33079
G1 X-54.217 Y-33.411 E96.35976
G1 X-54.006 Y-33.544 E96.38646
G1 X-53.760 Y-33.630 E96.41435
G1 X-53.397 Y-33.672 E96.45342
G1 X53.404 Y-33.671 E107.86915
G1 X53.754 Y-33.632 E107.90685 F960.000
G1 X54.001 Y-33.546 E107.93484
G1 X54.222 Y-33.408 E107.96262
G1 X54.404 Y-33.226 E107.99011
G1 X54.548 Y-32.997 E108.01910
G1 X54.630 Y-32.761 E108.04578
G1 X54.672 Y-32.397 E108.08497
G1 X54.672 Y32.398 E115.01076
G1 X54.632 Y32.755 E115.04914
G1 X54.546 Y33.001 E115.07707
G1 X54.409 Y33.220 E115.10458
G1 X54.217 Y33.411 E115.13356
G1 X54.006 Y33.544 E115.16025
G1 X53.760 Y33.630 E115.18814
G1 X53.397 Y33.672 E115.22721
G1 X-53.398 Y33.672 E126.64232
G1 X-53.755 Y33.632 E126.68070
G1 X-54.001 Y33.546 E126.70863
G1 X-54.220 Y33.409 E126.73614
G1 X-54.411 Y33.217 E126.76512
G1 X-54.544 Y33.006 E126.79182
G1 X-54.630 Y32.760 E126.81970
G1 X-54.672 Y32.397 E126.85877
G1 X-54.672 Y6.774 E129.59752
G1 X-55.386 Y6.714 F4800.000
G1 X-55.386 Y-32.438 E133.78241 F960.000
G1 X-55.332 Y-32.914 E133.83360
G1 X-55.194 Y-33.312 E133.87869
G1 X-54.971 Y-33.668 E133.92352
G1 X-54.665 Y-33.973 E133.96976
G1 X-54.318 Y-34.191 E134.01357
G1 X-53.920 Y-34.331 E134.05863
G1 X-53.437 Y-34.386 E134.11064
G1 X53.444 Y-34.385 E145.53498
G1 X53.913 Y-34.333 E145.58549 F960.000
G1 X54.312 Y-34.194 E145.63061
G1 X54.669 Y-33.971 E145.67560
G1 X54.966 Y-33.675 E145.72042
G1 X55.196 Y-33.308 E145.76667
G1 X55.331 Y-32.921 E145.81047
G1 X55.386 Y-32.437 E145.86255
G1 X55.386 Y32.438 E152.79692
G1 X55.332 Y32.914 E152.84811
G1 X55.194 Y33.312 E152.89320
G1 X54.971 Y33.668 E152.93803
G1 X54.665 Y33.973 E152.98427
G1 X54.318 Y34.191 E153.02808
G1 X53.920 Y34.331 E153.07314
G1 X53.437 Y34.386 E153.12515
G1 X-53.438 Y34.386 E164.54884
G1 X-53.914 Y34.332 E164.60003
G1 X-54.312 Y34.194 E164.64512
G1 X-54.668 Y33.971 E164.68995
G1 X-54.973 Y33.665 E164.73619
G1 X-55.191 Y33.318 E164.78000
G1 X-55.331 Y32.920 E164.82506
G1 X-55.386 Y32.437 E164.87707
G1 X-55.386 Y6.774 E167.62013
G1 X-56.100 Y6.714 F4800.000
G1 X-56.100 Y-32.478 E171.80929 F480.000
G1 X-56.033 Y-33.073 E171.87330
G1 X-55.842 Y-33.623 E171.93554
G1 X-55.534 Y-34.116 E171.99768
G1 X-55.113 Y-34.535 E172.06120
G1 X-54.630 Y-34.838 E172.12212
G1 X-54.081 Y-35.031 E172.18435
G1 X-53.477 Y-35.100 E172.24929
G1 X53.484 Y-35.100 E183.68224
G1 X54.073 Y-35.033 E183.74556 F480.000
G1 X54.623 Y-34.842 E183.80781
G1 X55.116 Y-34.533 E183.87002
G1 X55.528 Y-34.123 E183.93216
G1 X55.843 Y-33.619 E183.99568
G1 X56.031 Y-33.081 E184.05659
G1 X56.100 Y-32.477 E184.12157
G1 X56.100 Y32.478 E191.06452
G1 X56.033 Y33.073 E191.12853
G1 X55.842 Y33.623 E191.19077
G1 X55.534 Y34.116 E191.25291
G1 X55.113 Y34.535 E191.31643
G1 X54.630 Y34.838 E191.37734
G1 X54.081 Y35.031 E191.43958
G1 X53.477 Y35.100 E191.50452
G1 X-53.478 Y35.100 E202.93680
G1 X-54.073 Y35.033 E203.00080
G1 X-54.623 Y34.842 E203.06304
G1 X-55.116 Y34.534 E203.12519
G1 X-55.535 Y34.113 E203.18870
G1 X-55.838 Y33.630 E203.24962
G1 X-56.032 Y33.081 E203.31186
G1 X-56.100 Y32.477 E203.37680
G1 X-56.100 Y6.774 E206.12418
G1 X-55.754 Y6.514 F4800.000
G1 X-43.413 Y27.053 F4800.000
G1 X-54.236 Y16.230 E207.77495 F480.000
G1 X-54.236 Y15.211 E207.88485
G1 X-43.555 Y25.892 E209.51384
G1 X-43.577 Y24.851 E209.62612
G1 X-54.236 Y14.192 E211.25179
G1 X-54.236 Y13.173 E211.36168
G1 X-43.577 Y23.832 E212.98735
G1 X-43.577 Y22.813 E213.09724
G1 X-54.236 Y12.154 E214.72291
G1 X-54.236 Y11.135 E214.83281
G1 X-43.577 Y21.794 E216.45847
G1 X-43.577 Y20.775 E216.56837
G1 X-54.236 Y10.116 E218.19403
G1 X-54.236 Y9.097 E218.30393
G1 X-43.577 Y19.756 E219.92959
G1 X-43.577 Y18.737 E220.03949
G1 X-54.236 Y8.078 E221.66515
G1 X-54.236 Y7.059 E221.77505
G1 X-43.577 Y17.718 E223.40071
G1 X-43.577 Y16.699 E223.51061
G1 X-54.236 Y6.040 E225.13627
G1 X-54.236 Y5.021 E225.24617
G1 X-43.577 Y15.680 E226.87184
G1 X-43.577 Y14.661 E226.98173
G1 X-54.236 Y4.002 E228.60740
G1 X-54.236 Y2.983 E228.71729
G1 X-43.577 Y13.642 E230.34296
G1 X-43.577 Y12.623 E230.45285
G1 X-54.236 Y1.964 E232.07852
G1 X-54.236 Y0.945 E232.18841
G1 X-43.577 Y11.604 E233.81408
G1 X-43.577 Y10.585 E233.92398
G1 X-54.236 Y-0.074 E235.54964
G1 X-54.236 Y-1.093 E235.65954
G1 X-43.577 Y9.566 E237.28520
G1 X-43.577 Y8.547 E237.39510
G1 X-54.236 Y-2.112 E239.02076
G1 X-54.236 Y-3.131 E239.13066
G1 X-43.577 Y7.528 E240.75632
G1 X-43.577 Y6.509 E240.86622
G1 X-54.236 Y-4.150 E242.49188
G1 X-54.236 Y-5.169 E242.60178
G1 X-43.577 Y5.489 E244.22744
G1 X-43.577 Y4.470 E244.33734
G1 X-54.236 Y-6.188 E245.96300
G1 X-54.236 Y-7.207 E246.07290
G1 X-43.577 Y3.451 E247.69857
G1 X-43.577 Y2.432 E247.80846
G1 X-54.236 Y-8.226 E249.43413
G1 X-54.236 Y-9.245 E249.54402
G1 X-43.577 Y1.413 E251.16969
G1 X-43.577 Y0.394 E251.27958
G1 X-54.236 Y-10.265 E252.90525
G1 X-54.236 Y-11.284 E253.01514
G1 X-43.577 Y-0.625 E254.64081
G1 X-43.577 Y-1.644 E254.75071
G1 X-54.236 Y-12.303 E256.37637
G1 X-54.236 Y-13.322 E256.48627
G1 X-43.577 Y-2.663 E258.11193
G1 X-43.577 Y-3.682 E258.22183
G1 X-54.236 Y-14.341 E259.84749
G1 X-54.236 Y-15.360 E259.95739
G1 X-43.577 Y-4.701 E261.58305
G1 X-43.577 Y-5.720 E261.69295
G1 X-54.236 Y-16.379 E263.31861
G1 X-54.236 Y-17.398 E263.42851
G1 X-43.577 Y-6.739 E265.05417
G1 X-43.577 Y-7.758 E265.16407
G1 X-54.236 Y-18.417 E266.78973
G1 X-54.236 Y-19.436 E266.89963
G1 X-43.577 Y-8.777 E268.52530
G1 X-43.577 Y-9.796 E268.63519
G1 X-54.236 Y-20.455 E270.26086
G1 X-54.236 Y-21.474 E270.37075
G1 X-43.577 Y-10.815 E271.99642
G1 X-43.577 Y-11.834 E272.10631
G1 X-54.236 Y-22.493 E273.73198
G1 X-54.236 Y-23.512 E273.84187
G1 X-43.577 Y-12.853 E275.46754
G1 X-43.577 Y-13.872 E275.57744
G1 X-54.236 Y-24.531 E277.20310
G1 X-54.236 Y-25.550 E277.31300
G1 X-43.577 Y-14.891 E278.93866
G1 X-43.577 Y-15.910 E279.04856
G1 X-54.236 Y-26.569 E280.67422
G1 X-54.236 Y-27.588 E280.78412
G1 X-43.577 Y-16.929 E282.40978
G1 X-43.577 Y-17.948 E282.51968
G1 X-54.236 Y-28.607 E284.14534
G1 X-54.236 Y-29.626 E284.25524
G1 X-43.577 Y-18.967 E285.88090
G1 X-43.577 Y-19.986 E285.99080
G1 X-54.236 Y-30.645 E287.61646
G1 X-54.236 Y-31.664 E287.72636
G1 X-43.577 Y-21.005 E289.35203
G1 X-43.577 Y-22.024 E289.46192
G1 X-54.219 Y-32.666 E291.08503
G1 X-53.744 Y-33.210 E291.16291
G1 X-43.577 Y-23.043 E292.71357
G1 X-43.577 Y-24.062 E292.82347
G1 X-52.751 Y-33.236 E294.22269
G1 X-51.732 Y-33.236 E294.33258
G1 X-43.577 Y-25.081 E295.57638
G1 X-43.531 Y-26.054 E295.68145
G1 X-50.713 Y-33.236 E296.77682
G1 X-49.694 Y-33.236 E296.88671
G1 X-43.410 Y-26.952 E297.84517
G1 X-43.195 Y-27.756 E297.93489
G1 X-48.675 Y-33.236 E298.77077
G1 X-47.656 Y-33.236 E298.88067
G1 X-42.899 Y-28.479 E299.60624
G1 X-42.570 Y-29.169 E299.68868
G1 X-46.637 Y-33.236 E300.30901
