; generated by Slic3r 1.2.9 on 2019-05-11 at 10:36:58

; external perimeters extrusion width = 0.40mm
; perimeters extrusion width = 0.67mm
; infill extrusion width = 0.67mm
; solid infill extrusion width = 0.67mm
; top infill extrusion width = 0.67mm
; support material extrusion width = 0.40mm

M190 S65 ; set bed temperature
M104 S190 ; set temperature
G28 ; home all axes
G1 Z5 F5000 ; lift nozzle

M109 S190 ; wait for temperature to be reached
G21 ; set units to millimeters
G90 ; use absolute coordinates
M82 ; use absolute distances for extrusion
G92 E0
G1 Z0.400 F4800.000
G1 E-2.00000 F2400.00000
G92 E0
G1 X4.869 Y14.108 F4800.000
G1 E2.00000 F2400.00000
G1 X4.226 Y14.316 E2.07217 F1800.000
G1 X3.354 Y14.545 E2.16855
G1 X2.470 Y14.721 E2.26493
G1 X1.576 Y14.843 E2.36130
G1 X1.125 Y14.884 E2.40973
G1 X0.224 Y14.925 E2.50610
G1 X-0.677 Y14.911 E2.60249
G1 X-1.576 Y14.843 E2.69886
G1 X-2.470 Y14.721 E2.79523
G1 X-3.354 Y14.545 E2.89162
G1 X-3.790 Y14.438 E2.93958
G1 X-4.654 Y14.182 E3.03596
G1 X-5.502 Y13.876 E3.13232
G1 X-6.330 Y13.518 E3.22871
G1 X-6.737 Y13.320 E3.27713
G1 X-7.529 Y12.889 E3.37351
G1 X-7.913 Y12.656 E3.42147
G1 X-8.663 Y12.156 E3.51785
G1 X-9.381 Y11.610 E3.61422
G1 X-10.065 Y11.023 E3.71061
G1 X-10.712 Y10.395 E3.80698
G1 X-11.320 Y9.729 E3.90336
G1 X-11.887 Y9.028 E3.99973
G1 X-12.410 Y8.294 E4.09611
G1 X-12.889 Y7.529 E4.19249
G1 X-13.320 Y6.737 E4.28887
G1 X-13.702 Y5.921 E4.38525
G1 X-13.876 Y5.502 E4.43368
G1 X-14.182 Y4.654 E4.53004
G1 X-14.365 Y4.051 E4.59737
G1 X-14.545 Y3.354 E4.67437
G1 X-14.721 Y2.470 E4.77076
G1 X-14.843 Y1.576 E4.86713
G1 X-14.911 Y0.677 E4.96351
G1 X-14.925 Y0.224 E5.01194
G1 X-14.911 Y-0.677 E5.10832
G1 X-14.843 Y-1.576 E5.20470
G1 X-14.721 Y-2.470 E5.30107
G1 X-14.545 Y-3.354 E5.39745
G1 X-14.389 Y-3.964 E5.46477
G1 X-14.182 Y-4.654 E5.54179
G1 X-13.876 Y-5.502 E5.63815
G1 X-13.518 Y-6.330 E5.73454
G1 X-13.111 Y-7.135 E5.83091
G1 X-12.889 Y-7.529 E5.87934
G1 X-12.410 Y-8.294 E5.97572
G1 X-11.887 Y-9.028 E6.07210
G1 X-11.320 Y-9.729 E6.16847
G1 X-10.712 Y-10.395 E6.26485
G1 X-10.065 Y-11.023 E6.36122
G1 X-9.381 Y-11.610 E6.45760
G1 X-8.663 Y-12.156 E6.55397
G1 X-8.294 Y-12.410 E6.60194
G1 X-7.529 Y-12.889 E6.69832
G1 X-6.737 Y-13.320 E6.79469
G1 X-5.921 Y-13.702 E6.89108
G1 X-5.083 Y-14.035 E6.98744
G1 X-4.226 Y-14.316 E7.08382
G1 X-3.790 Y-14.438 E7.13225
G1 X-2.911 Y-14.640 E7.22863
G1 X-2.022 Y-14.789 E7.32501
G1 X-1.125 Y-14.884 E7.42138
G1 X-0.224 Y-14.925 E7.51776
G1 X0.405 Y-14.919 E7.58508
G1 X1.576 Y-14.843 E7.71050 F1800.000
G1 X2.470 Y-14.721 E7.80687
G1 X2.911 Y-14.640 E7.85484
G1 X3.790 Y-14.438 E7.95121
G1 X4.226 Y-14.316 E7.99964
G1 X4.654 Y-14.182 E8.04760
G1 X5.502 Y-13.876 E8.14397
G1 X6.493 Y-13.439 E8.25971
G1 X7.529 Y-12.889 E8.38511
G1 X7.913 Y-12.656 E8.43308
G1 X8.663 Y-12.156 E8.52946
G1 X9.028 Y-11.887 E8.57788
G1 X9.729 Y-11.320 E8.67426
G1 X10.395 Y-10.712 E8.77064
G1 X11.023 Y-10.065 E8.86701
G1 X11.320 Y-9.729 E8.91498
G1 X11.610 Y-9.381 E8.96340
G1 X12.156 Y-8.663 E9.05978
G1 X12.410 Y-8.294 E9.10774
G1 X12.889 Y-7.529 E9.20412
G1 X13.111 Y-7.135 E9.25254
G1 X13.518 Y-6.330 E9.34892
G1 X13.702 Y-5.921 E9.39689
G1 X14.035 Y-5.083 E9.49326
G1 X14.182 Y-4.654 E9.54168
G1 X14.438 Y-3.790 E9.63806
G1 X14.640 Y-2.911 E9.73444
G1 X14.721 Y-2.470 E9.78241
G1 X14.843 Y-1.576 E9.87878
G1 X14.884 Y-1.125 E9.92720
G1 X14.925 Y-0.224 E10.02358
G1 X14.925 Y0.224 E10.07155
G1 X14.884 Y1.125 E10.16792
G1 X14.843 Y1.576 E10.21635
G1 X14.721 Y2.470 E10.31272
G1 X14.640 Y2.911 E10.36069
G1 X14.438 Y3.790 E10.45706
G1 X14.316 Y4.226 E10.50549
G1 X14.035 Y5.083 E10.60187
G1 X13.702 Y5.921 E10.69824
G1 X13.518 Y6.330 E10.74620
G1 X13.111 Y7.135 E10.84258
G1 X12.889 Y7.529 E10.89100
G1 X12.558 Y8.065 E10.95834
G1 X12.156 Y8.663 E11.03534
G1 X11.610 Y9.381 E11.13172
G1 X11.320 Y9.729 E11.18014
G1 X11.023 Y10.065 E11.22811
G1 X10.395 Y10.712 E11.32448
G1 X10.065 Y11.023 E11.37291
G1 X9.381 Y11.610 E11.46929
G1 X8.663 Y12.156 E11.56566
G1 X8.294 Y12.410 E11.61362
G1 X7.529 Y12.889 E11.71000
G1 X7.135 Y13.111 E11.75843
G1 X6.330 Y13.518 E11.85481
G1 X5.921 Y13.702 E11.90278
G1 X4.925 Y14.089 E12.01692
G1 X4.636 Y13.433 F4800.000
G1 X4.034 Y13.628 E12.08448 F1800.000
G1 X3.204 Y13.847 E12.17625
G1 X2.362 Y14.015 E12.26803
G1 X1.512 Y14.132 E12.35979
G1 X1.060 Y14.173 E12.40821
G1 X0.203 Y14.211 E12.49997
G1 X-0.656 Y14.197 E12.59175
G1 X-1.512 Y14.132 E12.68351
G1 X-2.761 Y13.942 E12.81860
G1 X-3.598 Y13.750 E12.91037
G1 X-4.421 Y13.507 E13.00214
G1 X-5.229 Y13.216 E13.09389
G1 X-6.017 Y12.876 E13.18566
G1 X-6.425 Y12.678 E13.23409
G1 X-7.178 Y12.266 E13.32586
G1 X-8.240 Y11.580 E13.46095
G1 X-8.924 Y11.062 E13.55271
G1 X-9.576 Y10.503 E13.64448
G1 X-10.192 Y9.905 E13.73624
G1 X-10.772 Y9.272 E13.82801
G1 X-11.312 Y8.605 E13.91977
G1 X-11.811 Y7.906 E14.01154
G1 X-12.266 Y7.178 E14.10331
G1 X-12.489 Y6.784 E14.15174
G1 X-12.876 Y6.017 E14.24350
G1 X-13.216 Y5.229 E14.33528
G1 X-13.507 Y4.421 E14.42703
G1 X-13.750 Y3.598 E14.51880
G1 X-14.015 Y2.362 E14.65389
G1 X-14.132 Y1.512 E14.74565
G1 X-14.197 Y0.656 E14.83742
G1 X-14.211 Y0.203 E14.88585
G1 X-14.197 Y-0.656 E14.97762
G1 X-14.132 Y-1.512 E15.06938
G1 X-14.015 Y-2.362 E15.16114
G1 X-13.847 Y-3.204 E15.25292
G1 X-13.701 Y-3.772 E15.31562
G1 X-13.507 Y-4.421 E15.38803
G1 X-13.216 Y-5.229 E15.47978
G1 X-12.876 Y-6.017 E15.57156
G1 X-12.489 Y-6.784 E15.66333
G1 X-12.266 Y-7.178 E15.71175
G1 X-11.811 Y-7.906 E15.80352
G1 X-11.312 Y-8.605 E15.89529
G1 X-10.772 Y-9.272 E15.98705
G1 X-10.192 Y-9.905 E16.07882
G1 X-9.575 Y-10.503 E16.17058
G1 X-8.924 Y-11.062 E16.26235
G1 X-8.240 Y-11.580 E16.35412
G1 X-7.178 Y-12.267 E16.48921
G1 X-6.425 Y-12.678 E16.58097
G1 X-5.647 Y-13.042 E16.67275
G1 X-4.850 Y-13.359 E16.76450
G1 X-4.034 Y-13.628 E16.85627
G1 X-3.598 Y-13.750 E16.90470
G1 X-2.761 Y-13.942 E16.99646
G1 X-1.914 Y-14.083 E17.08824
G1 X-1.060 Y-14.173 E17.18000
G1 X-0.203 Y-14.211 E17.27176
G1 X0.384 Y-14.206 E17.33448
G1 X1.512 Y-14.132 E17.45528 F1800.000
G1 X2.761 Y-13.942 E17.59037
G1 X3.598 Y-13.750 E17.68213
G1 X4.034 Y-13.628 E17.73056
G1 X5.229 Y-13.216 E17.86564
G1 X6.017 Y-12.876 E17.95741
G1 X6.425 Y-12.678 E18.00584
G1 X7.178 Y-12.267 E18.09760
G1 X8.240 Y-11.580 E18.23270
G1 X8.605 Y-11.312 E18.28112
G1 X9.272 Y-10.772 E18.37288
G1 X9.905 Y-10.192 E18.46466
G1 X10.772 Y-9.272 E18.59974
G1 X11.062 Y-8.924 E18.64817
G1 X11.580 Y-8.240 E18.73993
G1 X12.267 Y-7.178 E18.87502
G1 X12.489 Y-6.784 E18.92345
G1 X12.876 Y-6.017 E19.01521
G1 X13.360 Y-4.850 E19.15030
G1 X13.628 Y-4.034 E19.24207
G1 X13.750 Y-3.598 E19.29049
G1 X14.015 Y-2.362 E19.42559
G1 X14.083 Y-1.914 E19.47401
G1 X14.173 Y-1.060 E19.56578
G1 X14.211 Y0.203 E19.70087
G1 X14.173 Y1.060 E19.79263
G1 X14.132 Y1.512 E19.84106
G1 X13.942 Y2.761 E19.97615
G1 X13.750 Y3.598 E20.06791
G1 X13.628 Y4.034 E20.11634
G1 X13.216 Y5.229 E20.25142
G1 X12.876 Y6.017 E20.34319
G1 X12.678 Y6.425 E20.39162
G1 X12.267 Y7.178 E20.48338
G1 X11.580 Y8.240 E20.61847
G1 X11.062 Y8.924 E20.71024
G1 X10.772 Y9.272 E20.75866
G1 X9.905 Y10.192 E20.89375
G1 X9.576 Y10.503 E20.94217
G1 X8.924 Y11.062 E21.03395
G1 X7.906 Y11.811 E21.16903
G1 X7.526 Y12.057 E21.21746
G1 X6.784 Y12.489 E21.30923
G1 X5.647 Y13.042 E21.44432
G1 X4.692 Y13.414 E21.55386
G1 E19.55386 F2400.00000
G92 E0
G1 X-5.306 Y2.000 F4800.000
G1 E2.00000 F2400.00000
G1 X-5.409 Y1.702 E2.03371 F450.000
G1 X-5.532 Y1.229 E2.08597
G1 X-5.631 Y0.663 E2.14739
G1 X-5.661 Y0.342 E2.18178
G1 X-5.661 Y-0.342 E2.25498
G1 X-5.578 Y-1.022 E2.32818
G1 X-5.414 Y-1.687 E2.40137
G1 X-5.171 Y-2.327 E2.47457
G1 X-4.853 Y-2.934 E2.54777
G1 X-4.464 Y-3.497 E2.62096
G1 X-4.010 Y-4.010 E2.69416
G1 X-3.509 Y-4.454 E2.76567
G1 X-3.111 Y-4.737 E2.81794
G1 X-2.617 Y-5.030 E2.87935
G1 X-2.011 Y-5.302 E2.95033
G1 X-1.357 Y-5.506 E3.02353
G1 X-0.684 Y-5.630 E3.09673
G1 X-0.358 Y-5.659 E3.13165
G1 X0.131 Y-5.665 E3.18392
G1 X0.704 Y-5.626 E3.24533
G1 X1.357 Y-5.506 E3.31631 F450.000
G1 X1.687 Y-5.414 E3.35293
G1 X2.327 Y-5.171 E3.42613
G1 X2.934 Y-4.853 E3.49932
G1 X3.497 Y-4.464 E3.57252
G1 X4.010 Y-4.010 E3.64572
G1 X4.464 Y-3.497 E3.71891
G1 X4.853 Y-2.934 E3.79211
G1 X5.171 Y-2.327 E3.86531
G1 X5.302 Y-2.011 E3.90192
G1 X5.410 Y-1.698 E3.93730
G1 X5.521 Y-1.282 E3.98327
G1 X5.632 Y-0.660 E4.05082
G1 X5.660 Y-0.342 E4.08493
G1 X5.670 Y-0.016 E4.11986
G1 X5.647 Y0.473 E4.17212
G1 X5.574 Y1.042 E4.23354
G1 X5.414 Y1.687 E4.30452
G1 X5.171 Y2.327 E4.37772
G1 X4.853 Y2.934 E4.45091
G1 X4.464 Y3.497 E4.52411
G1 X4.010 Y4.010 E4.59731
G1 X3.497 Y4.464 E4.67050
G1 X2.934 Y4.853 E4.74370
G1 X2.327 Y5.171 E4.81689
G1 X1.687 Y5.414 E4.89009
G1 X1.022 Y5.578 E4.96329
G1 X0.684 Y5.629 E4.99990
G1 X-0.000 Y5.671 E5.07310
G1 X-0.684 Y5.629 E5.14630
G1 X-1.357 Y5.506 E5.21949
G1 X-1.687 Y5.414 E5.25611
G1 X-2.327 Y5.171 E5.32931
G1 X-2.934 Y4.853 E5.40250
G1 X-3.497 Y4.464 E5.47570
G1 X-4.010 Y4.010 E5.54890
G1 X-4.464 Y3.497 E5.62209
G1 X-4.658 Y3.234 E5.65702
G1 X-4.916 Y2.819 E5.70929
G1 X-5.179 Y2.308 E5.77070
G1 X-5.284 Y2.056 E5.79991
G1 X-5.981 Y2.233 F4800.000
G1 X-6.093 Y1.909 E5.83658 F450.000
G1 X-6.231 Y1.381 E5.89490
G1 X-6.340 Y0.757 E5.96258
G1 X-6.374 Y0.386 E6.00246
G1 X-6.374 Y-0.386 E6.08487
G1 X-6.281 Y-1.151 E6.16729
G1 X-6.096 Y-1.900 E6.24971
G1 X-5.823 Y-2.621 E6.33213
G1 X-5.464 Y-3.303 E6.41455
G1 X-5.026 Y-3.938 E6.49697
G1 X-4.515 Y-4.515 E6.57939
G1 X-3.945 Y-5.020 E6.66078
G1 X-3.500 Y-5.336 E6.71910
G1 X-2.956 Y-5.659 E6.78678
G1 X-2.264 Y-5.970 E6.86785
G1 X-1.528 Y-6.200 E6.95027
G1 X-0.770 Y-6.339 E7.03269
G1 X-0.395 Y-6.373 E7.07289
G1 X0.150 Y-6.380 E7.13121
G1 X0.782 Y-6.337 E7.19888
G1 X1.528 Y-6.200 E7.27995 F450.000
G1 X1.900 Y-6.096 E7.32118
G1 X2.621 Y-5.823 E7.40360
G1 X3.303 Y-5.464 E7.48602
G1 X3.938 Y-5.026 E7.56844
G1 X4.515 Y-4.515 E7.65086
G1 X5.026 Y-3.938 E7.73328
G1 X5.464 Y-3.303 E7.81570
G1 X5.823 Y-2.621 E7.89811
G1 X5.970 Y-2.264 E7.93934
G1 X6.094 Y-1.906 E7.97982
G1 X6.218 Y-1.437 E8.03173
G1 X6.340 Y-0.755 E8.10572
G1 X6.374 Y-0.386 E8.14542
G1 X6.385 Y-0.010 E8.18562
G1 X6.359 Y0.535 E8.24394
G1 X6.278 Y1.163 E8.31162
G1 X6.096 Y1.900 E8.39269
G1 X5.823 Y2.621 E8.47511
G1 X5.464 Y3.303 E8.55753
G1 X5.026 Y3.938 E8.63995
G1 X4.515 Y4.515 E8.72237
G1 X3.938 Y5.026 E8.80478
G1 X3.303 Y5.464 E8.88720
G1 X2.621 Y5.823 E8.96962
G1 X1.900 Y6.096 E9.05204
G1 X1.151 Y6.281 E9.13446
G1 X0.770 Y6.339 E9.17569
G1 X-0.000 Y6.385 E9.25811
G1 X-0.770 Y6.339 E9.34053
G1 X-1.528 Y6.200 E9.42295
G1 X-1.900 Y6.096 E9.46417
G1 X-2.621 Y5.823 E9.54659
G1 X-3.303 Y5.464 E9.62901
G1 X-3.938 Y5.026 E9.71143
G1 X-4.515 Y4.515 E9.79385
G1 X-5.026 Y3.938 E9.87627
G1 X-5.249 Y3.635 E9.91647
G1 X-5.538 Y3.172 E9.97479
G1 X-5.828 Y2.609 E10.04247
G1 X-5.960 Y2.289 E10.07946
G1 X-6.656 Y2.466 F4800.000
G1 X-6.777 Y2.115 E10.11910 F600.000
G1 X-6.929 Y1.533 E10.18348
G1 X-7.048 Y0.851 E10.25742
G1 X-7.087 Y0.429 E10.30277
G1 X-7.100 Y-0.000 E10.34861
G1 X-7.087 Y-0.429 E10.39446
G1 X-7.048 Y-0.856 E10.44030
G1 X-6.984 Y-1.280 E10.48614
G1 X-6.894 Y-1.699 E10.53198
G1 X-6.778 Y-2.112 E10.57782
G1 X-6.638 Y-2.518 E10.62366
G1 X-6.474 Y-2.914 E10.66951
G1 X-6.287 Y-3.299 E10.71535
G1 X-6.076 Y-3.673 E10.76119
G1 X-5.843 Y-4.033 E10.80703
G1 X-5.589 Y-4.379 E10.85287
G1 X-5.314 Y-4.708 E10.89871
G1 X-5.020 Y-5.020 E10.94455
G1 X-4.708 Y-5.314 E10.99040
G1 X-4.381 Y-5.587 E11.03587
G1 X-3.890 Y-5.935 E11.10025
G1 X-3.295 Y-6.289 E11.17419
G1 X-2.914 Y-6.474 E11.21954
G1 X-2.518 Y-6.638 E11.26538
G1 X-2.112 Y-6.778 E11.31123
G1 X-1.699 Y-6.894 E11.35707
G1 X-1.280 Y-6.984 E11.40291
G1 X-0.856 Y-7.048 E11.44875
G1 X-0.432 Y-7.087 E11.49422
G1 X0.170 Y-7.094 E11.55860
G1 X0.860 Y-7.047 E11.63254
G1 X1.280 Y-6.984 E11.67790 F600.000
G1 X1.699 Y-6.894 E11.72374
G1 X2.112 Y-6.778 E11.76958
G1 X2.518 Y-6.638 E11.81542
G1 X2.914 Y-6.474 E11.86126
G1 X3.299 Y-6.287 E11.90711
G1 X3.673 Y-6.076 E11.95295
G1 X4.033 Y-5.843 E11.99879
G1 X4.379 Y-5.589 E12.04463
G1 X4.708 Y-5.314 E12.09047
G1 X5.020 Y-5.020 E12.13631
G1 X5.314 Y-4.708 E12.18215
G1 X5.589 Y-4.379 E12.22800
G1 X5.843 Y-4.033 E12.27384
G1 X6.076 Y-3.673 E12.31968
G1 X6.287 Y-3.299 E12.36552
G1 X6.474 Y-2.914 E12.41136
G1 X6.638 Y-2.518 E12.45720
G1 X6.778 Y-2.115 E12.50278
G1 X6.916 Y-1.591 E12.56062
G1 X7.049 Y-0.851 E12.64106
G1 X7.087 Y-0.429 E12.68635
G1 X7.100 Y-0.003 E12.73183
G1 X7.071 Y0.598 E12.79620
G1 X6.983 Y1.284 E12.87014
G1 X6.894 Y1.699 E12.91550
G1 X6.778 Y2.112 E12.96134
G1 X6.638 Y2.518 E13.00718
G1 X6.474 Y2.914 E13.05302
G1 X6.287 Y3.299 E13.09887
G1 X6.076 Y3.673 E13.14471
G1 X5.843 Y4.033 E13.19055
G1 X5.589 Y4.379 E13.23639
G1 X5.314 Y4.708 E13.28223
G1 X5.020 Y5.020 E13.32807
G1 X4.708 Y5.314 E13.37392
G1 X4.379 Y5.589 E13.41976
G1 X4.033 Y5.843 E13.46560
G1 X3.673 Y6.076 E13.51144
G1 X3.299 Y6.287 E13.55728
G1 X2.914 Y6.474 E13.60312
G1 X2.518 Y6.638 E13.64896
G1 X2.112 Y6.778 E13.69481
G1 X1.699 Y6.894 E13.74065
G1 X1.280 Y6.984 E13.78649
G1 X0.856 Y7.048 E13.83233
G1 X0.429 Y7.087 E13.87817
G1 X-0.000 Y7.100 E13.92401
G1 X-0.429 Y7.087 E13.96986
G1 X-0.856 Y7.048 E14.01570
G1 X-1.280 Y6.984 E14.06154
G1 X-1.699 Y6.894 E14.10738
G1 X-2.112 Y6.778 E14.15322
G1 X-2.518 Y6.638 E14.19906
G1 X-2.914 Y6.474 E14.24490
G1 X-3.299 Y6.287 E14.29075
G1 X-3.673 Y6.076 E14.33659
G1 X-4.033 Y5.843 E14.38243
G1 X-4.379 Y5.589 E14.42827
G1 X-4.708 Y5.314 E14.47411
G1 X-5.020 Y5.020 E14.51995
G1 X-5.314 Y4.708 E14.56580
G1 X-5.589 Y4.379 E14.61164
G1 X-5.841 Y4.036 E14.65711
G1 X-6.159 Y3.525 E14.72149
G1 X-6.476 Y2.910 E14.79543
G1 X-6.636 Y2.523 E14.84021
G1 X-6.418 Y2.182 F4800.000
G1 X-4.104 Y3.043 F4800.000
G1 X-3.088 Y4.058 E14.99535 F600.000
G1 X-1.043 Y5.082 F4800.000
G1 X-5.087 Y1.039 E15.61324 F600.000
G1 X-5.233 Y-0.128 E15.74030
G1 X0.128 Y5.233 E16.55949
G1 X1.067 Y5.151 E16.66135
G1 X-5.151 Y-1.067 E17.61156
G1 X-4.928 Y-1.865 E17.70106
G1 X1.865 Y4.928 E18.73903
G1 X2.570 Y4.612 E18.82251
G1 X-4.618 Y-2.576 E19.92087
G1 X-4.216 Y-3.195 E20.00061
G1 X3.195 Y4.216 E21.13297
G1 X3.731 Y3.731 E21.21108
G1 X-3.731 Y-3.731 E22.35145
G1 X-3.195 Y-4.216 E22.42955
G1 X4.216 Y3.195 E23.56198
G1 X4.618 Y2.576 E23.64172
G1 X-2.573 Y-4.615 E24.74055
G1 X-1.868 Y-4.931 E24.82403
G1 X4.928 Y1.865 E25.86246
G1 X5.150 Y1.066 E25.95206
G1 X-1.067 Y-5.151 E26.90207
G1 X-0.124 Y-5.229 E27.00436
G1 X5.233 Y0.129 E27.82296
G1 X5.090 Y-1.036 E27.94972
G1 X1.033 Y-5.092 E28.56960
G1 X3.088 Y-4.058 F4800.000
G1 X4.104 Y-3.043 E28.72476 F600.000
G1 Z0.400 F4800.000
M106 S89.25
M104 S185 ; set temperature
M140 S60 ; wait for bed temperature to be reached
G1 Z0.600 F4800.000
G1 X-5.786 Y2.166 F4800.000
G1 X-5.999 Y1.479 E28.75859 F900.000
G1 X-6.077 Y1.114 E28.77613
G1 X-6.167 Y0.373 E28.81122
G1 X-6.167 Y-0.373 E28.84630
G1 X-6.077 Y-1.114 E28.88138
G1 X-5.899 Y-1.838 E28.91646
G1 X-5.634 Y-2.536 E28.95154
G1 X-5.287 Y-3.196 E28.98662
G1 X-4.864 Y-3.810 E29.02170
G1 X-4.369 Y-4.369 E29.05678
G1 X-3.810 Y-4.864 E29.09186
G1 X-3.196 Y-5.287 E29.12695
G1 X-2.536 Y-5.634 E29.16203
G1 X-1.838 Y-5.899 E29.19711
G1 X-1.114 Y-6.077 E29.23219
G1 X-0.373 Y-6.167 E29.26727
G1 X0.373 Y-6.167 E29.30235
G1 X1.114 Y-6.077 E29.33743 F900.000
G1 X1.838 Y-5.899 E29.37251
G1 X2.536 Y-5.634 E29.40759
G1 X3.196 Y-5.287 E29.44268
G1 X3.810 Y-4.864 E29.47776
G1 X4.369 Y-4.369 E29.51284
G1 X4.625 Y-4.097 E29.53039
G1 X5.085 Y-3.510 E29.56547
G1 X5.471 Y-2.871 E29.60055
G1 X5.777 Y-2.191 E29.63563
G1 X5.999 Y-1.479 E29.67071
G1 X6.077 Y-1.114 E29.68826
G1 X6.167 Y-0.373 E29.72334
G1 X6.167 Y0.373 E29.75842
G1 X6.077 Y1.114 E29.79350
G1 X5.899 Y1.838 E29.82858
G1 X5.634 Y2.536 E29.86366
G1 X5.287 Y3.196 E29.89875
G1 X5.085 Y3.510 E29.91629
G1 X4.625 Y4.097 E29.95138
G1 X4.097 Y4.625 E29.98646
G1 X3.810 Y4.864 E30.00401
G1 X3.196 Y5.287 E30.03909
G1 X2.536 Y5.634 E30.07417
G1 X1.838 Y5.899 E30.10925
G1 X1.114 Y6.077 E30.14433
G1 X0.373 Y6.167 E30.17941
G1 X-0.000 Y6.178 E30.19696
G1 X-0.745 Y6.133 E30.23204
G1 X-1.479 Y5.999 E30.26712
G1 X-1.838 Y5.899 E30.28467
G1 X-2.536 Y5.634 E30.31975
G1 X-3.196 Y5.287 E30.35483
G1 X-3.810 Y4.864 E30.38991
G1 X-4.369 Y4.369 E30.42499
