; generated by Slic3r 1.2.9 on 2019-05-11 at 11:25:50

; external perimeters extrusion width = 0.40mm
; perimeters extrusion width = 0.67mm
; infill extrusion width = 0.67mm
; solid infill extrusion width = 0.67mm
; top infill extrusion width = 0.67mm
; support material extrusion width = 0.40mm

M190 S65 ; set bed temperature
M104 S190 ; set temperature
G28 ; home all axes
G1 Z5 F5000 ; lift nozzle

M109 S190 ; wait for temperature to be reached
G21 ; set units to millimeters
G90 ; use absolute coordinates
M82 ; use absolute distances for extrusion
G92 E0
G1 Z0.400 F4800.000
G1 E-2.00000 F2400.00000
G92 E0
G1 X6.091 Y17.652 F4800.000
G1 E2.00000 F2400.00000
G1 X5.342 Y17.896 E2.08428 F1800.000
G1 X4.251 Y18.186 E2.20487
G1 X3.146 Y18.409 E2.32546
G1 X2.028 Y18.566 E2.44604
G1 X0.904 Y18.654 E2.56663
G1 X-0.224 Y18.675 E2.68722
G1 X-0.904 Y18.654 E2.75986
G1 X-2.028 Y18.566 E2.88045
G1 X-3.146 Y18.409 E3.00103
G1 X-3.587 Y18.329 E3.04900
G1 X-4.687 Y18.079 E3.16958
G1 X-5.770 Y17.763 E3.29017
G1 X-6.832 Y17.382 E3.41075
G1 X-7.869 Y16.938 E3.53134
G1 X-8.877 Y16.432 E3.65193
G1 X-9.469 Y16.098 E3.72457
G1 X-9.853 Y15.866 E3.77254
G1 X-10.793 Y15.242 E3.89312
G1 X-11.694 Y14.562 E4.01370
G1 X-12.552 Y13.830 E4.13430
G1 X-13.364 Y13.047 E4.25488
G1 X-14.127 Y12.216 E4.37547
G1 X-14.839 Y11.341 E4.49605
G1 X-15.497 Y10.424 E4.61664
G1 X-15.866 Y9.853 E4.68928
G1 X-16.432 Y8.877 E4.80987
G1 X-16.938 Y7.869 E4.93046
G1 X-17.382 Y6.832 E5.05105
G1 X-17.763 Y5.770 E5.17163
G1 X-18.079 Y4.687 E5.29222
G1 X-18.224 Y4.074 E5.35954
G1 X-18.409 Y3.146 E5.46077
G1 X-18.566 Y2.028 E5.58135
G1 X-18.654 Y0.904 E5.70193
G1 X-18.675 Y-0.224 E5.82253
G1 X-18.654 Y-0.904 E5.89517
G1 X-18.566 Y-2.028 E6.01576
G1 X-18.409 Y-3.146 E6.13634
G1 X-18.291 Y-3.764 E6.20366
G1 X-18.079 Y-4.687 E6.30489
G1 X-17.763 Y-5.770 E6.42548
G1 X-17.382 Y-6.832 E6.54606
G1 X-16.938 Y-7.869 E6.66665
G1 X-16.432 Y-8.877 E6.78723
G1 X-15.866 Y-9.853 E6.90782
G1 X-15.497 Y-10.424 E6.98047
G1 X-14.839 Y-11.341 E7.10106
G1 X-14.127 Y-12.216 E7.22164
G1 X-13.364 Y-13.047 E7.34223
G1 X-12.552 Y-13.830 E7.46281
G1 X-11.694 Y-14.562 E7.58341
G1 X-10.793 Y-15.242 E7.70399
G1 X-9.853 Y-15.866 E7.82457
G1 X-9.469 Y-16.098 E7.87254
G1 X-8.480 Y-16.640 E7.99313
G1 X-7.460 Y-17.122 E8.11371
G1 X-6.413 Y-17.541 E8.23430
G1 X-5.342 Y-17.896 E8.35489
G1 X-4.251 Y-18.186 E8.47547
G1 X-3.587 Y-18.329 E8.54811
G1 X-2.474 Y-18.512 E8.66871
G1 X-1.352 Y-18.627 E8.78929
G1 X-0.224 Y-18.675 E8.90988
G1 X0.457 Y-18.668 E8.98270
G1 X1.351 Y-18.627 E9.07842 F1800.000
G1 X2.028 Y-18.566 E9.15106
G1 X3.146 Y-18.409 E9.27164
G1 X3.587 Y-18.329 E9.31961
G1 X4.251 Y-18.186 E9.39225
G1 X5.342 Y-17.896 E9.51284
G1 X5.770 Y-17.763 E9.56080
G1 X6.832 Y-17.382 E9.68138
G1 X7.869 Y-16.938 E9.80197
G1 X8.480 Y-16.640 E9.87461
G1 X9.469 Y-16.098 E9.99520
G1 X9.853 Y-15.866 E10.04317
G1 X10.793 Y-15.242 E10.16375
G1 X11.341 Y-14.839 E10.23639
G1 X12.216 Y-14.127 E10.35697
G1 X12.552 Y-13.830 E10.40494
G1 X13.364 Y-13.047 E10.52552
G1 X13.830 Y-12.552 E10.59816
G1 X14.562 Y-11.694 E10.71875
G1 X14.946 Y-11.195 E10.78608
G1 X15.497 Y-10.424 E10.88729
G1 X15.866 Y-9.853 E10.95993
G1 X16.187 Y-9.311 E11.02726
G1 X16.640 Y-8.480 E11.12848
G1 X16.938 Y-7.869 E11.20112
G1 X17.122 Y-7.460 E11.24909
G1 X17.541 Y-6.412 E11.36966
G1 X17.763 Y-5.770 E11.44230
G1 X18.079 Y-4.687 E11.56289
G1 X18.329 Y-3.587 E11.68347
G1 X18.409 Y-3.145 E11.73145
G1 X18.512 Y-2.474 E11.80409
G1 X18.627 Y-1.352 E11.92467
G1 X18.675 Y-0.224 E12.04525
G1 X18.675 Y0.224 E12.09322
G1 X18.627 Y1.352 E12.21381
G1 X18.566 Y2.028 E12.28645
G1 X18.409 Y3.145 E12.40702
G1 X18.329 Y3.587 E12.45500
G1 X18.079 Y4.687 E12.57558
G1 X17.896 Y5.342 E12.64822
G1 X17.541 Y6.412 E12.76881
G1 X17.122 Y7.460 E12.88939
G1 X16.938 Y7.869 E12.93736
G1 X16.640 Y8.480 E13.01000
G1 X16.098 Y9.469 E13.13058
G1 X15.866 Y9.853 E13.17855
G1 X15.242 Y10.793 E13.29914
G1 X14.562 Y11.694 E13.41972
G1 X14.127 Y12.216 E13.49236
G1 X13.830 Y12.552 E13.54032
G1 X13.047 Y13.364 E13.66091
G1 X12.216 Y14.127 E13.78150
G1 X11.694 Y14.562 E13.85414
G1 X10.793 Y15.242 E13.97472
G1 X10.424 Y15.497 E14.02268
G1 X9.853 Y15.866 E14.09532
G1 X8.877 Y16.432 E14.21591
G1 X7.869 Y16.938 E14.33650
G1 X7.460 Y17.122 E14.38447
G1 X6.832 Y17.382 E14.45711
G1 X6.148 Y17.632 E14.53495
G1 X5.858 Y16.977 F4800.000
G1 X5.150 Y17.208 E14.61462 F1800.000
G1 X4.102 Y17.488 E14.73060
G1 X3.038 Y17.703 E14.84658
G1 X1.964 Y17.855 E14.96255
G1 X0.882 Y17.941 E15.07853
G1 X-0.203 Y17.961 E15.19451
G1 X-0.882 Y17.941 E15.26715
G1 X-1.964 Y17.855 E15.38313
G1 X-3.437 Y17.630 E15.54243
G1 X-4.495 Y17.391 E15.65840
G1 X-5.537 Y17.087 E15.77438
G1 X-6.559 Y16.722 E15.89035
G1 X-7.556 Y16.295 E16.00633
G1 X-8.167 Y15.998 E16.07897
G1 X-9.118 Y15.476 E16.19495
G1 X-10.370 Y14.666 E16.35425
G1 X-11.237 Y14.014 E16.47022
G1 X-12.062 Y13.310 E16.58621
G1 X-12.844 Y12.557 E16.70218
G1 X-13.579 Y11.759 E16.81816
G1 X-14.264 Y10.917 E16.93413
G1 X-14.897 Y10.036 E17.05011
G1 X-15.266 Y9.466 E17.12275
G1 X-15.810 Y8.526 E17.23873
G1 X-16.295 Y7.556 E17.35471
G1 X-16.722 Y6.559 E17.47069
G1 X-17.087 Y5.537 E17.58666
G1 X-17.391 Y4.495 E17.70264
G1 X-17.703 Y3.038 E17.86194
G1 X-17.855 Y1.964 E17.97791
G1 X-17.941 Y0.882 E18.09388
G1 X-17.961 Y0.203 E18.16653
G1 X-17.941 Y-0.882 E18.28251
G1 X-17.855 Y-1.964 E18.39849
G1 X-17.703 Y-3.038 E18.51446
G1 X-17.391 Y-4.495 E18.67377
G1 X-17.087 Y-5.537 E18.78974
G1 X-16.722 Y-6.559 E18.90571
G1 X-16.295 Y-7.556 E19.02170
G1 X-15.810 Y-8.526 E19.13767
G1 X-15.266 Y-9.465 E19.25365
G1 X-14.897 Y-10.036 E19.32629
G1 X-14.264 Y-10.917 E19.44227
G1 X-13.579 Y-11.759 E19.55824
G1 X-12.844 Y-12.557 E19.67422
G1 X-12.062 Y-13.310 E19.79020
G1 X-11.237 Y-14.014 E19.90618
G1 X-10.370 Y-14.666 E20.02215
G1 X-9.118 Y-15.476 E20.18145
G1 X-8.167 Y-15.998 E20.29743
G1 X-7.187 Y-16.462 E20.41341
G1 X-6.180 Y-16.866 E20.52938
G1 X-5.150 Y-17.208 E20.64536
G1 X-4.102 Y-17.488 E20.76134
G1 X-3.437 Y-17.630 E20.83398
G1 X-2.366 Y-17.806 E20.94996
G1 X-1.287 Y-17.916 E21.06593
G1 X-0.203 Y-17.961 E21.18191
G1 X0.435 Y-17.954 E21.25012
G1 X1.287 Y-17.916 E21.34123 F1800.000
G1 X1.964 Y-17.855 E21.41387
G1 X3.437 Y-17.630 E21.57317
G1 X4.495 Y-17.391 E21.68915
G1 X5.150 Y-17.208 E21.76179
G1 X6.559 Y-16.722 E21.92108
G1 X7.556 Y-16.295 E22.03707
G1 X8.167 Y-15.998 E22.10970
G1 X9.118 Y-15.476 E22.22568
G1 X10.370 Y-14.666 E22.38499
G1 X10.917 Y-14.264 E22.45762
G1 X11.759 Y-13.579 E22.57360
G1 X12.844 Y-12.557 E22.73290
G1 X13.310 Y-12.062 E22.80554
G1 X14.014 Y-11.237 E22.92152
G1 X14.897 Y-10.036 E23.08081
G1 X15.565 Y-8.961 E23.21614
G1 X15.998 Y-8.167 E23.31275
G1 X16.296 Y-7.556 E23.38539
G1 X16.866 Y-6.180 E23.54469
G1 X17.087 Y-5.537 E23.61732
G1 X17.391 Y-4.495 E23.73331
G1 X17.703 Y-3.038 E23.89262
G1 X17.806 Y-2.366 E23.96525
G1 X17.916 Y-1.287 E24.08122
G1 X17.961 Y0.203 E24.24053
G1 X17.941 Y0.882 E24.31317
G1 X17.855 Y1.964 E24.42914
G1 X17.630 Y3.437 E24.58845
G1 X17.391 Y4.495 E24.70442
G1 X17.208 Y5.150 E24.77706
G1 X16.866 Y6.180 E24.89304
G1 X16.296 Y7.556 E25.05233
G1 X15.998 Y8.167 E25.12497
G1 X15.476 Y9.118 E25.24095
G1 X14.666 Y10.370 E25.40025
G1 X14.264 Y10.917 E25.47289
G1 X13.579 Y11.759 E25.58887
G1 X12.557 Y12.844 E25.74817
G1 X11.759 Y13.579 E25.86415
G1 X11.237 Y14.014 E25.93679
G1 X10.036 Y14.897 E26.09608
G1 X9.466 Y15.266 E26.16872
G1 X8.526 Y15.810 E26.28470
G1 X7.186 Y16.462 E26.44401
G1 X6.559 Y16.722 E26.51665
G1 X5.915 Y16.957 E26.58988
G1 E24.58988 F2400.00000
G92 E0
G1 X-9.283 Y1.587 F4800.000
G1 E2.00000 F2400.00000
G1 X-9.352 Y1.136 E2.04885 F1200.000
G1 X-9.404 Y0.569 E2.10968
G1 X-9.421 Y-0.000 E2.17051
G1 X-9.404 Y-0.569 E2.23134
G1 X-9.353 Y-1.124 E2.29092
G1 X-9.231 Y-1.864 E2.37109
G1 X-9.147 Y-2.255 E2.41379
G1 X-8.994 Y-2.803 E2.47462
G1 X-8.809 Y-3.341 E2.53545
G1 X-8.595 Y-3.856 E2.59503
G1 X-8.258 Y-4.526 E2.67520
G1 X-8.062 Y-4.874 E2.71790
G1 X-7.753 Y-5.352 E2.77873
G1 X-7.416 Y-5.810 E2.83955
G1 X-7.052 Y-6.247 E2.90038
G1 X-6.662 Y-6.662 E2.96121
G1 X-6.247 Y-7.052 E3.02204
G1 X-5.810 Y-7.416 E3.08287
G1 X-5.352 Y-7.753 E3.14370
G1 X-4.874 Y-8.062 E3.20452
G1 X-4.378 Y-8.342 E3.26535
G1 X-3.866 Y-8.591 E3.32618
G1 X-3.341 Y-8.809 E3.38701
G1 X-2.803 Y-8.994 E3.44783
G1 X-2.255 Y-9.147 E3.50866
G1 X-1.698 Y-9.267 E3.56949
G1 X-1.136 Y-9.352 E3.63032
G1 X-0.583 Y-9.402 E3.68964
G1 X0.569 Y-9.404 E3.81274
G1 X1.136 Y-9.352 E3.87357 F1200.000
G1 X1.698 Y-9.267 E3.93439
G1 X2.255 Y-9.147 E3.99522
G1 X2.803 Y-8.994 E4.05605
G1 X3.341 Y-8.809 E4.11688
G1 X3.866 Y-8.591 E4.17771
G1 X4.378 Y-8.342 E4.23853
G1 X4.874 Y-8.062 E4.29936
G1 X5.352 Y-7.753 E4.36019
G1 X5.810 Y-7.416 E4.42102
G1 X6.247 Y-7.052 E4.48184
G1 X6.662 Y-6.662 E4.54267
G1 X7.052 Y-6.247 E4.60350
G1 X7.416 Y-5.810 E4.66433
G1 X7.746 Y-5.361 E4.72391
G1 X8.145 Y-4.726 E4.80408
G1 X8.342 Y-4.378 E4.84678
G1 X8.591 Y-3.866 E4.90761
G1 X8.809 Y-3.341 E4.96844
G1 X8.994 Y-2.803 E5.02927
G1 X9.147 Y-2.255 E5.09009
G1 X9.267 Y-1.698 E5.15092
G1 X9.352 Y-1.136 E5.21175
G1 X9.404 Y-0.569 E5.27258
G1 X9.421 Y-0.000 E5.33340
G1 X9.404 Y0.569 E5.39423
G1 X9.352 Y1.136 E5.45506
G1 X9.267 Y1.698 E5.51589
G1 X9.147 Y2.255 E5.57671
G1 X8.994 Y2.803 E5.63754
G1 X8.809 Y3.341 E5.69837
G1 X8.591 Y3.866 E5.75920
G1 X8.342 Y4.378 E5.82003
G1 X8.062 Y4.874 E5.88085
G1 X7.753 Y5.352 E5.94168
G1 X7.416 Y5.810 E6.00251
G1 X7.052 Y6.247 E6.06334
G1 X6.662 Y6.662 E6.12417
G1 X6.247 Y7.052 E6.18499
G1 X5.810 Y7.416 E6.24582
G1 X5.352 Y7.753 E6.30665
G1 X4.874 Y8.062 E6.36748
G1 X4.378 Y8.342 E6.42830
G1 X3.866 Y8.591 E6.48913
G1 X3.341 Y8.809 E6.54996
G1 X2.803 Y8.994 E6.61079
G1 X2.255 Y9.147 E6.67162
G1 X1.698 Y9.267 E6.73244
G1 X1.136 Y9.352 E6.79327
G1 X0.569 Y9.404 E6.85410
G1 X-0.000 Y9.421 E6.91493
G1 X-0.569 Y9.404 E6.97575
G1 X-1.136 Y9.352 E7.03658
G1 X-1.698 Y9.267 E7.09741
G1 X-2.255 Y9.147 E7.15824
G1 X-2.803 Y8.994 E7.21907
G1 X-3.341 Y8.809 E7.27989
G1 X-3.866 Y8.591 E7.34072
G1 X-4.378 Y8.342 E7.40155
G1 X-4.874 Y8.062 E7.46238
G1 X-5.352 Y7.753 E7.52320
G1 X-5.810 Y7.416 E7.58403
G1 X-6.247 Y7.052 E7.64486
G1 X-6.662 Y6.662 E7.70569
G1 X-7.052 Y6.247 E7.76652
G1 X-7.416 Y5.810 E7.82734
G1 X-7.753 Y5.352 E7.88817
G1 X-8.062 Y4.874 E7.94900
G1 X-8.342 Y4.378 E8.00983
G1 X-8.591 Y3.866 E8.07065
G1 X-8.809 Y3.341 E8.13148
G1 X-8.990 Y2.814 E8.19107
G1 X-9.183 Y2.089 E8.27124
G1 X-9.274 Y1.647 E8.31949
G1 X-9.989 Y1.695 F4800.000
G1 X-10.061 Y1.222 E8.37065 F1200.000
G1 X-10.117 Y0.612 E8.43609
G1 X-10.135 Y-0.000 E8.50153
G1 X-10.117 Y-0.612 E8.56697
G1 X-10.062 Y-1.215 E8.63166
G1 X-9.933 Y-1.997 E8.71644
G1 X-9.841 Y-2.426 E8.76327
G1 X-9.676 Y-3.015 E8.82871
G1 X-9.477 Y-3.594 E8.89415
G1 X-9.245 Y-4.153 E8.95883
G1 X-8.889 Y-4.862 E9.04361
G1 X-8.674 Y-5.243 E9.09044
G1 X-8.341 Y-5.758 E9.15588
G1 X-7.978 Y-6.251 E9.22132
G1 X-7.586 Y-6.721 E9.28677
G1 X-7.167 Y-7.167 E9.35221
G1 X-6.721 Y-7.586 E9.41765
G1 X-6.251 Y-7.978 E9.48309
G1 X-5.758 Y-8.341 E9.54853
G1 X-5.243 Y-8.674 E9.61397
G1 X-4.710 Y-8.974 E9.67941
G1 X-4.160 Y-9.242 E9.74485
G1 X-3.594 Y-9.477 E9.81029
G1 X-3.015 Y-9.676 E9.87574
G1 X-2.426 Y-9.841 E9.94118
G1 X-1.827 Y-9.969 E10.00662
G1 X-1.222 Y-10.061 E10.07206
G1 X-0.621 Y-10.116 E10.13658
G1 X0.612 Y-10.117 E10.26832
G1 X1.222 Y-10.061 E10.33376 F1200.000
G1 X1.827 Y-9.969 E10.39920
G1 X2.426 Y-9.841 E10.46464
G1 X3.015 Y-9.676 E10.53008
G1 X3.594 Y-9.477 E10.59552
G1 X4.160 Y-9.242 E10.66096
G1 X4.710 Y-8.974 E10.72641
G1 X5.243 Y-8.674 E10.79185
G1 X5.758 Y-8.341 E10.85729
G1 X6.251 Y-7.978 E10.92273
G1 X6.721 Y-7.586 E10.98817
G1 X7.167 Y-7.167 E11.05361
G1 X7.586 Y-6.721 E11.11905
G1 X7.978 Y-6.251 E11.18449
G1 X8.337 Y-5.763 E11.24918
G1 X8.759 Y-5.092 E11.33396
G1 X8.974 Y-4.710 E11.38079
G1 X9.242 Y-4.160 E11.44623
G1 X9.477 Y-3.594 E11.51167
G1 X9.676 Y-3.015 E11.57711
G1 X9.841 Y-2.426 E11.64255
G1 X9.969 Y-1.827 E11.70799
G1 X10.061 Y-1.222 E11.77343
G1 X10.117 Y-0.612 E11.83887
G1 X10.135 Y-0.000 E11.90431
G1 X10.117 Y0.612 E11.96976
G1 X10.061 Y1.222 E12.03520
G1 X9.969 Y1.827 E12.10064
G1 X9.841 Y2.426 E12.16608
G1 X9.676 Y3.015 E12.23152
G1 X9.477 Y3.594 E12.29696
G1 X9.242 Y4.160 E12.36240
G1 X8.974 Y4.710 E12.42784
G1 X8.674 Y5.243 E12.49328
G1 X8.341 Y5.758 E12.55872
G1 X7.978 Y6.251 E12.62417
G1 X7.586 Y6.721 E12.68961
G1 X7.167 Y7.167 E12.75505
G1 X6.721 Y7.586 E12.82049
G1 X6.251 Y7.978 E12.88593
G1 X5.758 Y8.341 E12.95137
G1 X5.243 Y8.674 E13.01681
G1 X4.710 Y8.974 E13.08225
G1 X4.160 Y9.242 E13.14769
G1 X3.594 Y9.477 E13.21314
G1 X3.015 Y9.676 E13.27858
G1 X2.426 Y9.841 E13.34402
G1 X1.827 Y9.969 E13.40946
G1 X1.222 Y10.061 E13.47490
G1 X0.612 Y10.117 E13.54034
G1 X-0.000 Y10.135 E13.60578
G1 X-0.612 Y10.117 E13.67122
G1 X-1.222 Y10.061 E13.73666
G1 X-1.827 Y9.969 E13.80211
G1 X-2.426 Y9.841 E13.86754
G1 X-3.015 Y9.676 E13.93299
G1 X-3.594 Y9.477 E13.99843
G1 X-4.160 Y9.242 E14.06387
G1 X-4.710 Y8.974 E14.12931
G1 X-5.243 Y8.674 E14.19475
G1 X-5.758 Y8.341 E14.26019
G1 X-6.251 Y7.978 E14.32563
G1 X-6.721 Y7.586 E14.39107
G1 X-7.167 Y7.167 E14.45651
G1 X-7.586 Y6.721 E14.52196
G1 X-7.978 Y6.251 E14.58740
G1 X-8.341 Y5.758 E14.65284
G1 X-8.674 Y5.243 E14.71828
G1 X-8.974 Y4.710 E14.78372
G1 X-9.242 Y4.160 E14.84916
G1 X-9.477 Y3.594 E14.91460
G1 X-9.674 Y3.022 E14.97929
G1 X-9.877 Y2.255 E15.06407
G1 X-9.980 Y1.754 E15.11875
G1 X-10.695 Y1.802 F4800.000
G1 X-10.771 Y1.308 E15.17222 F600.000
G1 X-10.830 Y0.655 E15.24227
G1 X-10.850 Y-0.000 E15.31233
G1 X-10.830 Y-0.655 E15.38238
G1 X-10.771 Y-1.305 E15.45216
G1 X-10.635 Y-2.130 E15.54156
G1 X-10.535 Y-2.597 E15.59251
G1 X-10.359 Y-3.228 E15.66257
G1 X-10.145 Y-3.847 E15.73262
G1 X-9.895 Y-4.451 E15.80241
G1 X-9.519 Y-5.198 E15.89180
G1 X-9.285 Y-5.613 E15.94276
G1 X-8.929 Y-6.163 E16.01281
G1 X-8.541 Y-6.691 E16.08287
G1 X-8.121 Y-7.195 E16.15292
G1 X-7.672 Y-7.672 E16.22298
G1 X-7.195 Y-8.121 E16.29303
G1 X-6.691 Y-8.541 E16.36308
G1 X-6.163 Y-8.929 E16.43314
G1 X-5.613 Y-9.285 E16.50319
G1 X-5.042 Y-9.607 E16.57325
G1 X-4.453 Y-9.894 E16.64330
G1 X-3.847 Y-10.145 E16.71336
G1 X-3.228 Y-10.359 E16.78341
G1 X-2.597 Y-10.535 E16.85346
G1 X-1.956 Y-10.672 E16.92352
G1 X-1.308 Y-10.771 E16.99357
G1 X-0.658 Y-10.830 E17.06330
G1 X0.229 Y-10.843 E17.15818
G1 X0.655 Y-10.830 E17.20370
G1 X1.308 Y-10.771 E17.27376 F600.000
G1 X1.956 Y-10.672 E17.34381
G1 X2.597 Y-10.535 E17.41386
G1 X3.228 Y-10.359 E17.48392
G1 X3.847 Y-10.145 E17.55397
G1 X4.453 Y-9.894 E17.62403
G1 X5.042 Y-9.607 E17.69408
G1 X5.613 Y-9.285 E17.76414
G1 X6.163 Y-8.929 E17.83419
G1 X6.691 Y-8.541 E17.90424
G1 X7.195 Y-8.121 E17.97430
G1 X7.672 Y-7.672 E18.04435
G1 X8.121 Y-7.195 E18.11441
G1 X8.541 Y-6.691 E18.18446
G1 X8.928 Y-6.165 E18.25424
G1 X9.373 Y-5.457 E18.34364
G1 X9.607 Y-5.042 E18.39459
G1 X9.894 Y-4.453 E18.46465
G1 X10.145 Y-3.847 E18.53470
G1 X10.359 Y-3.228 E18.60476
G1 X10.535 Y-2.597 E18.67481
G1 X10.672 Y-1.956 E18.74487
G1 X10.771 Y-1.308 E18.81492
G1 X10.830 Y-0.655 E18.88498
G1 X10.850 Y-0.000 E18.95503
G1 X10.830 Y0.655 E19.02508
G1 X10.771 Y1.308 E19.09514
G1 X10.672 Y1.956 E19.16519
G1 X10.535 Y2.597 E19.23525
G1 X10.359 Y3.228 E19.30530
G1 X10.145 Y3.847 E19.37535
G1 X9.894 Y4.453 E19.44541
G1 X9.607 Y5.042 E19.51546
G1 X9.285 Y5.613 E19.58552
G1 X8.929 Y6.163 E19.65557
G1 X8.541 Y6.691 E19.72563
G1 X8.121 Y7.195 E19.79568
G1 X7.672 Y7.672 E19.86573
G1 X7.195 Y8.121 E19.93579
G1 X6.691 Y8.541 E20.00584
G1 X6.163 Y8.929 E20.07590
G1 X5.613 Y9.285 E20.14595
G1 X5.042 Y9.607 E20.21601
G1 X4.453 Y9.894 E20.28606
G1 X3.847 Y10.145 E20.35611
G1 X3.228 Y10.359 E20.42617
G1 X2.597 Y10.535 E20.49622
G1 X1.956 Y10.672 E20.56628
G1 X1.308 Y10.771 E20.63633
G1 X0.655 Y10.830 E20.70639
G1 X0.000 Y10.850 E20.77644
G1 X-0.655 Y10.830 E20.84649
G1 X-1.308 Y10.771 E20.91655
G1 X-1.956 Y10.672 E20.98660
G1 X-2.597 Y10.535 E21.05666
G1 X-3.228 Y10.359 E21.12671
G1 X-3.847 Y10.145 E21.19677
G1 X-4.453 Y9.894 E21.26682
G1 X-5.042 Y9.607 E21.33687
G1 X-5.613 Y9.285 E21.40693
G1 X-6.163 Y8.929 E21.47698
G1 X-6.691 Y8.541 E21.54704
G1 X-7.195 Y8.121 E21.61709
G1 X-7.672 Y7.672 E21.68715
