; generated by Slic3r 1.2.9 on 2019-05-11 at 10:35:55

; external perimeters extrusion width = 0.40mm
; perimeters extrusion width = 0.67mm
; infill extrusion width = 0.67mm
; solid infill extrusion width = 0.67mm
; top infill extrusion width = 0.67mm
; support material extrusion width = 0.40mm

M190 S65 ; set bed temperature
M104 S190 ; set temperature
G28 ; home all axes
G1 Z5 F5000 ; lift nozzle

M109 S190 ; wait for temperature to be reached
G21 ; set units to millimeters
G90 ; use absolute coordinates
M82 ; use absolute distances for extrusion
G92 E0
G1 Z0.400 F4800.000
G1 E-2.00000 F2400.00000
G92 E0
G1 X7.314 Y21.195 F4800.000
G1 E2.00000 F2400.00000
G1 X6.457 Y21.476 E2.09638 F1800.000
G1 X5.149 Y21.827 E2.24118
G1 X3.821 Y22.098 E2.38599
G1 X2.480 Y22.288 E2.53078
G1 X1.130 Y22.398 E2.67557
G1 X0.224 Y22.425 E2.77243
G1 X-1.130 Y22.398 E2.91724
G1 X-2.480 Y22.288 E3.06203
G1 X-3.821 Y22.098 E3.20682
G1 X-4.263 Y22.017 E3.25479
G1 X-5.584 Y21.720 E3.39959
G1 X-6.886 Y21.343 E3.54439
G1 X-8.162 Y20.888 E3.68918
G1 X-9.408 Y20.357 E3.83399
G1 X-10.620 Y19.752 E3.97879
G1 X-11.409 Y19.307 E4.07564
G1 X-12.554 Y18.583 E4.22044
G1 X-12.923 Y18.328 E4.26840
G1 X-14.006 Y17.514 E4.41319
G1 X-15.038 Y16.637 E4.55800
G1 X-16.015 Y15.698 E4.70279
G1 X-16.934 Y14.703 E4.84760
G1 X-17.791 Y13.653 E4.99239
G1 X-18.583 Y12.554 E5.13719
G1 X-19.307 Y11.409 E5.28198
G1 X-19.961 Y10.223 E5.42679
G1 X-20.541 Y8.999 E5.57159
G1 X-20.888 Y8.162 E5.66845
G1 X-21.343 Y6.886 E5.81323
G1 X-21.525 Y6.283 E5.88056
G1 X-21.827 Y5.149 E6.00599
G1 X-22.098 Y3.822 E6.15079
G1 X-22.288 Y2.480 E6.29559
G1 X-22.398 Y1.130 E6.44039
G1 X-22.425 Y0.224 E6.53724
G1 X-22.398 Y-1.130 E6.68204
G1 X-22.288 Y-2.480 E6.82684
G1 X-22.098 Y-3.821 E6.97163
G1 X-22.017 Y-4.263 E7.01960
G1 X-21.720 Y-5.584 E7.16440
G1 X-21.343 Y-6.886 E7.30920
G1 X-20.888 Y-8.162 E7.45398
G1 X-20.357 Y-9.408 E7.59879
G1 X-19.752 Y-10.620 E7.74359
G1 X-19.307 Y-11.409 E7.84045
G1 X-18.583 Y-12.554 E7.98524
G1 X-17.791 Y-13.653 E8.13004
G1 X-16.934 Y-14.703 E8.27484
G1 X-16.015 Y-15.698 E8.41964
G1 X-15.038 Y-16.637 E8.56444
G1 X-14.006 Y-17.514 E8.70924
G1 X-12.923 Y-18.328 E8.85403
G1 X-12.554 Y-18.583 E8.90199
G1 X-11.409 Y-19.307 E9.04680
G1 X-10.223 Y-19.961 E9.19159
G1 X-8.999 Y-20.541 E9.33640
G1 X-7.742 Y-21.047 E9.48119
G1 X-6.457 Y-21.476 E9.62598
G1 X-5.584 Y-21.720 E9.72284
G1 X-4.263 Y-22.017 E9.86764
G1 X-2.926 Y-22.234 E10.01244
G1 X-1.578 Y-22.370 E10.15724
G1 X-0.224 Y-22.425 E10.30204
G1 X0.405 Y-22.419 E10.36936
G1 X1.578 Y-22.370 E10.49479 F1800.000
G1 X2.480 Y-22.288 E10.59165
G1 X3.821 Y-22.098 E10.73644
G1 X4.263 Y-22.017 E10.78440
G1 X5.149 Y-21.827 E10.88126
G1 X6.457 Y-21.476 E11.02606
G1 X6.886 Y-21.343 E11.07402
G1 X8.162 Y-20.888 E11.21881
G1 X9.408 Y-20.357 E11.36361
G1 X10.223 Y-19.961 E11.46047
G1 X11.409 Y-19.307 E11.60526
G1 X11.793 Y-19.075 E11.65323
G1 X12.923 Y-18.328 E11.79803
G1 X13.653 Y-17.791 E11.89488
G1 X14.703 Y-16.934 E12.03967
G1 X15.698 Y-16.015 E12.18448
G1 X16.636 Y-15.038 E12.32927
G1 X16.934 Y-14.703 E12.37724
G1 X17.514 Y-14.006 E12.47409
G1 X18.328 Y-12.923 E12.61888
G1 X18.583 Y-12.554 E12.66685
G1 X19.307 Y-11.409 E12.81165
G1 X19.752 Y-10.620 E12.90850
G1 X20.357 Y-9.408 E13.05330
G1 X20.541 Y-8.999 E13.10126
G1 X21.047 Y-7.742 E13.24606
G1 X21.476 Y-6.457 E13.39085
G1 X21.720 Y-5.584 E13.48771
G1 X22.017 Y-4.263 E13.63250
G1 X22.098 Y-3.821 E13.68047
G1 X22.288 Y-2.480 E13.82527
G1 X22.370 Y-1.578 E13.92212
G1 X22.425 Y-0.224 E14.06691
G1 X22.425 Y0.224 E14.11489
G1 X22.370 Y1.578 E14.25967
G1 X22.288 Y2.480 E14.35653
G1 X22.098 Y3.821 E14.50132
G1 X22.017 Y4.263 E14.54929
G1 X21.827 Y5.149 E14.64614
G1 X21.476 Y6.457 E14.79094
G1 X21.343 Y6.886 E14.83891
G1 X20.888 Y8.162 E14.98369
G1 X20.357 Y9.408 E15.12850
G1 X19.961 Y10.223 E15.22535
G1 X19.307 Y11.409 E15.37015
G1 X18.976 Y11.945 E15.43748
G1 X18.328 Y12.923 E15.56291
G1 X17.791 Y13.653 E15.65976
G1 X16.934 Y14.703 E15.80455
G1 X16.636 Y15.038 E15.85252
G1 X15.698 Y16.015 E15.99731
G1 X15.038 Y16.636 E16.09416
G1 X14.006 Y17.514 E16.23897
G1 X12.923 Y18.328 E16.38376
G1 X12.554 Y18.583 E16.43173
G1 X11.793 Y19.075 E16.52858
G1 X10.620 Y19.752 E16.67338
G1 X9.408 Y20.357 E16.81818
G1 X8.999 Y20.541 E16.86615
G1 X8.162 Y20.888 E16.96300
G1 X7.371 Y21.175 E17.05294
G1 X7.081 Y20.520 F4800.000
G1 X6.266 Y20.788 E17.14472 F1800.000
G1 X4.999 Y21.129 E17.28491
G1 X3.714 Y21.392 E17.42510
G1 X2.416 Y21.577 E17.56529
G1 X1.109 Y21.684 E17.70547
G1 X0.203 Y21.711 E17.80232
G1 X-1.109 Y21.684 E17.94252
G1 X-2.416 Y21.577 E18.08270
G1 X-4.113 Y21.319 E18.26622
G1 X-5.393 Y21.032 E18.40641
G1 X-6.653 Y20.668 E18.54660
G1 X-7.888 Y20.228 E18.68678
G1 X-9.095 Y19.715 E18.82697
G1 X-10.269 Y19.130 E18.96716
G1 X-11.058 Y18.685 E19.06401
G1 X-12.500 Y17.753 E19.24753
G1 X-13.549 Y16.966 E19.38771
G1 X-14.549 Y16.116 E19.52791
G1 X-15.495 Y15.209 E19.66809
G1 X-16.385 Y14.245 E19.80828
G1 X-17.216 Y13.230 E19.94847
G1 X-17.983 Y12.166 E20.08866
G1 X-18.685 Y11.058 E20.22884
G1 X-19.318 Y9.910 E20.36903
G1 X-19.882 Y8.726 E20.50923
G1 X-20.228 Y7.888 E20.60608
G1 X-20.668 Y6.653 E20.74626
G1 X-20.837 Y6.091 E20.80897
G1 X-21.129 Y4.999 E20.92979
G1 X-21.392 Y3.714 E21.06999
G1 X-21.577 Y2.416 E21.21017
G1 X-21.684 Y1.108 E21.35036
G1 X-21.711 Y0.203 E21.44721
G1 X-21.684 Y-1.108 E21.58741
G1 X-21.577 Y-2.416 E21.72759
G1 X-21.392 Y-3.714 E21.86778
G1 X-21.032 Y-5.393 E22.05129
G1 X-20.668 Y-6.653 E22.19149
G1 X-20.228 Y-7.888 E22.33166
G1 X-19.882 Y-8.726 E22.42852
G1 X-19.318 Y-9.910 E22.56871
G1 X-18.685 Y-11.058 E22.70890
G1 X-17.983 Y-12.166 E22.84909
G1 X-17.216 Y-13.230 E22.98928
G1 X-16.385 Y-14.245 E23.12946
G1 X-15.495 Y-15.209 E23.26966
G1 X-14.549 Y-16.117 E23.40984
G1 X-13.549 Y-16.966 E23.55003
G1 X-12.500 Y-17.753 E23.69022
G1 X-11.058 Y-18.685 E23.87374
G1 X-9.910 Y-19.318 E24.01392
G1 X-8.726 Y-19.882 E24.15412
G1 X-7.509 Y-20.372 E24.29430
G1 X-6.266 Y-20.788 E24.43448
G1 X-5.393 Y-21.032 E24.53134
G1 X-4.113 Y-21.319 E24.67153
G1 X-2.818 Y-21.528 E24.81172
G1 X-1.513 Y-21.659 E24.95190
G1 X-0.203 Y-21.711 E25.09209
G1 X0.384 Y-21.706 E25.15481
G1 X1.513 Y-21.659 E25.27563 F1800.000
G1 X2.416 Y-21.577 E25.37248
G1 X4.113 Y-21.319 E25.55599
G1 X4.999 Y-21.129 E25.65285
G1 X6.266 Y-20.788 E25.79303
G1 X7.888 Y-20.228 E25.97654
G1 X8.726 Y-19.882 E26.07339
G1 X9.258 Y-19.636 E26.13611
G1 X10.269 Y-19.130 E26.25693
G1 X11.058 Y-18.685 E26.35378
G1 X12.500 Y-17.753 E26.53730
G1 X13.230 Y-17.216 E26.63415
G1 X14.245 Y-16.385 E26.77434
G1 X15.209 Y-15.495 E26.91453
G1 X16.385 Y-14.245 E27.09804
G1 X16.966 Y-13.549 E27.19489
G1 X17.753 Y-12.500 E27.33508
G1 X18.685 Y-11.058 E27.51860
G1 X19.318 Y-9.910 E27.65878
G1 X19.715 Y-9.095 E27.75563
G1 X20.372 Y-7.509 E27.93915
G1 X20.788 Y-6.266 E28.07933
G1 X21.032 Y-5.393 E28.17619
G1 X21.392 Y-3.714 E28.35971
G1 X21.528 Y-2.818 E28.45656
G1 X21.659 Y-1.513 E28.59674
G1 X21.711 Y0.203 E28.78026
G1 X21.659 Y1.513 E28.92044
G1 X21.577 Y2.416 E29.01729
G1 X21.319 Y4.113 E29.20081
G1 X21.129 Y4.999 E29.29766
G1 X20.788 Y6.266 E29.43785
G1 X20.228 Y7.888 E29.62135
G1 X19.715 Y9.095 E29.76155
G1 X19.318 Y9.910 E29.85840
G1 X18.685 Y11.058 E29.99859
G1 X17.753 Y12.500 E30.18211
G1 X17.216 Y13.230 E30.27896
G1 X16.385 Y14.245 E30.41914
G1 X15.209 Y15.495 E30.60265
G1 X14.245 Y16.385 E30.74285
G1 X13.549 Y16.966 E30.83970
G1 X12.166 Y17.983 E31.02321
G1 X11.406 Y18.475 E31.12006
G1 X10.269 Y19.130 E31.26025
G1 X8.726 Y19.882 E31.44377
G1 X7.888 Y20.228 E31.54062
G1 X7.138 Y20.500 E31.62596
G1 E29.62596 F2400.00000
G92 E0
G1 X-13.147 Y0.795 F4800.000
G1 E2.00000 F2400.00000
G1 X-13.171 Y-0.000 E2.08504 F1200.000
G1 X-13.147 Y-0.795 E2.17008
G1 X-13.075 Y-1.588 E2.25512
G1 X-12.955 Y-2.374 E2.34016
G1 X-12.788 Y-3.152 E2.42520
G1 X-12.574 Y-3.918 E2.51024
G1 X-12.315 Y-4.670 E2.59528
G1 X-12.014 Y-5.397 E2.67934
G1 X-11.578 Y-6.271 E2.78372
G1 X-11.271 Y-6.814 E2.85037
G1 X-10.839 Y-7.482 E2.93541
G1 X-10.368 Y-8.123 E3.02046
G1 X-9.859 Y-8.734 E3.10550
G1 X-9.313 Y-9.313 E3.19054
G1 X-8.734 Y-9.859 E3.27558
G1 X-8.123 Y-10.368 E3.36062
G1 X-7.482 Y-10.839 E3.44566
G1 X-6.814 Y-11.271 E3.53070
G1 X-6.121 Y-11.662 E3.61574
G1 X-5.405 Y-12.010 E3.70078
G1 X-4.679 Y-12.311 E3.78484
G1 X-3.753 Y-12.621 E3.88922
G1 X-3.152 Y-12.788 E3.95587
G1 X-2.374 Y-12.955 E4.04091
G1 X-1.588 Y-13.075 E4.12595
G1 X-0.804 Y-13.146 E4.21001
G1 X0.172 Y-13.166 E4.31439
G1 X0.795 Y-13.147 E4.38104
G1 X1.588 Y-13.075 E4.46608 F1200.000
G1 X2.374 Y-12.955 E4.55113
G1 X3.152 Y-12.788 E4.63616
G1 X3.918 Y-12.574 E4.72121
G1 X4.670 Y-12.315 E4.80625
G1 X5.405 Y-12.010 E4.89129
G1 X6.121 Y-11.662 E4.97633
G1 X6.814 Y-11.271 E5.06137
G1 X7.482 Y-10.839 E5.14641
G1 X8.123 Y-10.368 E5.23145
G1 X8.734 Y-9.859 E5.31649
G1 X9.313 Y-9.313 E5.40153
G1 X9.859 Y-8.734 E5.48657
G1 X10.368 Y-8.123 E5.57161
G1 X10.839 Y-7.482 E5.65665
G1 X11.271 Y-6.814 E5.74169
G1 X11.662 Y-6.121 E5.82673
G1 X12.010 Y-5.405 E5.91177
G1 X12.315 Y-4.670 E5.99681
G1 X12.574 Y-3.918 E6.08185
G1 X12.788 Y-3.152 E6.16690
G1 X12.955 Y-2.374 E6.25193
G1 X13.075 Y-1.588 E6.33697
G1 X13.147 Y-0.795 E6.42202
G1 X13.171 Y-0.009 E6.50607
G1 X13.131 Y0.967 E6.61045
G1 X13.075 Y1.588 E6.67711
G1 X12.955 Y2.374 E6.76215
G1 X12.788 Y3.152 E6.84719
G1 X12.574 Y3.918 E6.93223
G1 X12.315 Y4.670 E7.01727
G1 X12.014 Y5.397 E7.10132
G1 X11.578 Y6.271 E7.20571
G1 X11.271 Y6.814 E7.27236
G1 X10.839 Y7.482 E7.35740
G1 X10.368 Y8.123 E7.44244
G1 X9.859 Y8.734 E7.52748
G1 X9.313 Y9.313 E7.61252
G1 X8.734 Y9.859 E7.69756
G1 X8.123 Y10.368 E7.78260
G1 X7.482 Y10.839 E7.86764
G1 X6.814 Y11.271 E7.95268
G1 X6.121 Y11.662 E8.03772
G1 X5.405 Y12.010 E8.12276
G1 X4.670 Y12.315 E8.20781
G1 X3.918 Y12.574 E8.29285
G1 X3.152 Y12.788 E8.37789
G1 X2.374 Y12.955 E8.46293
G1 X1.588 Y13.075 E8.54797
G1 X0.795 Y13.147 E8.63301
G1 X0.009 Y13.171 E8.71706
G1 X-0.967 Y13.131 E8.82144
G1 X-1.588 Y13.075 E8.88810
G1 X-2.374 Y12.955 E8.97314
G1 X-3.152 Y12.788 E9.05818
G1 X-3.918 Y12.574 E9.14322
G1 X-4.670 Y12.315 E9.22826
G1 X-5.405 Y12.010 E9.31330
G1 X-6.121 Y11.662 E9.39834
G1 X-6.814 Y11.271 E9.48338
G1 X-7.482 Y10.839 E9.56842
G1 X-8.123 Y10.368 E9.65346
G1 X-8.734 Y9.859 E9.73850
G1 X-9.313 Y9.313 E9.82354
G1 X-9.859 Y8.734 E9.90859
G1 X-10.368 Y8.123 E9.99363
G1 X-10.834 Y7.489 E10.07768
G1 X-11.356 Y6.664 E10.18206
G1 X-11.662 Y6.121 E10.24872
G1 X-12.010 Y5.405 E10.33376
G1 X-12.315 Y4.670 E10.41880
G1 X-12.574 Y3.918 E10.50384
G1 X-12.788 Y3.152 E10.58888
G1 X-12.955 Y2.374 E10.67392
G1 X-13.075 Y1.588 E10.75896
G1 X-13.141 Y0.855 E10.83759
G1 X-13.858 Y0.860 F4800.000
G1 X-13.885 Y-0.000 E10.92954 F1200.000
G1 X-13.860 Y-0.838 E11.01920
G1 X-13.784 Y-1.674 E11.10885
G1 X-13.658 Y-2.503 E11.19851
G1 X-13.482 Y-3.323 E11.28816
G1 X-13.257 Y-4.131 E11.37781
G1 X-12.983 Y-4.924 E11.46747
G1 X-12.664 Y-5.694 E11.55652
G1 X-12.209 Y-6.606 E11.66551
G1 X-11.883 Y-7.183 E11.73640
G1 X-11.427 Y-7.888 E11.82605
G1 X-10.930 Y-8.563 E11.91570
G1 X-10.393 Y-9.208 E12.00536
G1 X-9.818 Y-9.818 E12.09501
G1 X-9.208 Y-10.393 E12.18467
G1 X-8.563 Y-10.930 E12.27432
G1 X-7.888 Y-11.427 E12.36397
G1 X-7.183 Y-11.883 E12.45363
G1 X-6.453 Y-12.295 E12.54328
G1 X-5.699 Y-12.662 E12.63293
G1 X-4.929 Y-12.981 E12.72199
G1 X-3.962 Y-13.304 E12.83098
G1 X-3.323 Y-13.482 E12.90187
G1 X-2.503 Y-13.658 E12.99152
G1 X-1.674 Y-13.784 E13.08117
G1 X-0.844 Y-13.859 E13.17023
G1 X0.176 Y-13.880 E13.27922
G1 X0.838 Y-13.860 E13.35011
G1 X1.674 Y-13.784 E13.43976 F1200.000
G1 X2.503 Y-13.658 E13.52941
G1 X3.323 Y-13.482 E13.61907
G1 X4.131 Y-13.257 E13.70872
G1 X4.924 Y-12.983 E13.79837
G1 X5.699 Y-12.662 E13.88803
G1 X6.453 Y-12.295 E13.97768
G1 X7.183 Y-11.883 E14.06734
G1 X7.888 Y-11.427 E14.15699
G1 X8.563 Y-10.930 E14.24664
G1 X9.208 Y-10.393 E14.33630
G1 X9.818 Y-9.818 E14.42595
G1 X10.393 Y-9.208 E14.51560
G1 X10.930 Y-8.563 E14.60526
G1 X11.427 Y-7.888 E14.69491
G1 X11.883 Y-7.183 E14.78456
G1 X12.295 Y-6.453 E14.87422
G1 X12.662 Y-5.699 E14.96387
G1 X12.983 Y-4.924 E15.05353
G1 X13.257 Y-4.131 E15.14318
G1 X13.482 Y-3.323 E15.23283
G1 X13.658 Y-2.503 E15.32249
G1 X13.784 Y-1.674 E15.41214
G1 X13.860 Y-0.838 E15.50179
G1 X13.885 Y-0.006 E15.59085
G1 X13.844 Y1.013 E15.69984
G1 X13.784 Y1.674 E15.77073
G1 X13.658 Y2.503 E15.86038
G1 X13.482 Y3.323 E15.95003
G1 X13.257 Y4.131 E16.03969
G1 X12.983 Y4.924 E16.12934
G1 X12.664 Y5.694 E16.21839
G1 X12.209 Y6.606 E16.32739
G1 X11.883 Y7.183 E16.39827
G1 X11.427 Y7.888 E16.48793
G1 X10.930 Y8.563 E16.57758
G1 X10.393 Y9.208 E16.66723
G1 X9.818 Y9.818 E16.75689
G1 X9.208 Y10.393 E16.84654
G1 X8.563 Y10.930 E16.93619
G1 X7.888 Y11.427 E17.02585
G1 X7.183 Y11.883 E17.11550
G1 X6.453 Y12.295 E17.20516
G1 X5.699 Y12.662 E17.29481
G1 X4.924 Y12.983 E17.38446
G1 X4.131 Y13.257 E17.47412
G1 X3.323 Y13.482 E17.56377
G1 X2.503 Y13.658 E17.65342
G1 X1.674 Y13.784 E17.74308
G1 X0.838 Y13.860 E17.83273
G1 X0.006 Y13.885 E17.92179
G1 X-1.013 Y13.844 E18.03078
G1 X-1.674 Y13.784 E18.10166
G1 X-2.503 Y13.658 E18.19132
G1 X-3.323 Y13.482 E18.28097
G1 X-4.131 Y13.257 E18.37062
G1 X-4.924 Y12.983 E18.46028
G1 X-5.699 Y12.662 E18.54993
G1 X-6.453 Y12.295 E18.63959
G1 X-7.183 Y11.883 E18.72924
G1 X-7.888 Y11.427 E18.81889
G1 X-8.563 Y10.930 E18.90855
G1 X-9.208 Y10.393 E18.99820
G1 X-9.818 Y9.818 E19.08785
G1 X-10.393 Y9.208 E19.17751
G1 X-10.930 Y8.563 E19.26716
G1 X-11.424 Y7.892 E19.35622
G1 X-11.969 Y7.030 E19.46521
G1 X-12.295 Y6.453 E19.53609
G1 X-12.662 Y5.699 E19.62575
G1 X-12.983 Y4.924 E19.71540
G1 X-13.257 Y4.131 E19.80505
G1 X-13.482 Y3.323 E19.89471
G1 X-13.658 Y2.503 E19.98436
G1 X-13.784 Y1.674 E20.07401
G1 X-13.853 Y0.920 E20.15495
G1 X-14.569 Y0.924 F4800.000
G1 X-14.600 Y-0.000 E20.25382 F600.000
G1 X-14.573 Y-0.882 E20.34809
G1 X-14.493 Y-1.760 E20.44236
G1 X-14.361 Y-2.632 E20.53662
G1 X-14.176 Y-3.494 E20.63089
G1 X-13.939 Y-4.343 E20.72516
G1 X-13.651 Y-5.177 E20.81942
G1 X-13.314 Y-5.990 E20.91347
G1 X-12.839 Y-6.941 E21.02708
G1 X-12.494 Y-7.553 E21.10219
G1 X-12.015 Y-8.294 E21.19646
G1 X-11.493 Y-9.004 E21.29073
G1 X-10.928 Y-9.681 E21.38500
G1 X-10.324 Y-10.324 E21.47926
G1 X-9.681 Y-10.928 E21.57353
G1 X-9.004 Y-11.493 E21.66780
G1 X-8.294 Y-12.015 E21.76206
G1 X-7.553 Y-12.494 E21.85633
G1 X-6.785 Y-12.927 E21.95060
G1 X-5.992 Y-13.314 E22.04486
G1 X-5.179 Y-13.650 E22.13892
G1 X-4.171 Y-13.987 E22.25252
G1 X-3.494 Y-14.176 E22.32764
G1 X-2.632 Y-14.361 E22.42190
G1 X-1.760 Y-14.493 E22.51617
G1 X-0.884 Y-14.573 E22.61022
G1 X0.179 Y-14.594 E22.72383
G1 X0.882 Y-14.573 E22.79894
G1 X1.760 Y-14.493 E22.89321 F600.000
G1 X2.632 Y-14.361 E22.98747
G1 X3.494 Y-14.176 E23.08174
G1 X4.343 Y-13.939 E23.17601
G1 X5.177 Y-13.651 E23.27027
G1 X5.992 Y-13.314 E23.36454
G1 X6.785 Y-12.927 E23.45881
G1 X7.553 Y-12.494 E23.55308
G1 X8.294 Y-12.015 E23.64734
G1 X9.004 Y-11.493 E23.74161
G1 X9.681 Y-10.928 E23.83588
G1 X10.324 Y-10.324 E23.93014
G1 X10.928 Y-9.681 E24.02441
G1 X11.493 Y-9.004 E24.11868
G1 X12.015 Y-8.294 E24.21294
G1 X12.494 Y-7.553 E24.30721
G1 X12.927 Y-6.785 E24.40148
G1 X13.314 Y-5.992 E24.49575
G1 X13.651 Y-5.177 E24.59001
G1 X13.939 Y-4.343 E24.68428
G1 X14.176 Y-3.494 E24.77855
G1 X14.361 Y-2.632 E24.87281
G1 X14.493 Y-1.760 E24.96708
G1 X14.573 Y-0.882 E25.06135
G1 X14.600 Y-0.002 E25.15540
G1 X14.557 Y1.060 E25.26901
G1 X14.493 Y1.760 E25.34412
G1 X14.361 Y2.632 E25.43839
G1 X14.176 Y3.494 E25.53265
G1 X13.939 Y4.343 E25.62692
G1 X13.651 Y5.177 E25.72119
G1 X13.314 Y5.990 E25.81524
G1 X12.839 Y6.941 E25.92885
G1 X12.494 Y7.553 E26.00396
G1 X12.015 Y8.294 E26.09822
G1 X11.493 Y9.004 E26.19249
G1 X10.928 Y9.681 E26.28676
G1 X10.324 Y10.324 E26.38103
G1 X9.681 Y10.928 E26.47529
G1 X9.004 Y11.493 E26.56956
G1 X8.294 Y12.015 E26.66383
G1 X7.553 Y12.494 E26.75809
G1 X6.785 Y12.927 E26.85236
G1 X5.992 Y13.314 E26.94663
G1 X5.177 Y13.651 E27.04089
G1 X4.343 Y13.939 E27.13516
G1 X3.494 Y14.176 E27.22943
G1 X2.632 Y14.361 E27.32369
G1 X1.760 Y14.493 E27.41796
G1 X0.882 Y14.573 E27.51223
G1 X0.002 Y14.600 E27.60628
G1 X-1.060 Y14.557 E27.71989
G1 X-1.760 Y14.493 E27.79500
