; generated by Slic3r 1.2.9 on 2019-05-15 at 16:54:48

; external perimeters extrusion width = 0.40mm
; perimeters extrusion width = 0.48mm
; infill extrusion width = 0.48mm
; solid infill extrusion width = 0.48mm
; top infill extrusion width = 0.48mm

M190 S65 ; set bed temperature
M104 S190 ; set temperature
G28 ; home all axes
G1 Z5 F5000 ; lift nozzle

M109 S190 ; wait for temperature to be reached
G21 ; set units to millimeters
G90 ; use absolute coordinates
M82 ; use absolute distances for extrusion
G92 E0
G1 Z0.400 F4800.000
G1 E-2.00000 F2400.00000
G92 E0
G1 X15.886 Y8.789 F4800.000
G1 E2.00000 F2400.00000
G1 X5.487 Y27.585 E4.29607 F1800.000
G1 X5.270 Y27.955 E4.34187
G1 X4.806 Y28.633 E4.42972
G1 X4.639 Y28.847 E4.45875
G1 X3.268 Y30.178 E4.66299
G1 X3.040 Y30.348 E4.69333
G1 X-0.223 Y31.731 E5.07214
G1 X-1.040 Y31.863 E5.16061
G1 X-2.158 Y31.957 E5.28058
G1 X-2.484 Y31.960 E5.31534
G1 X-3.842 Y31.847 E5.46102
G1 X-4.514 Y31.717 E5.53421
G1 X-5.283 Y31.509 E5.61936
G1 X-9.383 Y30.251 E6.07777
G1 X-15.999 Y27.896 E6.82843
G1 X-17.122 Y27.337 E6.96251
G1 X-18.631 Y26.188 E7.16525
G1 X-19.027 Y25.781 E7.22588
G1 X-20.502 Y23.458 E7.52006
G1 X-20.770 Y22.785 E7.59746
G1 X-21.298 Y20.043 E7.89598
G1 X-21.331 Y-11.982 E11.31909
G1 X-20.936 Y-14.380 E11.57878
G1 X-19.006 Y-17.388 E11.96080
G1 X-12.777 Y-23.269 E12.87649
G1 X-10.761 Y-24.626 E13.13618
G1 X-7.989 Y-25.289 E13.44086
G1 X14.393 Y-26.228 E15.83539
G1 X15.891 Y-26.139 E15.99581
G1 X16.648 Y-26.017 E16.07776 F1800.000
G1 X17.542 Y-25.815 E16.17565
G1 X17.910 Y-25.707 E16.21670
G1 X18.509 Y-25.505 E16.28429
G1 X19.540 Y-25.106 E16.40243
G1 X20.109 Y-24.857 E16.46878
G1 X21.099 Y-24.374 E16.58659
G1 X21.657 Y-24.071 E16.65439
G1 X22.629 Y-23.487 E16.77562
G1 X23.296 Y-23.039 E16.86150
G1 X24.079 Y-22.394 E16.97001
G1 X24.629 Y-21.874 E17.05080
G1 X25.887 Y-20.311 E17.26531
G1 X26.112 Y-19.937 E17.31198
G1 X26.710 Y-18.698 E17.45900
G1 X26.886 Y-18.186 E17.51690
G1 X27.164 Y-16.902 E17.65726
G1 X27.222 Y-15.678 E17.78829
G1 X27.208 Y-15.291 E17.82969
G1 X26.867 Y-13.311 E18.04438
G1 X26.732 Y-12.883 E18.09243
G1 X26.440 Y-12.111 E18.18060
G1 X22.822 Y-3.954 E19.13444
G1 X21.942 Y-2.156 E19.34846
G1 X15.915 Y8.737 E20.67907
G1 X15.261 Y8.444 F4800.000
G1 X4.862 Y27.240 E22.97514 F1800.000
G1 X4.659 Y27.585 E23.01793
G1 X4.240 Y28.198 E23.09733
G1 X4.079 Y28.403 E23.12516
G1 X2.840 Y29.606 E23.30977
G1 X2.613 Y29.776 E23.34011
G1 X-0.337 Y31.026 E23.68250
G1 X-1.154 Y31.158 E23.77097
G1 X-2.165 Y31.243 E23.87941
G1 X-2.490 Y31.246 E23.91416
G1 X-3.717 Y31.143 E24.04584
G1 X-4.354 Y31.021 E24.11515
G1 X-5.075 Y30.826 E24.19495
G1 X-9.145 Y29.578 E24.64995
G1 X-15.735 Y27.233 E25.39767
G1 X-16.766 Y26.718 E25.52079
G1 X-18.129 Y25.680 E25.70404
G1 X-18.505 Y25.294 E25.76162
G1 X-19.838 Y23.193 E26.02752
G1 X-20.106 Y22.521 E26.10492
G1 X-20.583 Y20.042 E26.37473
G1 X-20.617 Y-11.983 E29.79784
G1 X-20.222 Y-14.258 E30.04465
G1 X-18.515 Y-16.869 E30.37804
G1 X-12.287 Y-22.750 E31.29366
G1 X-10.360 Y-24.022 E31.54047
G1 X-7.959 Y-24.576 E31.80382
G1 X14.423 Y-25.515 E34.19835
G1 X15.777 Y-25.434 E34.34335
G1 X16.534 Y-25.312 E34.42529 F1800.000
G1 X17.342 Y-25.129 E34.51378
G1 X17.710 Y-25.022 E34.55483
G1 X18.252 Y-24.838 E34.61592
G1 X19.282 Y-24.440 E34.73399
G1 X19.796 Y-24.215 E34.79396
G1 X20.785 Y-23.732 E34.91165
G1 X21.289 Y-23.459 E34.97294
G1 X22.261 Y-22.875 E35.09412
G1 X22.881 Y-22.458 E35.17391
G1 X23.589 Y-21.875 E35.27199
G1 X24.138 Y-21.356 E35.35277
G1 X25.275 Y-19.942 E35.54666
G1 X25.500 Y-19.568 E35.59333
G1 X26.040 Y-18.449 E35.72622
G1 X26.204 Y-17.973 E35.77995
G1 X26.455 Y-16.813 E35.90682
G1 X26.508 Y-15.703 E36.02563
G1 X26.495 Y-15.316 E36.06702
G1 X26.186 Y-13.527 E36.26107
G1 X26.051 Y-13.098 E36.30912
G1 X25.787 Y-12.401 E36.38882
G1 X22.071 Y-4.033 E37.36751
G1 X21.317 Y-2.501 E37.54997
G1 X15.290 Y8.391 E38.88058
G1 E36.88058 F2400.00000
G92 E0
G1 X-4.288 Y9.799 F4800.000
G1 E2.00000 F2400.00000
G1 X-2.625 Y11.231 E2.23459 F450.000
G1 X-2.701 Y11.379 E2.25233
G1 X-2.713 Y12.218 E2.34205
G1 X-2.798 Y12.745 E2.39916
G1 X-2.844 Y13.280 E2.45655
G1 X-2.836 Y14.394 E2.57559
G1 X-2.788 Y15.101 E2.65131
G1 X-2.700 Y15.810 E2.72772
G1 X-2.566 Y16.553 E2.80836
G1 X-2.272 Y17.955 E2.96156
G1 X-2.197 Y18.419 E3.01173
G1 X-2.132 Y19.244 E3.10025
G1 X-2.195 Y20.175 E3.19990
G1 X-2.262 Y20.527 E3.23823
G1 X-2.474 Y21.060 E3.29957
G1 X-2.763 Y21.986 E3.40323
G1 X-2.813 Y22.329 E3.44034
G1 X-3.615 Y21.920 E3.53655
G1 X-4.378 Y21.360 E3.63773
G1 X-5.271 Y21.344 E3.73313
G1 X-5.851 Y21.403 E3.79547
G1 X-6.100 Y21.463 E3.82282
G1 X-6.259 Y21.467 E3.83988
G1 X-6.865 Y20.587 E3.95400
G1 X-7.478 Y20.048 E4.04130
G1 X-8.046 Y19.780 E4.10845
G1 X-8.568 Y19.680 E4.16522
G1 X-9.121 Y19.683 E4.22434
G1 X-9.647 Y19.797 E4.28185
G1 X-10.203 Y19.338 E4.35894
G1 X-10.642 Y19.155 E4.40980
G1 X-10.272 Y18.540 E4.48649
G1 X-9.776 Y17.259 E4.63325
G1 X-9.668 Y17.019 E4.66143
G1 X-9.394 Y16.553 E4.71920
G1 X-9.168 Y16.240 E4.76046
G1 X-8.834 Y15.830 E4.81705
G1 X-7.529 Y14.468 E5.01867
G1 X-7.152 Y14.012 E5.08190
G1 X-6.802 Y13.533 E5.14530
G1 X-6.224 Y12.522 E5.26979
G1 X-5.931 Y11.853 E5.34780
G1 X-5.779 Y11.205 E5.41894
G1 X-5.722 Y10.557 E5.48846
G1 X-5.643 Y10.476 E5.50063
G1 X-4.341 Y9.826 E5.65613
G1 X-4.182 Y8.948 F4800.000
G1 X-1.840 Y10.965 E5.98645 F1200.000
G1 X-1.769 Y11.133 E6.00600
G1 X-1.990 Y11.558 E6.05718
G1 X-2.000 Y12.280 E6.13437
G1 X-2.089 Y12.833 E6.19424
G1 X-2.130 Y13.308 E6.24524
G1 X-2.122 Y14.367 E6.35842
G1 X-2.077 Y15.033 E6.42970
G1 X-1.993 Y15.703 E6.50190
G1 X-1.865 Y16.416 E6.57937
G1 X-1.569 Y17.825 E6.73322
G1 X-1.488 Y18.324 E6.78722
G1 X-1.442 Y18.759 E6.83404
G1 X-1.417 Y19.246 E6.88615
G1 X-1.485 Y20.269 E6.99570
G1 X-1.572 Y20.725 E7.04538
G1 X-1.811 Y21.332 E7.11503
G1 X-2.065 Y22.144 E7.20604
G1 X-2.198 Y23.063 E7.30532
G1 X-2.165 Y23.414 E7.34299
G1 X-2.454 Y23.417 E7.37389
G1 X-2.734 Y23.349 E7.40477
G1 X-2.820 Y23.300 E7.41528
G1 X-3.438 Y22.812 E7.49941
G1 X-3.991 Y22.530 E7.56578
G1 X-4.618 Y22.070 E7.64890
G1 X-5.241 Y22.059 E7.71549
G1 X-5.702 Y22.106 E7.76510
G1 X-5.816 Y22.143 E7.77788
G1 X-6.040 Y22.176 E7.80201
G1 X-6.535 Y22.173 E7.85498
G1 X-6.681 Y22.064 E7.87446
G1 X-6.915 Y21.792 E7.91274
G1 X-7.406 Y21.063 E8.00679
G1 X-7.874 Y20.651 E8.07340
G1 X-8.269 Y20.465 E8.12013
G1 X-8.634 Y20.394 E8.15985
G1 X-9.042 Y20.396 E8.20345
G1 X-9.437 Y20.483 E8.24664
G1 X-9.920 Y20.646 E8.30116
G1 X-10.228 Y20.244 E8.35529
G1 X-10.576 Y19.956 E8.40358
G1 X-11.097 Y19.738 E8.46397
G1 X-12.072 Y19.740 E8.56816
G1 X-11.713 Y19.378 E8.62259
G1 X-11.352 Y18.950 E8.68243
G1 X-10.916 Y18.225 E8.77296
G1 X-10.435 Y16.983 E8.91524
G1 X-10.307 Y16.700 E8.94842
G1 X-9.983 Y16.150 E9.01674
G1 X-9.735 Y15.806 E9.06206
G1 X-9.376 Y15.364 E9.12289
G1 X-9.074 Y15.030 E9.17106
G1 X-8.061 Y13.990 E9.32622
G1 X-7.716 Y13.573 E9.38406
G1 X-7.402 Y13.144 E9.44091
G1 X-6.863 Y12.201 E9.55703
G1 X-6.612 Y11.626 E9.62403
G1 X-6.486 Y11.092 E9.68273
G1 X-6.412 Y10.243 E9.77383
G1 X-6.071 Y9.891 E9.82616
G1 X-4.235 Y8.975 E10.04548
G1 X7.904 Y-3.272 F4800.000
G1 X7.499 Y-2.644 E10.12540 F1200.000
G1 X7.624 Y-1.376 E10.26156
G1 X7.427 Y-0.226 E10.38628
G1 X7.236 Y0.714 E10.48883
G1 X7.079 Y1.333 E10.55711
G1 X6.917 Y1.835 E10.61348
G1 X6.575 Y2.684 E10.71124
G1 X6.128 Y3.568 E10.81716
G1 X5.799 Y4.106 E10.88459
G1 X5.464 Y4.579 E10.94658
G1 X5.057 Y5.081 E11.01555
G1 X4.640 Y5.525 E11.08066
G1 X4.242 Y5.893 E11.13867
G1 X3.722 Y6.312 E11.21002
G1 X3.231 Y6.652 E11.27389
G1 X2.716 Y6.955 E11.33778
G1 X2.181 Y7.225 E11.40177
G1 X1.631 Y7.453 E11.46542
G1 X1.117 Y7.630 E11.52351
G1 X0.490 Y7.800 E11.59301
G1 X-0.091 Y7.913 E11.65627
G1 X-0.671 Y7.989 E11.71883
G1 X-3.483 Y8.132 E12.01979
G1 X-5.877 Y6.971 E12.30419
G1 X-6.401 Y6.675 E12.36847
G1 X-6.902 Y6.348 E12.43246
G1 X-7.378 Y5.990 E12.49608
G1 X-7.831 Y5.596 E12.56027
G1 X-8.259 Y5.176 E12.62441
G1 X-8.657 Y4.723 E12.68883
G1 X-8.991 Y4.292 E12.74713
G1 X-9.358 Y3.742 E12.81778
G1 X-9.661 Y3.210 E12.88322
G1 X-9.917 Y2.675 E12.94667
G1 X-10.140 Y2.108 E13.01171
G1 X-10.324 Y1.525 E13.07710
G1 X-10.465 Y0.941 E13.14128
G1 X-10.565 Y0.337 E13.20671
G1 X-10.626 Y-0.261 E13.27096
G1 X-10.653 Y-0.897 E13.33900
G1 X-10.640 Y-1.513 E13.40494
G1 X-10.589 Y-2.165 E13.47480
G1 X-10.524 Y-2.652 E13.52734
G1 X-10.418 Y-3.218 E13.58881
G1 X-10.283 Y-3.763 E13.64888
G1 X-10.121 Y-4.296 E13.70848
G1 X-9.936 Y-4.812 E13.76701
G1 X-9.732 Y-5.300 E13.82359
G1 X-9.506 Y-5.763 E13.87865
G1 X-9.203 Y-6.290 E13.94359
G1 X-8.192 Y-7.819 E14.13955
G1 X-8.257 Y-7.914 E14.15180
G1 X-6.437 Y-9.085 E14.38312
G1 X-6.036 Y-9.316 E14.43254
G1 X-5.191 Y-9.715 E14.53246
G1 X-4.509 Y-9.961 E14.60991
G1 X-4.161 Y-10.059 E14.64860
G1 X-3.307 Y-10.242 E14.74191
G1 X-2.382 Y-10.350 E14.84154
G1 X-1.496 Y-10.372 E14.93620
G1 X-1.089 Y-10.358 E14.97976
G1 X-0.190 Y-10.266 E15.07633
G1 X0.660 Y-10.101 E15.16893
G1 X1.520 Y-9.852 E15.26461
G1 X2.359 Y-9.524 E15.36086
G1 X2.716 Y-9.358 E15.40299
G1 X3.487 Y-8.941 E15.49668
G1 X4.215 Y-8.455 E15.59023
G1 X4.872 Y-7.916 E15.68111
G1 X5.203 Y-7.598 E15.73013
G1 X5.546 Y-7.225 E15.78433
G1 X5.867 Y-6.830 E15.83866
G1 X6.117 Y-6.483 E15.88439
G1 X6.414 Y-6.011 E15.94397
G1 X7.876 Y-3.325 E16.27086
G1 X-9.661 Y-9.708 F4800.000
G1 X-10.805 Y-9.735 E16.39318 F450.000
G1 X-11.292 Y-10.046 E16.45490
G1 X-11.743 Y-10.894 E16.55760
G1 X-11.886 Y-11.380 E16.61167
G1 X-9.390 Y-13.736 E16.97863
G1 X-9.391 Y-12.957 E17.06196
G1 X-9.469 Y-11.912 E17.17395
G1 X-9.601 Y-11.193 E17.25213
G1 X-9.740 Y-10.950 E17.28200
G1 X-9.665 Y-9.768 E17.40857
G1 X9.375 Y-4.176 F4800.000
G1 X10.159 Y-7.066 E17.72860 F450.000
G1 X10.594 Y-8.168 E17.85526
G1 X11.133 Y-9.299 E17.98914
G1 X15.090 Y-16.902 E18.90532
G1 X16.122 Y-16.503 E19.02362
G1 X16.962 Y-16.093 E19.12348
G1 X17.844 Y-15.563 E19.23351
G1 X14.373 Y-7.736 E20.14875
G1 X13.825 Y-6.608 E20.28282
G1 X13.231 Y-5.574 E20.41028
G1 X12.587 Y-4.693 E20.52689
G1 X12.022 Y-4.130 E20.61222
G1 X11.154 Y-3.720 E20.71479
G1 X10.678 Y-3.739 E20.76564
G1 X10.402 Y-3.867 E20.79827
G1 X9.433 Y-4.159 E20.90640
G1 X8.499 Y-3.673 F4800.000
G1 X9.480 Y-7.291 E21.30706 F1200.000
G1 X9.939 Y-8.453 E21.44061
G1 X10.494 Y-9.617 E21.57846
G1 X14.576 Y-17.461 E22.52360
G1 X14.719 Y-17.675 E22.55108
G1 X15.216 Y-17.595 E22.60486
G1 X15.472 Y-17.520 E22.63341
G1 X16.408 Y-17.158 E22.74069
G1 X17.303 Y-16.721 E22.84709
G1 X18.264 Y-16.136 E22.96743
G1 X18.677 Y-15.745 E23.02820
G1 X18.606 Y-15.518 E23.05363
G1 X15.021 Y-7.435 E23.99878
G1 X14.456 Y-6.273 E24.13683
G1 X13.831 Y-5.184 E24.27112
G1 X13.131 Y-4.226 E24.39790
G1 X12.403 Y-3.520 E24.50625
G1 X11.300 Y-3.000 E24.63661
G1 X10.507 Y-3.030 E24.72149
G1 X10.147 Y-3.198 E24.76400
G1 X8.940 Y-3.561 E24.89865
G1 X8.775 Y-3.306 E24.93119
G1 X8.675 Y-3.350 E24.94291
G1 X8.734 Y-3.242 E24.95612
G1 X8.234 Y-2.466 E25.05474
G1 X8.338 Y-1.406 E25.16857
G1 X8.334 Y-1.293 E25.18073
G1 X8.129 Y-0.095 E25.31060
G1 X7.933 Y0.873 E25.41617
G1 X7.766 Y1.531 E25.48874
G1 X7.589 Y2.079 E25.55024
G1 X7.231 Y2.968 E25.65273
G1 X7.064 Y3.326 E25.69493
G1 X6.748 Y3.921 E25.76697
G1 X6.396 Y4.499 E25.83929
G1 X6.033 Y5.011 E25.90634
G1 X5.596 Y5.551 E25.98061
G1 X5.144 Y6.032 E26.05114
G1 X4.709 Y6.434 E26.11447
G1 X4.150 Y6.884 E26.19121
G1 X3.616 Y7.254 E26.26065
G1 X3.058 Y7.583 E26.32985
G1 X2.480 Y7.874 E26.39912
G1 X1.885 Y8.121 E26.46797
G1 X1.327 Y8.313 E26.53096
G1 X0.652 Y8.496 E26.60574
G1 X0.024 Y8.619 E26.67416
G1 X-0.607 Y8.701 E26.74214
G1 X-3.630 Y8.855 E27.06570
G1 X-6.209 Y7.604 E27.37213
G1 X-6.772 Y7.285 E27.44122
G1 X-7.312 Y6.933 E27.51017
G1 X-7.827 Y6.546 E27.57902
G1 X-8.316 Y6.121 E27.64825
G1 X-8.778 Y5.667 E27.71752
G1 X-9.208 Y5.178 E27.78709
G1 X-9.571 Y4.709 E27.85048
G1 X-9.966 Y4.117 E27.92654
G1 X-10.294 Y3.541 E27.99738
G1 X-10.573 Y2.960 E28.06629
G1 X-10.813 Y2.347 E28.13672
G1 X-11.012 Y1.716 E28.20738
G1 X-11.165 Y1.083 E28.27695
G1 X-11.273 Y0.432 E28.34751
G1 X-11.338 Y-0.209 E28.41643
G1 X-11.367 Y-0.889 E28.48917
G1 X-11.353 Y-1.549 E28.55968
G1 X-11.300 Y-2.240 E28.63377
G1 X-11.230 Y-2.766 E28.69046
G1 X-11.116 Y-3.370 E28.75616
G1 X-10.972 Y-3.953 E28.82039
G1 X-10.799 Y-4.521 E28.88386
G1 X-10.602 Y-5.071 E28.94626
G1 X-10.382 Y-5.595 E29.00705
G1 X-10.137 Y-6.098 E29.06685
G1 X-9.811 Y-6.665 E29.13675
G1 X-9.053 Y-7.813 E29.28384
G1 X-9.862 Y-8.999 E29.43727
G1 X-11.025 Y-9.026 E29.56161
G1 X-11.792 Y-9.510 E29.65858
G1 X-11.854 Y-9.583 E29.66877
G1 X-12.407 Y-10.623 E29.79470
G1 X-12.695 Y-11.598 E29.90336
G1 X-8.709 Y-15.361 E30.48931
G1 X-8.675 Y-14.331 E30.59952
G1 X-8.677 Y-12.930 E30.74929
G1 X-8.759 Y-11.820 E30.86819
G1 X-8.921 Y-10.944 E30.96340
G1 X-9.013 Y-10.782 E30.98338
G1 X-8.861 Y-8.375 E31.24118
G1 X-6.809 Y-9.695 E31.50201
G1 X-6.373 Y-9.946 E31.55578
G1 X-5.453 Y-10.379 E31.66447
G1 X-4.728 Y-10.641 E31.74685
G1 X-4.333 Y-10.753 E31.79072
G1 X-3.432 Y-10.946 E31.88917
G1 X-2.865 Y-11.025 E31.95039
G1 X-2.421 Y-11.063 E31.99803
G1 X-1.493 Y-11.086 E32.09725
G1 X-1.041 Y-11.071 E32.14563
G1 X-0.086 Y-10.974 E32.24821
G1 X0.828 Y-10.796 E32.34773
G1 X1.750 Y-10.529 E32.45032
G1 X2.639 Y-10.181 E32.55239
G1 X3.036 Y-9.997 E32.59919
G1 X3.856 Y-9.554 E32.69880
G1 X4.633 Y-9.035 E32.79862
G1 X5.354 Y-8.443 E32.89829
G1 X5.713 Y-8.097 E32.95163
G1 X6.087 Y-7.692 E33.01050
G1 X6.434 Y-7.264 E33.06946
G1 X6.709 Y-6.882 E33.11974
G1 X7.030 Y-6.373 E33.18410
G1 X8.470 Y-3.726 E33.50619
G1 X9.249 Y-2.723 F4800.000
G1 X8.969 Y-2.288 E33.56142 F600.000
G1 X9.054 Y-1.427 E33.65390
G1 X9.046 Y-1.218 E33.67626
G1 X8.831 Y0.036 E33.81229
G1 X8.629 Y1.032 E33.92089
G1 X8.453 Y1.729 E33.99774
G1 X8.261 Y2.322 E34.06438
G1 X7.886 Y3.252 E34.17159
G1 X7.704 Y3.644 E34.21778
G1 X7.369 Y4.275 E34.29413
G1 X6.992 Y4.891 E34.37132
G1 X6.603 Y5.442 E34.44344
G1 X6.134 Y6.021 E34.52301
G1 X5.648 Y6.539 E34.59897
G1 X5.176 Y6.975 E34.66761
G1 X4.578 Y7.457 E34.74974
G1 X4.001 Y7.856 E34.82474
G1 X3.400 Y8.210 E34.89925
G1 X2.778 Y8.524 E34.97381
G1 X2.138 Y8.789 E35.04786
G1 X1.537 Y8.996 E35.11575
G1 X0.814 Y9.192 E35.19581
G1 X0.138 Y9.324 E35.26940
G1 X-0.543 Y9.413 E35.34279
G1 X-2.436 Y9.509 E35.54544
G1 X-1.272 Y10.511 E35.70962
G1 X-1.154 Y10.734 E35.73654
G1 X-1.061 Y11.030 E35.76970
G1 X-1.056 Y11.198 E35.78769
G1 X-1.082 Y11.361 E35.80532
G1 X-1.278 Y11.737 E35.85065
G1 X-1.287 Y12.342 E35.91531
G1 X-1.380 Y12.921 E35.97795
G1 X-1.416 Y13.336 E36.02256
G1 X-1.408 Y14.340 E36.12987
G1 X-1.366 Y14.964 E36.19673
G1 X-1.287 Y15.596 E36.26471
G1 X-1.164 Y16.280 E36.33900
G1 X-0.867 Y17.694 E36.49350
G1 X-0.780 Y18.228 E36.55134
G1 X-0.730 Y18.703 E36.60233
G1 X-0.702 Y19.247 E36.66064
G1 X-0.734 Y20.012 E36.74241
G1 X-0.776 Y20.363 E36.78017
G1 X-0.883 Y20.924 E36.84121
G1 X-1.085 Y21.482 E36.90464
G1 X-1.147 Y21.603 E36.91927
G1 X-1.366 Y22.303 E36.99762
G1 X-1.479 Y23.081 E37.08168
G1 X-1.402 Y23.895 E37.16906
G1 X-1.551 Y24.006 E37.18894
G1 X-1.866 Y24.028 E37.22273
G1 X-2.273 Y24.130 E37.26757
G1 X-2.514 Y24.132 E37.29330
G1 X-2.756 Y24.088 E37.31960
G1 X-3.018 Y24.009 E37.34888
G1 X-3.220 Y23.894 E37.37370
G1 X-3.825 Y23.417 E37.45602
G1 X-4.367 Y23.140 E37.52105
G1 X-4.857 Y22.780 E37.58610
G1 X-5.211 Y22.774 E37.62388
G1 X-5.554 Y22.809 E37.66076
G1 X-5.653 Y22.841 E37.67183
G1 X-5.979 Y22.889 E37.70714
G1 X-6.477 Y22.900 E37.76029
G1 X-6.769 Y22.864 E37.79185
G1 X-7.006 Y22.725 E37.82111
G1 X-7.287 Y22.466 E37.86198
G1 X-7.489 Y22.218 E37.89624
G1 X-7.947 Y21.538 E37.98386
G1 X-8.270 Y21.254 E38.02979
G1 X-8.492 Y21.149 E38.05609
G1 X-8.700 Y21.109 E38.07876
G1 X-8.963 Y21.110 E38.10685
G1 X-9.246 Y21.172 E38.13774
G1 X-9.945 Y21.409 E38.21661
G1 X-10.074 Y21.407 E38.23041
G1 X-10.189 Y21.373 E38.24322
G1 X-10.278 Y21.310 E38.25490
G1 X-10.446 Y21.134 E38.28095
G1 X-10.745 Y20.743 E38.33359
G1 X-10.949 Y20.574 E38.36186
G1 X-11.240 Y20.453 E38.39558
G1 X-11.641 Y20.453 E38.43839
G1 X-12.425 Y20.657 E38.52501
G1 X-12.746 Y20.711 E38.55980
G1 X-12.837 Y20.710 E38.56957
G1 X-13.085 Y20.629 E38.59740
G1 X-13.165 Y20.582 E38.60729
G1 X-13.250 Y20.495 E38.62030
